/* XPM */
static const char *genzo_xpm[] = {
/* columns rows colors chars-per-pixel */
"253 252 7105 2",
"vY c #BEB4B3",
"   c #FFFFFF",
"f* c #769B92",
".  c #FCFBFB",
"kx c #443A37",
"qX c #5F7268",
"oh c #A59D9B",
"f$ c #709489",
"1X c #7AADA4",
"n< c #FFEFCB",
"Q& c #E3DFDF",
"wa c #68707D",
"X  c #D7D1D1",
"f1 c #B5AFAE",
"G. c #657B72",
"Wf c #484240",
"_# c #7BA69B",
"I5 c #9AABB1",
"{w c #4C3B2B",
"tB c #626C64",
"o  c #ADA4A3",
"O  c #A89E9D",
"aN c #3D312A",
"+  c #A69E9C",
"47 c #FCECCC",
"_O c #EDEBEB",
"M$ c #463D32",
"DX c #A39997",
"_3 c #B7D2DE",
"u$ c #79AEA4",
"~q c #47423E",
"+. c #A39B99",
"-> c #D1C2A8",
"/5 c #F4E4CB",
"@  c #9E9592",
"lS c #6F8980",
"rS c #66887E",
"6Z c #81A398",
"g2 c #B7B1B0",
"#  c #CEC8C6",
"xi c #6A7989",
"u# c #4F5D53",
"2X c #7AADA2",
"BF c #4A4F48",
"3A c #68867D",
"/3 c #72787D",
"oX c #77A8A0",
"|& c #769E93",
"$  c #F0EDEC",
"6+ c #CFC8C7",
"Q  c #78AAA2",
"ya c #B1D4DD",
"T> c #D2C6AC",
"_$ c #678279",
"ii c #44312B",
"@C c #7DA99E",
"%  c #E0DCDC",
"L- c #807676",
"`W c #443527",
"b= c #6D615E",
"D. c #9E9492",
" = c #EDEAEB",
"SN c #362B23",
"}c c #484745",
"@: c #544438",
"&  c #DDD7D8",
"c3 c #FBECCF",
"*  c #CFC9C9",
"|D c #3C342C",
"4x c #4C4B49",
"BX c #7AACA2",
"y6 c #F5E8C9",
"4N c #3F302B",
"A- c #837C7B",
"[. c #362E24",
"'R c #D2CCCA",
" @ c #534037",
"3y c #B9D5DA",
"}P c #3B3E35",
"h6 c #CBBBA2",
"=  c #A29797",
"n. c #74ABA1",
"2: c #514535",
"aX c #948887",
"%; c #544736",
"O9 c #9B9292",
"Gy c #6A7889",
"5< c #FBEDCB",
"-  c #6A5B58",
"-X c #9D9391",
"/X c #78ADA2",
";  c #46332E",
"[d c #67737F",
":  c #392B23",
"F* c #5B5F55",
"M# c #78A79A",
"y  c #C5BFBF",
"C: c #433424",
"*A c #6E8A83",
"6m c #5C5E65",
":g c #6C7988",
">  c #34281F",
"cU c #434139",
"e. c #7EAAA1",
"*g c #5E6067",
"Jr c #7C95A2",
"UO c #D6CFCE",
"`R c #ABA2A0",
" J c #759D8F",
",  c #3C3025",
"5  c #C8C1C2",
"6u c #6C7C89",
"<  c #655953",
"1  c #9C9391",
"27 c #6C5D4B",
"5w c #B7D4DF",
"su c #A5BECB",
"{S c #443A32",
">> c #D3C4AB",
"$u c #A9A2A3",
"_; c #493A2B",
"W- c #817875",
"(  c #BBB4B3",
":< c #FCEDCB",
"RO c #362723",
"2  c #CBC6C5",
"JO c #EAE7E7",
"T- c #89807E",
"^F c #434642",
"mX c #3A2C21",
"}t c #5A5A5B",
"&i c #677686",
".i c #677888",
"'2 c #FFEDCB",
"9# c #57655B",
"3  c #E9E7E7",
"T. c #392F26",
"Bp c #6B7687",
"Oj c #A79881",
"-l c #3D3732",
"c; c #4D392C",
"g  c #7C9F93",
"4  c #EBE7E8",
"_  c #9C928F",
"0; c #4A3B2A",
"6  c #7D7272",
"Q: c #DED1B6",
"A  c #79AAA0",
"/g c #96ADBA",
"Gu c #352F2F",
"-$ c #343027",
"*P c #3D3F37",
" $ c #7DA89E",
",E c #688376",
"7  c #3E2F28",
"Y# c #7CA59A",
")o c #C0B8B9",
"Rk c #687683",
"jo c #75AEA2",
"pj c #6B747E",
"8  c #383227",
"o3 c #3A2B21",
":r c #4C3D31",
"9  c #42473D",
"$# c #525D53",
"QB c #535A50",
"v. c #3B2F23",
"F+ c #7D706C",
"7J c #DCD6D7",
"-. c #76ABA2",
"0  c #57645A",
"qR c #46433C",
"FL c #73978D",
"|h c #6B7583",
"4X c #77AB9D",
"}# c #7CA89F",
"q  c #65746A",
"br c #FDF0CE",
"jO c #A19597",
"R0 c #686C71",
"/L c #6E998C",
"1: c #483B2C",
"i* c #72968D",
"HF c #474941",
"H. c #77AAA0",
"zt c #B2C4CB",
"ka c #98ADBA",
"jV c #626C63",
"w  c #4B594D",
"xb c #433836",
"lX c #77AC9E",
"G7 c #4E504B",
"oI c #3D3F35",
"e  c #31362A",
"v5 c #8F7E6C",
"N5 c #473929",
"E> c #CCC2A5",
"xJ c #77AE9E",
"|. c #E6E1E2",
"nY c #BFB4B4",
"r  c #372F25",
"qL c #699085",
"xs c #748997",
"t  c #6D6360",
"%* c #7B9B8E",
"gy c #A59FA0",
"u  c #E6E3E3",
"F4 c #392B20",
"vU c #3F3C33",
"CO c #433732",
"CX c #3B2E24",
"5i c #697785",
"vX c #E9E4E4",
"NX c #77ACA2",
" e c #F8E8C9",
"od c #7F94A2",
"R  c #79ABA1",
"i  c #ECE7E8",
"H; c #48372C",
"b0 c #402F29",
"BT c #C2BBBB",
"p  c #D1CACB",
"=g c #6A7581",
"b  c #DCD8D8",
"4- c #46453D",
"a  c #7D7172",
"pt c #847260",
"O2 c #FDF0CB",
"H  c #353023",
"I& c #E4E1E1",
"y$ c #79AEA5",
"E6 c #F3E6C7",
"2V c #60695D",
"s  c #3C3129",
"n6 c #857762",
"e& c #75AEA0",
"{  c #76ACA1",
"o, c #D4C7AE",
"d  c #495248",
"Pz c #452F26",
"3$ c #77AFA0",
"f  c #688377",
"h  c #83A79C",
"mU c #4A473D",
">l c #8C7D69",
"~% c #E8E5E5",
"F  c #7B9D93",
"l4 c #7A6754",
"^m c #55595D",
"M  c #41302A",
"3@ c #3F3325",
"NP c #3E423B",
"j  c #84A89F",
",k c #DCCBAC",
"m1 c #7F6E60",
"k  c #7EA299",
"L$ c #77AFA4",
"Xr c #484541",
"l  c #708D81",
"Nq c #FAE9CB",
"s. c #75A9A0",
" q c #B6D5DF",
"yo c #3B2821",
"z  c #516053",
"0q c #B0A08A",
":h c #3B2E2B",
"zX c #5E7C6C",
"82 c #412E25",
"x  c #353326",
"1H c #759F92",
"DS c #443A30",
"c1 c #DCD9D9",
"[B c #5D695C",
"L  c #C1BAB9",
"Zw c #8B7966",
"]l c #47392B",
"&2 c #A9A2A0",
" > c #D3C4AC",
"hO c #AAA0A1",
"6. c #3E3025",
"7w c #99A6AC",
")e c #6C5D4C",
"Cy c #7E95A2",
"&I c #414139",
"3C c #7CAAA1",
"[# c #7BA8A0",
"8e c #9F8C78",
"c  c #675E5A",
"*F c #887B77",
"[z c #6A7785",
"6X c #382E24",
",. c #7AABA1",
"#F c #D2D0D0",
"zS c #6D877E",
"uu c #687A88",
"3F c #715D58",
"cS c #748F87",
"v  c #C5BFBE",
"n  c #E2DDDD",
";j c #666B73",
"b- c #87807F",
"rm c #56585E",
"Cp c #55504D",
"s# c #79AFA4",
"<; c #433321",
"/. c #75ABA3",
"#o c #74ADA4",
"n= c #726663",
"m  c #9A8D8E",
"W> c #D4C7AC",
"cW c #47352D",
"tY c #BAB0AF",
"[, c #FCEECB",
"'z c #3E2D28",
"/  c #514943",
"f0 c #96A4A7",
";B c #616A5E",
"<* c #7BA096",
"50 c #B2D3E2",
"N  c #525950",
"rX c #78AEA2",
"k; c #493D2A",
"B  c #7B988F",
"V  c #7DAB9F",
"C  c #7BADA0",
"++ c #6D6562",
"b% c #BEB8B8",
"JF c #414138",
"fO c #D1CBCA",
"}u c #B4D0DA",
"m. c #79ABA2",
"$n c #4A4345",
"!< c #FEEECE",
"j. c #6E827A",
"&= c #5E5050",
"Qo c #75AEA1",
"Z  c #7AACA0",
"bj c #988875",
"Iw c #46382B",
"W& c #D3CFCF",
"V% c #76AEA1",
"N. c #79ACA0",
"S  c #7AABA2",
"D  c #7DABA1",
"Q5 c #788081",
"kR c #473630",
"e1 c #B6B0AF",
"G  c #536357",
"J  c #807A78",
")w c #5D6160",
"0x c #46342D",
"mj c #A8A09F",
"P> c #D2C1AE",
"). c #79ABA3",
"K  c #D5D1D1",
"P  c #5E504C",
",0 c #D0BEA8",
",c c #4B4243",
"^k c #AEA088",
"]+ c #4C4D45",
"Q. c #A19796",
"J0 c #61503F",
",m c #453631",
"UX c #61756C",
"@m c #635F68",
"I  c #413D34",
"}Z c #708C82",
"(& c #DBD6D7",
"U  c #779288",
"OA c #718C85",
"On c #575A61",
"Y  c #7EACA2",
"DZ c #7AAEA0",
"T  c #79ACA1",
"=e c #B2D6E0",
"7+ c #CEC8C7",
"q. c #79AAA2",
"E  c #78ABA0",
"Y. c #637E72",
"`S c #3F342C",
"NS c #57594F",
"63 c #F6E8C9",
"z- c #776D6B",
"M. c #79ACA2",
"w1 c #E7E4E4",
"]# c #7AA7A0",
"!@ c #4A5146",
"qO c #A19797",
"W  c #77ABA1",
"L& c #D3CDCF",
"fi c #40342B",
"ZZ c #79AEA0",
"AM c #4B3D37",
"P. c #7AACA1",
")W c #D0CAC9",
"|3 c #F9E9CD",
"v+ c #7E726F",
" 0 c #B4D6E1",
"!  c #7EA9A2",
"~  c #779289",
"p> c #D2C5AA",
")Z c #D8D5D4",
"!h c #7D6959",
"qJ c #ADB1B1",
"%. c #3D2E24",
"G5 c #EDDFC3",
"^  c #3C4033",
"Ix c #697681",
")  c #E4DFDF",
"h2 c #423028",
"`  c #423228",
":d c #6B7689",
"b$ c #E9E5E6",
"'  c #5D665B",
"Et c #636867",
"eB c #5F6B5F",
"@y c #6E8691",
"hX c #7AACA3",
"<5 c #3E372A",
"hJ c #79AD9F",
"]  c #80A89D",
"jX c #7AADA3",
"B. c #7BAA9F",
")y c #A9C5D0",
"uO c #74AEA0",
"[  c #77ACA1",
"xt c #BCD6E0",
"Ic c #4A382D",
"%k c #DDCFB3",
"}  c #78AAA1",
"|  c #77ABA2",
"T: c #E6E4E4",
"gX c #78ACA2",
"]7 c #F7E8C9",
"Wt c #3E342C",
"]3 c #4F4132",
"B% c #7AA799",
"{. c #948A88",
"_y c #9DB6C1",
"m: c #493A29",
"Z& c #D7D0D1",
" . c #76ABA1",
"gi c #504D51",
"'O c #CDC8C7",
".. c #7AAAA2",
"h7 c #B3D4DD",
"X. c #7FA39B",
"X, c #D3C5AE",
"Nt c #AECBD5",
"o. c #515F52",
"/V c #7BA79C",
"*; c #483929",
"V; c #473427",
":X c #9B908F",
"1e c #ECDCC4",
"&$ c #77B0A3",
"]. c #77AA9D",
"Q3 c #FEEDCD",
"X; c #473629",
"O. c #3D3328",
"3; c #4E3D2D",
";C c #7AA89F",
"g< c #422E25",
"1P c #43483E",
"+J c #769F92",
"@. c #DFD9D9",
"#. c #ECE9E9",
":M c #423632",
"s> c #D2C2AE",
"]X c #EEEAEA",
"K; c #453528",
"Ry c #6D8691",
"_. c #79ACA3",
"$. c #A49A98",
"&. c #63756D",
"-g c #6B7B89",
"': c #D3C6AE",
"he c #B7D4E0",
"z= c #857C7A",
"iX c #ECE8E7",
"^c c #493A30",
":1 c #3E2C29",
"q* c #789F92",
">X c #392B1F",
"RF c #4E534C",
".g c #867768",
"*. c #79A9A1",
"Sj c #6B7785",
"yX c #392E24",
"}; c #4E3F30",
")D c #453A34",
"_0 c #FCEBCA",
"W2 c #F9EAC8",
"=. c #75ACA2",
"~. c #657A70",
"|L c #A09897",
";. c #77AAA2",
"{I c #6C5E5A",
"6% c #404038",
":. c #77AAA1",
"n# c #79AEA1",
">. c #76ACA0",
"-d c #B7D6DF",
"l* c #72958B",
"n* c #74988C",
"<. c #7FA9A0",
"I7 c #413D36",
"N7 c #9F9898",
":f c #646772",
"X< c #FDEDCD",
"{5 c #443629",
"%E c #475147",
"t. c #3E3328",
"3. c #A09695",
"o< c #FBEECA",
"+- c #474840",
"{3 c #FCEDC8",
"1. c #6A7D72",
"we c #91806E",
"u< c #FBECCA",
"w5 c #877763",
"2. c #3B3125",
"4. c #EAE6E6",
"%% c #887F7B",
"1W c #7FABA4",
"5. c #9B8F8C",
"!G c #A19897",
"0. c #76AAA2",
"Fa c #A9A4A3",
"WG c #9E9593",
"7. c #698077",
">i c #4D5052",
"8. c #76A9A2",
"3E c #7F706C",
" S c #69857D",
"'3 c #424039",
"ck c #534E4E",
"9. c #74ABA2",
"IR c #786D6B",
"uF c #45463F",
">x c #534B4E",
"^X c #76ACA2",
"q5 c #F9E8C9",
";X c #E8E4E4",
"w. c #78ABA1",
"A+ c #C7C1C0",
"cX c #978B89",
"r. c #70847B",
"$X c #79ADA1",
"4% c #7A968E",
"Np c #6B7889",
"Fl c #3C2E20",
"-< c #FAEDCB",
"S. c #ECE7E7",
"Ae c #3E3933",
"ch c #63656E",
"N* c #7B9C95",
"y. c #8C807E",
"-+ c #495447",
"t< c #FBEDCE",
"}> c #CABEA6",
"-# c #545E58",
"0X c #37291E",
"TZ c #7EAEA2",
"1, c #D0C0A2",
"kB c #5D6A61",
"g$ c #79B2A5",
".j c #49494C",
"FU c #DCD7D7",
"u. c #E2DEDE",
"<> c #D1C4AA",
"i. c #E8E4E3",
"{@ c #57625A",
" X c #938685",
"p. c #968B87",
"XA c #68847B",
"Yd c #766350",
"G1 c #F1E2C4",
"-- c #424439",
"a. c #678177",
"xo c #A39897",
"d. c #74AAA2",
"R. c #ABA4A3",
"Nw c #9EAEB4",
"M: c #4A3B2B",
",: c #45392A",
"4= c #7A706E",
"GF c #4B5149",
"H2 c #766453",
"SG c #4C4F48",
"!> c #D4C8AD",
"f. c #76AAA1",
"YE c #CBC5C3",
"g. c #7AA9A2",
"uw c #4B3830",
"r9 c #EBD9BF",
"h. c #7CA9A0",
"@l c #54555C",
"E= c #4A4F44",
"iv c #6A7580",
"fo c #3E2B22",
"EW c #4C3E37",
"k. c #3F342A",
"=o c #3D3227",
"}l c #6D7683",
"3= c #827876",
"l. c #7B6F6E",
"z. c #D8D4D4",
"`i c #847662",
" s c #99B2BF",
"^v c #51443C",
"Q< c #FEEECD",
"x. c #E6E1E0",
"E. c #EDE9E9",
")g c #8195A1",
"ZC c #433632",
"@5 c #705F4E",
"D, c #402D24",
"0> c #D7C7AD",
"c. c #918581",
"b. c #657C74",
":U c #6D615C",
"V. c #688076",
"5: c #453124",
"5% c #413930",
"`+ c #85A39B",
"U. c #78AA9D",
"'q c #D5C3AB",
"ap c #F0E3C6",
"C. c #3C3229",
"{< c #FFF0CC",
"Z. c #9A9190",
"3% c #7BACA4",
"Qq c #A99783",
"Dq c #F5E6C8",
"iK c #695F5B",
"dl c #9E907D",
"dX c #64776E",
"3r c #657886",
"Vz c #68707B",
"A. c #E6E2E3",
";> c #D9C9B1",
"Ig c #68707A",
".$ c #7DA79E",
"to c #A29696",
"+O c #403129",
"Ia c #484446",
"Ik c #6C7787",
"F. c #3B2F24",
"D8 c #877865",
"J. c #74AAA1",
"3> c #CEC3A8",
"JX c #5E7C6D",
"wW c #4E5049",
":L c #6F978D",
"K. c #78ABA2",
"nX c #A09594",
"_p c #57565E",
"a; c #4D3E2C",
",a c #443528",
"L. c #78ACA3",
"I. c #78ACA0",
"3X c #77AEA1",
"Vd c #B9D6DF",
"u3 c #A39E9D",
"th c #F1E2C3",
"px c #433027",
"@h c #F6E7CB",
"*+ c #505A4E",
"9X c #9B9190",
"c: c #4B3928",
"Eq c #FFEEC9",
"W. c #ECE8E8",
"(4 c #B9D3DC",
",v c #535150",
"`. c #7AADA1",
"Gj c #4B4443",
"!. c #3D2F24",
"Ri c #6A7787",
"Sc c #4E4446",
"0% c #76AB9F",
"7I c #474A41",
"^. c #77A9A0",
"x6 c #B4D5DF",
"/u c #A1A9B2",
"(. c #77ABA3",
"]z c #4F4A4E",
"O$ c #74847B",
"'. c #78ADA0",
"}. c #E7E3E2",
"aT c #AEA4A3",
"f4 c #B8D4DD",
"+l c #504C4D",
"J, c #7D6C58",
"VX c #5E7E6D",
"y1 c #F3E5C5",
".X c #3D2E22",
"XX c #64776D",
"/r c #94A4A8",
"Mj c #4F3A31",
"OX c #75ABA4",
"Zn c #483935",
"/* c #DFDCDD",
"ig c #EDDFC2",
"u+ c #BFB6B3",
"FX c #3D2F22",
"@< c #FCEFCB",
"hf c #6C7E8C",
"]R c #CEC8C8",
"eX c #79ADA4",
">P c #3F4039",
"m= c #776B68",
"'& c #A9A09F",
"5d c #403125",
"+X c #78ABA3",
"kI c #433D35",
"t; c #473826",
"li c #677886",
"@e c #F4E4C9",
"xd c #B2CFDA",
"*z c #AB9783",
"@X c #79ACA4",
"ry c #B6D8DF",
"#X c #79ADA3",
"mc c #3E3736",
"6# c #515E56",
"S@ c #D4CECF",
"%X c #77ADA1",
"1k c #3A2E25",
"44 c #FEEDC8",
"E2 c #FBEDC9",
"KX c #AA9F9E",
"&X c #76AA9D",
"i; c #443424",
"7m c #5B5E65",
"*X c #617C71",
"}a c #6B7988",
"=X c #382F25",
"gO c #C5BDBD",
",X c #5F7369",
"vr c #EEDEC3",
"w; c #483826",
"Xi c #687886",
"kz c #676A6F",
"Bk c #554631",
"<X c #76ACA4",
"KI c #746763",
"4O c #AFA5A6",
"B; c #4C3C2D",
"5X c #5F7B6F",
"~2 c #F9E8CA",
"|t c #A4B0B7",
"2M c #595961",
"N, c #CBBDA3",
"AX c #E9E5E5",
"R7 c #8D7D69",
"Td c #3D2C22",
"7X c #ABA3A1",
"J+ c #525C51",
"8X c #E1DBDB",
"54 c #796653",
"V& c #D9D4D5",
"v8 c #3F3B32",
"wX c #79A8A1",
"+= c #D6D1D3",
"tX c #5C7A6C",
"{A c #6B867C",
"Hx c #6D7781",
"84 c #ECEAEB",
"UC c #51574D",
"uX c #9F9492",
"ZX c #998D8C",
"]n c #677683",
"b# c #7AAEA2",
"}R c #5E7369",
"pX c #E8E3E3",
"T= c #4C4E44",
"H= c #40382E",
"`% c #4A4B45",
"sX c #3B2C21",
"Ta c #667686",
"jF c #40423C",
"x4 c #9F9899",
"fX c #77ACA3",
"1* c #7B9D95",
"}E c #D4D0CD",
"kX c #78AEA3",
"xX c #3C2F24",
"|p c #6B7787",
"bX c #EBE6E7",
"Do c #3E2E26",
"MX c #61766D",
"bC c #565B59",
"Yn c #3C2D25",
"N+ c #C7BFBC",
"GS c #453D32",
"1l c #B0A8A8",
"D4 c #676968",
"oH c #76A096",
"SX c #EEEBEB",
"GX c #62766C",
"HX c #78AB9F",
"ur c #AFC6CF",
"LX c #ECE8E9",
";I c #48473D",
";o c #EAE5E5",
"$9 c #ECDCC0",
"tD c #463D31",
".= c #E1DDDE",
"bV c #606860",
"A@ c #695C5D",
"PX c #998E8B",
"Rs c #FAE8CA",
",r c #A4B5C0",
"IX c #3D2F23",
"sk c #E5E2E1",
"YX c #75ACA3",
"Z% c #5E6A64",
"*a c #667787",
"TX c #7AAB9F",
"!- c #877C7C",
"RX c #627E6F",
"Fr c #687786",
"EX c #3D3125",
"+z c #3F3C40",
"WX c #998E8C",
"Jn c #646A71",
"5# c #4E5B54",
"QX c #3A2C22",
"79 c #A4B9BF",
"Yh c #5E513F",
"ST c #E0DBDB",
"2b c #372922",
"!X c #5E746C",
"~X c #74ADA3",
"5N c #40312B",
"#> c #C5B79C",
"lp c #687587",
"68 c #595855",
"U9 c #857566",
"Wg c #352B28",
"(X c #79A99E",
" W c #3C3D32",
"b+ c #C6BEBD",
")X c #627C6F",
"Gp c #7F95A1",
"}e c #82898C",
"Ro c #A79F9F",
"Tq c #FCEEC7",
"<M c #5B5A60",
"X0 c #B5C8D4",
"_X c #3C3126",
"z7 c #342D2A",
"*E c #3E2F25",
"`X c #908482",
"}6 c #675546",
"Pg c #474849",
"NV c #595D54",
"u& c #7AB0A4",
"`F c #4D5550",
"#m c #3D322D",
"w+ c #CCC6C4",
"3f c #948573",
"u1 c #FFF0CB",
"LC c #7BAEA5",
"'X c #E6E1E1",
"[X c #3B2C22",
"): c #CEC1A9",
"{X c #5C756B",
"xx c #412E23",
"}X c #78ADA3",
"hd c #777A81",
"v# c #678178",
"|X c #78AA9E",
" o c #617D70",
"kb c #514649",
"@@ c #4D3C33",
"}g c #FAE8C7",
".o c #3B3026",
"i3 c #DDD9DA",
"CT c #494F48",
"eD c #41382D",
"Xo c #9C918F",
"%+ c #9A908D",
"st c #A6A0A1",
"i2 c #F4E5C8",
":, c #D1C1A5",
"x: c #473523",
"oo c #9F9391",
"Oo c #402F23",
"U- c #908987",
"8@ c #3C3226",
"hA c #68867E",
"+o c #647C70",
":y c #677988",
"=* c #799F94",
"RJ c #76AEA0",
".l c #403A3A",
"@o c #75ACA1",
"-4 c #5C5D60",
"To c #DED8D9",
"vo c #657B6F",
";e c #7C8689",
"dg c #57575D",
"$o c #77ADA3",
"Mf c #CFBFA4",
"%o c #78ADA1",
"g9 c #A1ACB3",
"&o c #78AB9E",
":E c #748F88",
"== c #625A55",
"*o c #658173",
"{y c #A8C4CD",
"-o c #9A908E",
":o c #9A8C8B",
"R- c #857D7A",
">o c #3E2C22",
"B= c #413327",
"MT c #C4C0BF",
".T c #DAD5D6",
"I3 c #FEEDCA",
"1v c #49362C",
",o c #5F766A",
"}h c #5C5B5E",
"U: c #433731",
"<o c #75AEA4",
"El c #667886",
"8& c #423D35",
"@r c #F6E6C8",
"ru c #B3CFDA",
"1o c #78ACA4",
"<v c #ACA4A0",
"2o c #77ADA4",
"L< c #FDEFCB",
"Sr c #9DB7C3",
"~T c #CFC8C8",
"3o c #78ADA4",
"<3 c #9D8D79",
"@> c #C5B99D",
"4o c #79AB9F",
"E; c #4A3728",
"<7 c #B8B3B2",
"5o c #637C70",
"eK c #77AA9F",
"S7 c #F2E0C4",
"Ph c #666C74",
"6o c #9C9290",
"7o c #EBE8E8",
"14 c #6C7271",
"J* c #7B9C92",
"8o c #A29695",
"i& c #76B0A3",
"gB c #60695F",
"A< c #FFEFCE",
"hg c #6D7885",
"9o c #3A2921",
"4q c #917E6D",
"0o c #5C7268",
"BL c #71968C",
"qo c #5D746A",
"zy c #4C4746",
"{9 c #434543",
"9T c #3B342A",
" < c #FCEFCC",
">e c #7F6E5C",
"CS c #C2BDBC",
":: c #533E30",
"wo c #3A2B22",
"eo c #A59B99",
",L c #6D958B",
",; c #4A3928",
"-8 c #FEEEC9",
"[= c #434539",
"m+ c #CAC2C1",
"ro c #EDE8E8",
"j7 c #B8D3DC",
"cJ c #7BAEA0",
"(* c #DFDCDE",
"uo c #78ACA1",
";9 c #B3D6E0",
"io c #75AEA3",
"(r c #565959",
"=& c #7CAFA5",
";: c #523D31",
"po c #79ADA2",
":= c #756A68",
"*9 c #565859",
"ao c #60776E",
"8< c #FAF0CA",
"AO c #4C3C38",
"|* c #D1CCCD",
"[w c #382E26",
"so c #3A2D25",
"EB c #5D665C",
"do c #9E9091",
"go c #687E73",
"lh c #667887",
"o; c #48382B",
"`q c #715E4C",
"-% c #77ACA0",
"ho c #78AEA1",
"+d c #7C93A0",
"}$ c #3A2F26",
"ko c #60796E",
"xp c #687687",
"P3 c #FDEDC9",
"lo c #3C2E25",
"Nx c #463936",
"I< c #FFEECA",
"F: c #433222",
"!P c #393A30",
":# c #4E564F",
"tZ c #7FB2A8",
"zo c #A49A97",
"Z@ c #444B41",
"co c #3D2B20",
"pL c #73988F",
"hS c #678578",
"@4 c #3F2C27",
"bo c #77ADA0",
"QU c #6E736C",
"Ji c #514842",
"{b c #3B312F",
"M@ c #7EA59A",
"UT c #857876",
"`n c #6A7683",
"no c #77AEA2",
"+q c #ECDCBD",
"mo c #637D71",
"Mo c #3E3027",
"No c #9E9391",
"Bo c #E7E2E2",
",5 c #707675",
"B8 c #686B6D",
"Vo c #ABA2A1",
"7k c #686E78",
"v@ c #77978C",
"Co c #63786D",
"k< c #B4B0AE",
"yR c #4C584E",
"{c c #68747E",
"}x c #6B7683",
"Zo c #76AEA2",
"Ao c #77ACA4",
"W1 c #AEA8A7",
"&c c #5E5E65",
"q# c #4F5C52",
"So c #647C71",
"Yr c #E3D5BD",
"lv c #657587",
"IO c #EEEBEA",
"Se c #3C2F20",
"Ys c #46332A",
"[W c #57635B",
"Fo c #9E9392",
"Go c #A69C9C",
"Qm c #5A5C60",
"=2 c #7D6B5E",
"0* c #7BA196",
"Ho c #3F2D26",
"Q1 c #3D2A25",
":> c #D6C6AE",
"], c #FBEDCC",
"Jo c #667A70",
"E% c #575E59",
"GE c #746664",
"{= c #434136",
"Ko c #76ADA3",
")G c #9D9190",
"Lo c #79AB9E",
"V- c #867F7D",
"Po c #677E73",
"Oi c #697887",
"%4 c #FAEDCE",
"hh c #59575B",
"Io c #43342C",
"Uo c #A09694",
"Yo c #EDEAEA",
"jy c #725F4E",
"bB c #626D63",
"!+ c #7D978E",
"9u c #6C7B8B",
"Eo c #3E2D27",
"Nr c #4C4846",
"Js c #EAD9B7",
"hI c #403D35",
"Wo c #65776E",
"f, c #CDC1A2",
"!o c #78AB9D",
"~n c #494142",
"~o c #637C6F",
"vd c #8DA7B2",
"^o c #3E3028",
"q, c #D3C3A6",
"s= c #887F7D",
"Zt c #677887",
" a c #6C7884",
"/o c #9F9493",
"`w c #B6D2DC",
"7g c #676877",
"9> c #C8B99F",
"K% c #7AAFA3",
"}: c #D5C8AF",
"(o c #D2CCCC",
"qk c #626871",
"&- c #43423A",
"_o c #CBC4C4",
"GT c #44463E",
"61 c #7E6D5D",
"^O c #3D3029",
"`o c #C1BABB",
"Dd c #413B3C",
"[+ c #432F26",
"$l c #667687",
"G, c #B4AEAD",
"'o c #C6BEBF",
"b& c #665956",
"&& c #404235",
"YO c #D4CDCC",
"]o c #B0A5A8",
"a, c #D2C4A7",
"[o c #ABA0A2",
"[Z c #6F857D",
"{o c #CCC5C6",
"~G c #A29998",
"Jk c #EBDBBB",
">+ c #50534C",
"Y= c #4C4D42",
"y< c #FBEDCD",
"}o c #A39999",
"1r c #A8BFCC",
"{; c #4B3D2D",
"|o c #3A2A25",
"9P c #43473B",
"c& c #7CA196",
"m3 c #3E2F24",
" O c #61786E",
"Hy c #697787",
"|= c #434335",
"'@ c #556258",
"4n c #697380",
"tz c #6A737F",
"w> c #D4C7A9",
".O c #75ADA2",
":0 c #FCEFC9",
"ye c #4B332E",
"p$ c #7BACA0",
"XO c #74AEA1",
"&f c #BAD6DF",
";- c #474B42",
"oO c #74AFA1",
"[& c #4D483D",
"mL c #72978D",
"ah c #6A7583",
"OO c #76AB9D",
"PE c #697569",
"-D c #3D352D",
"@O c #9F9593",
"#O c #E4E0E0",
"g- c #40352E",
"+R c #7CA499",
"$O c #D9D4D4",
"%O c #B7ADAF",
"1R c #74948C",
"u% c #574944",
".w c #F9EBCC",
"h@ c #463931",
"=i c #667783",
"&O c #DAD3D3",
"O* c #7C9B93",
"2, c #D0BFA3",
"*O c #E2DCDC",
"H9 c #8A7968",
"zh c #6A7786",
"=O c #CCC4C5",
"Ns c #88A0AD",
"w# c #556058",
"-O c #C3BABC",
"!t c #8A7A64",
"lK c #72A99D",
"9= c #7C7371",
";O c #D2CACC",
".& c #78AFA1",
":O c #DEDADB",
"42 c #978572",
">O c #EAE8E8",
"E- c #7C7370",
",O c #DAD6D5",
"*: c #47352A",
"|J c #6F9489",
"<O c #BDB5B4",
"+e c #7B6556",
"Ie c #DCCDB1",
")+ c #85A59C",
"1O c #AAA0A0",
"2& c #749284",
"2O c #B4ABAB",
"J# c #7AA79B",
"Sk c #A7A1A0",
"3O c #AAA1A1",
"5O c #998D8F",
"CR c #65756E",
"Rj c #8E806A",
"6O c #95898A",
"}- c #4D3D2E",
"7O c #B7AEAE",
"D0 c #BDAD95",
"43 c #412E28",
"9% c #79ABA0",
"8O c #CFCAC9",
"PL c #72988C",
">m c #8F8380",
"9O c #E1DFDE",
"yd c #667888",
"}3 c #FEEDCB",
"0O c #E8E7E7",
"cG c #464742",
"wO c #372822",
"eO c #5B7369",
"I= c #494E44",
"rO c #76AD9F",
"]G c #E4E0E1",
"*- c #424239",
"tO c #74AEA3",
"nl c #6B737F",
"5l c #F8EBC8",
"A, c #D5C7A9",
"yO c #74ADA2",
"!w c #FDEFC9",
"YM c #3E3128",
"~; c #4B372B",
">7 c #A39D9D",
"kc c #515051",
"iO c #73AEA1",
"$$ c #79B2A6",
"pO c #76AB9E",
"hB c #646E65",
"~> c #D5C8AE",
"}, c #FCEDCC",
"cs c #A6C0CD",
"&A c #6C8980",
"8+ c #CDC8C6",
"aO c #617A70",
"iu c #697989",
"sO c #3B2C26",
",C c #7CA99E",
"dO c #E1DCDC",
"mM c #5E6066",
"Lz c #B8B1AF",
"z< c #73634E",
"E9 c #BEAD99",
"Ci c #6A7E8C",
"kO c #C5BBBC",
"73 c #EEDBBF",
"fq c #8B7968",
"pa c #6B7786",
"AB c #6C756B",
"lO c #CDC4C5",
"Z7 c #EFE3C3",
"`t c #ECDFC0",
"e< c #FCEECF",
"zO c #B8ADAE",
"xO c #ADA2A4",
"$k c #857661",
"_a c #514948",
"Ad c #68707E",
"(F c #4F544D",
"o2 c #F2E5C7",
"cO c #BBB2B3",
"i8 c #F9E9C8",
";4 c #A8BAC4",
"rM c #575C65",
"vO c #D0CBCB",
"hr c #B4A48F",
"^g c #6B808C",
":$ c #EAE7E8",
"bO c #DFDCDC",
"il c #5A5D65",
"#p c #697A87",
"nO c #D2CDCD",
"mO c #7B706E",
"XR c #A29897",
"x1 c #AAA4A3",
"9S c #637F77",
"N& c #CBC6C8",
"p: c #564530",
"'i c #392A22",
"11 c #8A7A65",
"MO c #4F413D",
"d@ c #4E3E35",
"Si c #9DBAC6",
"A8 c #F2E1C4",
"Cv c #49382D",
"^$ c #7CA8A0",
"<r c #B7D5E0",
"NO c #4C4038",
"~K c #70998D",
"AK c #3F3D36",
"!0 c #ECDBBF",
"BO c #473C35",
"VO c #423731",
"0p c #4A3B2D",
"T3 c #B3ADAD",
"ZO c #453632",
"Is c #EEECEB",
"j< c #EBE9E9",
"'* c #E0DCDD",
"%v c #DDD8D7",
"Hs c #9C8B73",
"SO c #53443D",
"}W c #454138",
"ZM c #706260",
".@ c #4D3D34",
"hk c #F7EACB",
"DO c #5F534C",
"Yv c #4A3A31",
"FO c #948F8C",
"8D c #41362B",
"Fx c #48322A",
"8w c #555552",
"8# c #4F5C53",
"GO c #D7D4D3",
"zu c #433330",
"#% c #F3F0F1",
")9 c #4A423A",
">S c #5F7B74",
"HO c #F4F3F3",
"aw c #E7D8BD",
"4, c #D8C9AA",
"KO c #E7E3E3",
"Y, c #FDEDCB",
"!6 c #3B2E20",
"BE c #9D9292",
"0z c #6C7889",
"$; c #453828",
"LO c #EBE7E7",
"PO c #EFECEC",
"c6 c #B4CDD8",
"TO c #9F9594",
"F5 c #6F5E4D",
":5 c #B5D4E1",
"<U c #796D68",
"/n c #697883",
"EO c #5C7066",
"T2 c #F1E1C4",
"WO c #7EAD9F",
"7j c #958473",
"zb c #6B6D76",
"<l c #DDD9D8",
"L2 c #A29C9C",
"l1 c #897A65",
"JE c #7A6967",
"QO c #79AFA2",
"]h c #6A717F",
"!O c #7DA99F",
"Mn c #6A7484",
"~O c #677A73",
"64 c #3A2820",
"&% c #3C3A2D",
"T$ c #443631",
"/O c #A09796",
"4e c #585554",
"'d c #4A4243",
"(O c #F0ECEC",
")O c #ECE9E8",
"4@ c #3F3527",
"@; c #4D3E31",
"i- c #494940",
"ze c #AABEC2",
"4Z c #7BB0A5",
")6 c #A3B5BA",
"`O c #F8F7F7",
"Vq c #403026",
"]O c #988E8C",
"4# c #4F5B54",
"[O c #655754",
"X7 c #B6D4DE",
"R4 c #FEECCE",
"O: c #433226",
"{O c #574745",
"JK c #6D978F",
"}O c #4D3D39",
"E+ c #D8D2D1",
"+, c #D3CAAE",
"|O c #483736",
"Pt c #AC9B8E",
" + c #4F3D3F",
"jA c #6C8981",
".+ c #503F3F",
"sb c #585453",
"n2 c #F3E4C8",
"X+ c #4F3F3D",
"o+ c #4B3D39",
"hG c #434B41",
"^2 c #3A2B20",
"O+ c #493C36",
"EK c #74988F",
"X4 c #A69FA0",
"U% c #382C27",
"@+ c #CDC9C9",
"#+ c #E2DFDF",
"(2 c #443028",
"3V c #555F54",
"v$ c #D6D1D1",
"$+ c #FAF8F8",
"6$ c #484D46",
"Qy c #85857F",
"hK c #76A9A0",
"&+ c #464A41",
"A4 c #B5D5DF",
"=+ c #4A5447",
";+ c #4A5347",
"jH c #78A297",
":+ c #4E534A",
"OI c #3D3E35",
"5t c #49372A",
",+ c #4F5146",
"<+ c #464738",
"vE c #56423B",
"_u c #697A88",
"(% c #7AAD9E",
"1+ c #413B2F",
"2+ c #88817D",
"&> c #D4C6AC",
"3+ c #C2BBBA",
"rJ c #596D5F",
"n: c #453424",
"fA c #69867C",
"4+ c #C9C2C0",
";p c #676468",
"b; c #473527",
"5+ c #CBC5C4",
"9+ c #C3BDBB",
"Ua c #686E79",
"gU c #746161",
"0+ c #C0B8B6",
"p1 c #F7E9CD",
"qj c #84715E",
">Q c #443025",
"B@ c #7FA49A",
"q+ c #CEC7C6",
"ct c #BAD6E1",
"bh c #655943",
"yU c #6D625F",
"~P c #42443A",
"l& c #7CB1A7",
"mw c #B1C7D0",
"jd c #81909D",
"c* c #789E92",
"e+ c #CBC4C3",
"#i c #B1CCD9",
"r+ c #CCC5C3",
"|r c #48332D",
"cR c #5D6F66",
"S2 c #F9E8CB",
"t+ c #BBB2AF",
"W= c #4D5148",
"bl c #6B7789",
"y+ c #BAB0AD",
"i+ c #72635F",
"p+ c #3B2A23",
"a+ c #585A50",
"s+ c #6C8174",
"fr c #342C20",
"d+ c #647F71",
"=9 c #A7B6BD",
"!q c #524032",
"f+ c #647F76",
"|4 c #C3B399",
"g+ c #668379",
"h+ c #69887D",
"n; c #453328",
"Hl c #DDDAD8",
"j+ c #628176",
"k+ c #648177",
"O= c #E2DEE0",
"Tt c #B8D7E1",
"l+ c #668278",
"$P c #393F39",
"z+ c #638076",
"cE c #C6BEBC",
"yw c #D4D0D0",
"VY c #728F87",
"$F c #C3BFBE",
"x+ c #5B6057",
"ua c #A8C4CF",
"c+ c #3C2D24",
"'u c #6B7A88",
"jJ c #78AD9E",
"hD c #463C33",
"n+ c #C6BFBE",
"69 c #5B5F5D",
"M+ c #CCC4C3",
"B+ c #C4BDBA",
"v3 c #FEEDCC",
"V+ c #CFC8C6",
"Y6 c #B6B1B0",
"ci c #6B7989",
".t c #B9A68E",
"C+ c #CAC3C2",
"Z+ c #C8C3C2",
"u- c #464A3E",
"10 c #423830",
"q- c #49473A",
"S+ c #CDC7C6",
"D+ c #C8C1BF",
"G+ c #41423A",
"du c #B5D6E2",
"'L c #688B7F",
"H+ c #4A524A",
"K+ c #49544A",
"L+ c #4A524B",
"s* c #769B93",
"D@ c #EFEBEA",
"Ch c #47332A",
"(p c #C6B6A0",
":B c #5C665A",
"/m c #575B62",
":u c #C0B29A",
")V c #7BA89B",
"P+ c #464F47",
"E3 c #7A6957",
"I+ c #465246",
"M6 c #C7B6A1",
"U+ c #454C3D",
"c< c #FEF0CC",
"H7 c #99A9AC",
"/% c #3D3229",
"Y+ c #352E25",
"5- c #47453D",
"{u c #8BA1AD",
"T+ c #908687",
"R+ c #E8E4E5",
"]c c #352D27",
"o* c #7B9991",
"[@ c #535D55",
"W@ c #4B594C",
"W+ c #756B64",
"MK c #73ABA0",
"P% c #76AFA1",
"Q+ c #454B42",
"lr c #A7A0A2",
"~+ c #82A59C",
"Z6 c #B6D4DF",
"=U c #736561",
"`D c #453A32",
"|: c #D2C4AB",
"^+ c #82A49B",
"x3 c #CFBFA8",
"/+ c #83A69B",
"yV c #627064",
"(+ c #83A59A",
"V3 c #F9E8CF",
"d: c #4A3824",
"c4 c #EFEDEE",
"z; c #4E3C2C",
"_+ c #85A49D",
",# c #505B55",
"pD c #42362B",
"&< c #FBEECE",
"3P c #3C463D",
"'+ c #7C938A",
"a5 c #A0B3BE",
"5B c #5F675E",
"{+ c #56433B",
",x c #6C7682",
"}+ c #57473E",
"!$ c #352E24",
"=a c #677785",
"|+ c #504037",
"8m c #5D6168",
"X@ c #4B3E33",
"[D c #41362A",
"o@ c #4D3F35",
"j$ c #77AFA3",
"EH c #75A193",
"EF c #484C45",
"m% c #B6AFAE",
"jp c #63646E",
"NK c #78A69B",
"rf c #B0C5CE",
";$ c #9F9797",
"O@ c #4E3F36",
"+@ c #4E3C34",
"~& c #D6D2D2",
"#@ c #513F36",
"pw c #F1E1C8",
"s% c #6B867F",
"r5 c #F0EFEF",
"Z: c #473727",
"0= c #817775",
"$@ c #4F3C32",
"%@ c #4F3D32",
"$, c #D5D0B0",
"+% c #362924",
"&@ c #523E35",
"J: c #42301F",
"P- c #827978",
"it c #E8D9BC",
"81 c #F8EACD",
"*@ c #533F35",
"mC c #77ADA5",
"4v c #3E342F",
"=@ c #554137",
"-@ c #503D32",
";@ c #453023",
"[n c #677584",
":@ c #442E22",
">@ c #473327",
",@ c #453327",
"hz c #69737F",
"l$ c #76ADA2",
"sp c #FAEBC8",
"<@ c #413022",
"ba c #8DA2AF",
"1@ c #403123",
"ue c #796354",
"p- c #4A473E",
"18 c #B5D3E1",
"2@ c #3E3023",
"#K c #908380",
"5@ c #3D3428",
"3x c #687580",
"+7 c #B5D4E2",
"mH c #7BA49C",
"Z3 c #5A493A",
"6@ c #3D342A",
"dB c #636C63",
"N- c #8C8583",
"7@ c #3B3229",
"Jw c #766052",
"I- c #8B8382",
"7; c #4C3C2C",
"9@ c #3E2F23",
"pU c #6D605C",
"0@ c #3D2A1E",
"bx c #B4ACA9",
"x> c #D4C7B0",
")1 c #A69F9F",
";w c #FDEEC7",
"q@ c #402B21",
"~N c #606C61",
"w@ c #4B372F",
"M* c #799B92",
"7# c #515F56",
"e@ c #4E3A32",
"~4 c #6F797A",
"2a c #F9E8C7",
"s9 c #AA9A86",
"yY c #BFB5B3",
"r@ c #503D34",
"R1 c #9B9595",
"t@ c #513E36",
"_s c #B6D2D9",
"y@ c #544139",
"E5 c #B3D4E1",
"u@ c #57443D",
"*d c #A8C1CD",
"cj c #988B73",
"}w c #AB9A83",
"3u c #92A7B1",
".r c #838C91",
"^N c #5F6A5F",
"i@ c #5E4C44",
"p@ c #5C4B43",
"L5 c #413023",
"Te c #64696D",
"%1 c #FFF0CD",
"l= c #7C726E",
"a@ c #503E36",
"B2 c #9E9797",
"s@ c #4F3F36",
"nB c #5F6A5E",
"f@ c #54443B",
"g@ c #493B33",
"j@ c #493B34",
",- c #44493F",
"JB c #565F56",
"k@ c #493A32",
"l@ c #4D3C32",
"DL c #6C9086",
"o= c #DED9DB",
"z@ c #4A352B",
"|w c #F1E0C3",
"e= c #7F7775",
"x@ c #382920",
"c@ c #49534A",
"Nb c #ADA6A3",
"b@ c #7BA39A",
"n@ c #7BA49A",
"m@ c #79A297",
"6f c #9F9796",
"N@ c #7EA49A",
"dc c #6F7581",
"$* c #585851",
"V@ c #81A399",
"C@ c #7B978C",
"y0 c #513F32",
"U0 c #B3D5DE",
"Pr c #7B8389",
"+; c #4F3E32",
"F@ c #ADA4A2",
"#H c #759E92",
"G@ c #463930",
"H@ c #596C63",
"[F c #525751",
"I$ c #75ADA0",
"J@ c #7CA89E",
"K@ c #7BADA3",
"o& c #78AFA5",
":p c #3E322C",
"'a c #B7D4E3",
"L@ c #7DADA2",
"|T c #7BA89A",
"a# c #79AFA5",
"[h c #484445",
"P@ c #7CADA2",
"I@ c #7BACA2",
"Wu c #F7EAC8",
"U@ c #81A99E",
"X& c #77AFA5",
"U= c #4A4C41",
"Y@ c #626B64",
"~5 c #998876",
"T9 c #FBEFC9",
"Pp c #6D737F",
"V8 c #383128",
"T@ c #402D27",
"~I c #7A6E6B",
"ne c #AE9F88",
"<G c #4C554C",
"c# c #3A3328",
"R@ c #4C453C",
"Vf c #F9EACF",
"E@ c #4C584C",
"vq c #7D8587",
".# c #4E564D",
"Q@ c #52584B",
"Ct c #677787",
"z> c #D4C6AE",
"Kz c #EBE8E7",
"~@ c #4E5A50",
"^@ c #546258",
"PS c #39342A",
"M< c #FEEFCC",
"~b c #382B22",
"ev c #6C7580",
"Ne c #97A3A9",
"/@ c #546558",
"@$ c #464C42",
" i c #728694",
"(@ c #546458",
"sy c #F4E5C7",
"SA c #67877D",
")@ c #516056",
"S- c #877E7D",
"_@ c #4F5E55",
"ME c #647265",
"R> c #CDC3A7",
"[i c #A8A1A0",
"`@ c #58665D",
">q c #7B8488",
"a& c #78B0A5",
"]@ c #4D594F",
"XY c #BEB5B3",
"Ii c #ADCBD6",
"}@ c #535E57",
"0M c #575B60",
"|@ c #515B52",
"}= c #424034",
"=N c #3D302A",
"$z c #AFA7A5",
" # c #4D564C",
"X# c #4E5650",
"}n c #687782",
"O> c #D4C5AC",
"57 c #EBDBC1",
"o# c #4F534D",
"O# c #4D4F47",
"i# c #7EA99E",
"tw c #A59F9D",
"dm c #565D60",
"+# c #545952",
"C3 c #C8B6A2",
"yx c #595F68",
"E$ c #D2CBCB",
"@# c #575F5A",
"## c #535D57",
"cc c #4B3A32",
"%# c #545F56",
"W9 c #564738",
"&# c #57615B",
",g c #4E4A4A",
"a- c #49483F",
"*# c #55605B",
"_, c #FCEDCE",
"=# c #535E58",
"M- c #8D8785",
"pR c #45342C",
"O% c #5F706A",
"}4 c #998874",
"X: c #4F3C31",
";# c #535D56",
"qN c #3B2D26",
">- c #40473B",
"># c #505852",
"+f c #6A7B89",
"De c #7B6E5B",
"C* c #799E91",
"<# c #505C56",
"xf c #6C7D8A",
"1# c #505D56",
"|S c #3E342D",
"2# c #525F58",
"[4 c #F9ECCA",
",W c #5C645D",
"3# c #535F57",
"O8 c #5B4A39",
"0# c #536158",
"j5 c #A4B3B9",
"y2 c #3E2B23",
"@p c #69798A",
"qW c #77978E",
"e# c #525D55",
"k3 c #9FA4A6",
"r# c #555C54",
"UB c #606A62",
"Q* c #D4CFD1",
"t# c #4A453D",
"/f c #B1D0D9",
"dG c #525F51",
"y# c #362A22",
"p# c #7AB1A7",
"d# c #7AAEA3",
"f# c #7BAEA2",
"Cm c #575D60",
"i= c #817976",
"g# c #7CADA3",
"R; c #473525",
"h# c #7CA79C",
"3p c #677585",
"+$ c #3C342B",
"[Y c #77AA9E",
"j# c #5C6D64",
"TF c #484B45",
"V: c #443626",
"k# c #413431",
"l# c #B0A8A9",
"d; c #463622",
"Ja c #FCEBCB",
"8x c #EDEBEA",
"Kj c #667587",
"4s c #45332A",
"z# c #EBE8E9",
".q c #B6CAD6",
"x# c #A49D9A",
"IV c #7DA99D",
"'c c #515052",
"s2 c #3F2E22",
"m# c #77AFA1",
"+j c #FBE9CF",
"T% c #7BAC9C",
"=u c #F7E8CC",
"0l c #5C5F66",
"~3 c #DBC7B5",
"u7 c #7D6C5A",
"yL c #739A92",
"N# c #403530",
"Sp c #B0CDD8",
"Id c #44362D",
"%2 c #DBD7D6",
"B# c #6E8179",
"bk c #57585D",
"V# c #76A296",
":G c #3E433A",
"C# c #77A599",
"V1 c #83745F",
"J- c #89827F",
"t= c #8A8280",
"Z# c #7BA295",
"gT c #5E6D61",
"9$ c #7AADA5",
".0 c #B6D5E1",
"W: c #786755",
"H% c #78AEA6",
"A# c #78A194",
"D5 c #423029",
"rd c #3A2C25",
"-c c #413025",
"S# c #7AA49A",
"53 c #81715E",
"D# c #7BA89E",
"F# c #7CAA9E",
"!a c #A3BCC7",
"D3 c #B9D1DA",
"G# c #7CAA9F",
"H# c #7BA89D",
"hu c #647684",
"K# c #7BA89C",
".2 c #AFA9A7",
"r< c #FBEDCF",
"D= c #47443F",
"~1 c #F0E1C3",
"L# c #7AA599",
"gs c #BBD6E5",
"P# c #7BA59B",
"w, c #D6C4A9",
"I# c #7DA69E",
"U# c #7CA69F",
"]e c #C5B59F",
"D$ c #79A79D",
"T# c #7DA799",
",U c #6A5E59",
"I2 c #AEA7A6",
"B* c #7B9C96",
"lJ c #7AAE9F",
"}S c #42362F",
"|f c #F6E2C7",
"cH c #75A397",
"t, c #D8C8AF",
"R# c #7DA69C",
"]u c #6A7987",
"ys c #91A7B2",
"<= c #6B5F5C",
"Bw c #555655",
"E# c #7DA49B",
"U7 c #B3A48D",
"[% c #75AE9D",
"W# c #7BA297",
"Uu c #A49E9E",
"Q# c #7DA69B",
"fL c #698E84",
"!# c #7CA79E",
"%Q c #BBB2B1",
"~# c #7BA69D",
"^# c #7CA59B",
"Q> c #D1C4A9",
"/# c #7EA69D",
"_h c #3E332A",
"SH c #749F92",
"FS c #453A30",
";z c #62666F",
"$% c #DDD9D9",
"^0 c #402E25",
"(# c #7DA59D",
"Hw c #48342E",
"]- c #B2ACAC",
")# c #7DA69D",
"mV c #60675D",
"K3 c #F1E2C7",
"`# c #7AA69C",
"Lk c #433E42",
"*s c #B8AB92",
"'# c #7AA69F",
"fB c #636B62",
"Er c #3F2F2A",
"AH c #779F92",
"n% c #DED9D9",
"{# c #7BA89F",
"UD c #433D36",
"|# c #7DA9A0",
"%6 c #543F30",
"X$ c #7EA59C",
"02 c #F5E7CB",
"i6 c #403027",
"uI c #695551",
"PV c #7CAB9E",
"o$ c #85A69C",
"#$ c #78A398",
"!A c #6B8D84",
"2Z c #7A9F97",
"]= c #474D40",
"5g c #9AB2BC",
"uv c #677487",
"%$ c #77B1A4",
"*r c #46302A",
"^h c #FEF1CE",
"*$ c #78B0A3",
"<e c #FBECCC",
"%T c #494B41",
"a* c #799E96",
"Q9 c #433C36",
"=$ c #67847A",
"et c #A7B6C0",
">$ c #E3E2E2",
",$ c #D6D2D1",
"<$ c #675E59",
"*3 c #5F4E3C",
"1$ c #3D3D33",
"2$ c #729088",
"37 c #EDE1C0",
"qe c #F9EACA",
"4$ c #739B8F",
"d2 c #A29D9C",
"l> c #D2C7AE",
"5$ c #3F4139",
"2< c #FCEDC9",
"7$ c #759990",
"P4 c #3D2E25",
"Y< c #FEEECA",
"yz c #68737F",
"P< c #FEEFC9",
"8$ c #77ADA2",
"-1 c #DBD7D7",
"=> c #D2C3AA",
"Fz c #67747E",
"0$ c #79AEA2",
"`N c #626B5F",
"m$ c #BEB8B6",
"Ft c #B3D2DD",
":4 c #B4D2DE",
"q$ c #7AAEA4",
"n, c #D0C3A6",
"S> c #D5C6B0",
"]p c #6B7D8B",
"lU c #433F35",
"L7 c #B5D2DC",
"w$ c #79AFA3",
"e$ c #77AFA2",
"*I c #414239",
"r$ c #77AEA3",
"wD c #443D30",
"9, c #DDCBAF",
")p c #655446",
"W< c #FCF0CB",
"56 c #514135",
"sR c #E5E1E1",
"t$ c #78AEA5",
"!5 c #3D3327",
"cv c #A9A29F",
"As c #6D7788",
"i$ c #79AEA3",
"a$ c #799A8E",
"+v c #39352F",
"h< c #A59E9E",
"9& c #4C4C45",
"#d c #6A7C8B",
"s$ c #4C4C42",
"^f c #7D92A1",
"d$ c #3F3A31",
"~= c #48493F",
"h$ c #77B0A4",
"y% c #BBB4B4",
"^q c #B6D2DB",
"z$ c #789D90",
"k$ c #78AFA3",
"aS c #6A847B",
",7 c #EAE9E8",
"&: c #564538",
"Fp c #B1CFD9",
"x$ c #404439",
"c$ c #675A59",
"$s c #4E4A4C",
"1M c #585860",
"n$ c #D7D2D1",
"c9 c #8B7663",
"N$ c #4A554B",
"u, c #D1C1A7",
"B$ c #7BA199",
"V$ c #76ADA1",
"mZ c #7CADA1",
"C$ c #79ADA0",
"Z$ c #617D74",
"TS c #3E362B",
"5= c #726865",
"A$ c #37322A",
"/- c #756967",
"@& c #76AFA2",
"!L c #6F968C",
"S$ c #576961",
"F$ c #78A9A2",
"eg c #FAEAD2",
"pZ c #695A55",
"G$ c #7EA89C",
"gK c #77A99F",
"F= c #494A44",
"H$ c #576058",
"D% c #76A89A",
"l7 c #6F7477",
"(= c #494C41",
"J$ c #597469",
"7W c #B7ABAA",
"K$ c #7AB0A2",
"aZ c #413731",
"P$ c #77AEA4",
"Os c #B6D3DE",
"d% c #413933",
"U$ c #79A498",
"^s c #758795",
"88 c #625645",
"m* c #7C9C93",
";0 c #EFE1C3",
"is c #6A798A",
"og c #A59C9A",
"Y$ c #4D574F",
"R$ c #B8B0B0",
"tf c #9EB2BC",
"Y: c #B4AEAE",
"67 c #94816F",
"Ds c #4C4B51",
"W$ c #F9F6F7",
"gf c #7B919F",
"O3 c #F2F0F1",
"Q$ c #8F8682",
"(W c #F2EEF0",
"[2 c #C7B89B",
"x& c #75B0A1",
"Qw c #B9A790",
"Ts c #7B6857",
"cA c #6C8D83",
"~$ c #647B71",
"/$ c #79A99C",
"Kf c #463729",
"X2 c #402C26",
"Z= c #444C42",
"($ c #4B5D54",
"U8 c #B7D3DD",
")$ c #38312C",
"n7 c #F7E6CA",
"2C c #7BA8A1",
"f- c #484941",
"`$ c #78AAA0",
"'$ c #76AEA3",
"WH c #79A395",
"v< c #FEF0CB",
"]$ c #7AAEA5",
"[$ c #7EABA4",
"V4 c #3E3B34",
"JN c #6F6662",
"o> c #CBBCA4",
"G3 c #686C6C",
"X> c #C8B8A0",
"{$ c #6C7C78",
"|$ c #4C5A4F",
"]M c #3B2F28",
"5, c #D7C8A9",
"M7 c #3E2C24",
" % c #7AA99B",
".% c #78AEA4",
"Ay c #B6D2DE",
"Hi c #696C6F",
"e, c #D9C9AC",
"X% c #75AD9F",
"-V c #5D6A5E",
"u> c #D7C7AF",
"o% c #78A89C",
"@% c #8B8281",
"c= c #6F6362",
"&h c #626A70",
"*% c #749385",
"=% c #7AABA0",
";% c #75ADA1",
":% c #76ACA3",
">% c #749A90",
"<j c #4E4444",
"CZ c #7BACA1",
")% c #78AEA0",
"w% c #3D342D",
"0e c #FAECCA",
"Q6 c #E1CFB8",
",% c #444A42",
"es c #6A7C8A",
"tb c #687588",
"cf c #6C7685",
"uU c #726764",
"NG c #4F514B",
"}* c #E3E0E0",
"|5 c #D8C7B2",
"<% c #3F3B35",
"-K c #79AAA1",
"o: c #4B382D",
"2m c #575A5F",
"1% c #73958A",
" 5 c #F8E7C7",
"^7 c #B5D5E0",
"2% c #78AFA4",
"^* c #DEDBDC",
"7% c #6F968A",
"fU c #796967",
"|Z c #738D85",
"*l c #69717F",
"8% c #7AAFA2",
"B, c #C8BBA0",
"G: c #443223",
"2u c #B5C9D3",
"hL c #73988E",
"q% c #6D8880",
".3 c #F9E9CA",
"oa c #595653",
"$< c #FBEEC9",
"Pl c #58555B",
"H1 c #8B7C67",
"e% c #887E7E",
"r% c #E2DEDF",
"VT c #53403E",
"t% c #E5E2E2",
"4V c #5E665B",
"i% c #43483C",
"E: c #413026",
")Y c #A29896",
"U2 c #45312A",
"p% c #769C8E",
"%F c #8F8684",
"]b c #4E474A",
"X- c #464538",
"'9 c #F2E0C7",
"a% c #76ADA0",
"f% c #484D45",
"*u c #806D5D",
"&b c #62656B",
",* c #789E94",
"g% c #75A093",
"D* c #3D291E",
"hE c #596D66",
"h% c #7AA298",
"0j c #48342C",
"SE c #7EAAA4",
"_t c #705D4B",
"j% c #55574E",
"k% c #3C332E",
"l% c #638479",
"qt c #94A3AF",
"F1 c #7A695B",
"z% c #7AAFA1",
"x% c #789B93",
"Ug c #6A7587",
"c% c #4D4B42",
"f> c #D5C9B1",
"1d c #91826C",
"v% c #5B4C48",
"t> c #D5C4AA",
"G8 c #42352E",
"M% c #43352B",
"S< c #FFEFCC",
"N% c #556558",
"A; c #503E30",
"Ml c #3A322A",
"C% c #7AA79D",
"L0 c #747C7D",
"#P c #363E39",
"ZB c #636C62",
"A% c #3F302A",
"S% c #5A6A60",
"K& c #DCD8D9",
"h& c #454F45",
"F% c #75ADA3",
"6w c #B7CFDB",
"G% c #78ADA5",
"g8 c #B4D5E1",
"/C c #7AAEA6",
"m7 c #7A6755",
"J% c #79AEA6",
"[f c #454143",
"oA c #718D85",
"L% c #78AFA2",
"4r c #728A97",
"#N c #3C2E26",
"92 c #7E6C5E",
"I% c #63766D",
"F< c #FEF0CA",
"Y% c #506458",
"Rw c #A8BBC5",
"te c #B9B2B3",
"%g c #56483A",
":2 c #877661",
"R% c #7CA59E",
"+h c #7D6B59",
"ty c #B7D5DD",
"Tg c #6B7985",
"W% c #3D2E26",
"s3 c #7D6D5B",
"Q% c #B9B3B2",
"E8 c #7B6A5B",
"!y c #39281F",
"]w c #585B5B",
"+& c #7AAFA4",
"!% c #E1DDDD",
" 8 c #796A58",
"_- c #979192",
"^% c #897D7C",
"L> c #CBBCA9",
"_% c #7AA094",
"t5 c #796857",
"sA c #6E8D83",
">& c #362E26",
"'% c #40352F",
"Oq c #7E6F5B",
"]% c #678378",
"{% c #73AEA0",
"N= c #452F23",
"}% c #77AEA6",
">B c #5C655A",
">: c #504031",
"|% c #78ADA6",
"Sd c #5C5D67",
";3 c #4F3E2D",
"R< c #FFEECD",
" & c #77AEA5",
"hp c #453B3A",
"O& c #7AAFA5",
"2e c #978272",
"#& c #76B0A1",
"!F c #4D534E",
"B< c #FEEFCD",
"$y c #B0CDD9",
"$& c #6D8E81",
"pT c #D6D0CF",
"%& c #39362E",
".h c #8F7E70",
"*& c #7B9C8E",
"-& c #74AFA2",
"V7 c #43342D",
"`m c #5A5D63",
"<4 c #B3C9D2",
";& c #7CABA3",
"|- c #443125",
":& c #677A77",
",& c #887E7D",
"$= c #E4E1E3",
"<& c #665955",
"nq c #423327",
"1< c #FDEDCA",
"`- c #D9D5D6",
"b: c #493727",
"1& c #413C32",
"HD c #423831",
"3& c #79AC9E",
"_6 c #464740",
"4& c #7AAA9F",
"5& c #79AA9F",
"nt c #ABC5D0",
"@f c #788B98",
"6& c #7AAC9F",
"^x c #453936",
"O< c #FCEECA",
"G> c #D4C7B1",
"U< c #FEEDC9",
"NE c #432F2A",
"7& c #739184",
"pk c #3F3025",
"0& c #769D8F",
"pp c #6D5D4C",
"g, c #D2C3A8",
"q& c #72AE9B",
"3a c #F9E7CB",
"w& c #72B09F",
"K: c #422F1E",
"r& c #79ADA5",
"O7 c #B5D5E1",
"Lu c #F5E7C9",
"s: c #473620",
"+H c #75A094",
"t& c #78B0A1",
"rp c #3B2D25",
"k6 c #392E26",
")2 c #6D5B4A",
"ia c #728391",
"{8 c #6F7374",
"y& c #79B0A3",
"26 c #FAECCC",
"3G c #4F5550",
"{: c #DACCB2",
"rI c #7E6E6C",
"p& c #78B0A4",
"b* c #769D90",
"`j c #C5B399",
"s& c #79B0A4",
"'V c #7CA99C",
"~t c #E0CDB4",
";d c #9CB3BE",
"d& c #77B0A0",
"1J c #75998D",
"f& c #76B19E",
"CA c #648379",
"g& c #7BA796",
"40 c #B5D3E0",
">D c #453D33",
"H3 c #362B1E",
"j& c #393226",
"k& c #698276",
"I* c #7E9E91",
"=Y c #B2ABA9",
"z& c #77B1A6",
"uN c #3D2F27",
"v& c #42463B",
")d c #6C7A89",
"'e c #F5E8CD",
"n& c #D0CACA",
"!x c #6C747F",
"m& c #E2DFE0",
"pg c #D5C4AD",
"[< c #F3E6C5",
"M& c #D7D0D3",
"5y c #585048",
"B& c #C8C4C4",
"C& c #D8D3D4",
"i7 c #E9DABE",
"A& c #D4CFCF",
"S& c #DBD5D6",
"e0 c #FFEDCA",
"D& c #D3CECE",
"7u c #6C7B8A",
"$1 c #F3E5C6",
"d7 c #646866",
"F& c #D7D2D3",
"EZ c #7CAFA3",
"-2 c #F5E7CA",
"3w c #7B8489",
"My c #6E7D8B",
"G& c #D7D1D2",
"bZ c #7FACA0",
"Tn c #525051",
"H& c #D5CFCF",
"(> c #DCCAB1",
"t6 c #C5B79F",
"4t c #4F4B45",
"(a c #62656E",
"~g c #6A7A87",
"J& c #D1CDCD",
"(i c #A99983",
"P& c #DBD6D8",
"U& c #D6D2D3",
"vn c #6B7884",
"&8 c #3C2E21",
"Vg c #4E4031",
"Lm c #58585F",
"Y& c #D6D1D2",
"3, c #D9C8AA",
"qa c #4F4C50",
".P c #D4CECD",
"T& c #E6E3E4",
"KD c #3E332C",
"G9 c #45392D",
"<J c #73998F",
"e> c #D1C4A6",
"Xz c #6A7689",
"m; c #433228",
"ls c #677985",
"~d c #A9C0C8",
"R& c #E8E5E6",
"ux c #6B7783",
"32 c #FAEBCE",
"9d c #46372E",
"E& c #D7D3D3",
"zq c #B3D3DF",
"M= c #5A4944",
"Hf c #F3E4C6",
"!& c #DEDADA",
"(f c #8BA2AE",
"^& c #D1CBCB",
"Cr c #B5D7E1",
"f3 c #B5A38D",
"]> c #D6C8AF",
"/& c #D1CCCC",
",V c #5C655C",
"91 c #7D6D59",
")& c #D2CDCE",
"C5 c #FAECCD",
"~r c #B2D4DD",
"M> c #D1C6AC",
"D; c #4A392A",
"_& c #D7D3D4",
"Tj c #3F3526",
"`& c #D8D3D3",
"]& c #4F3C36",
" f c #9EB8C3",
"pG c #474E44",
"|1 c #F0EEEF",
"!, c #FDEDCF",
"oT c #392D23",
"{& c #7B9387",
"}& c #779F91",
"6* c #7A9E93",
"Bz c #514B4B",
" * c #799B93",
"p; c #443524",
".* c #7A9891",
"=6 c #B3CED6",
"*2 c #3E2A23",
"KT c #3D382E",
"w- c #4C3C33",
"X* c #7A988F",
"G* c #7D9E96",
"1L c #749991",
"1N c #3A2D27",
"+* c #80A096",
"LN c #E7E4E5",
"O1 c #DBD7D8",
"@* c #667569",
"Pw c #A2937F",
"k: c #453324",
"kK c #73A99E",
"<1 c #F8EBCB",
"#* c #41332A",
"vp c #B0C9D5",
"Z; c #5B4B3C",
"&* c #76A291",
"2T c #F4F1F1",
" 2 c #E1DEDD",
"Ki c #3A322E",
"lC c #39342B",
"** c #779E93",
"-* c #7B9F96",
"0J c #989C9B",
";* c #7AA095",
"F9 c #413D39",
"Qd c #9BB1BB",
"$f c #A2B8C5",
"n1 c #402E2B",
":* c #789F94",
">* c #7BA197",
"85 c #9A8C75",
"7> c #CBC0A3",
"2* c #7A9E94",
"Am c #595C64",
";< c #FBEECC",
"3* c #72988B",
"4* c #779A8F",
"7G c #494E46",
"5* c #7B9E94",
"!= c #4B4D45",
"7* c #7B9F94",
"#6 c #EFE0C5",
"8* c #789B92",
"9* c #7CA097",
"w* c #759C8F",
"e* c #75998E",
"nC c #81A8A1",
"j, c #CBBDA0",
"@K c #3B3027",
"*> c #D2C3AB",
"m5 c #6C6F6D",
"^L c #6F998C",
"r* c #73968D",
"lW c #75ACA0",
"AZ c #7AAEA1",
"Cx c #515050",
"kq c #B4D6DF",
"t* c #71958B",
"P0 c #B1CAD2",
"+Q c #5F514C",
"ZK c #F2EFEF",
"y* c #74998F",
"`g c #59595E",
"-5 c #B3D4DF",
")i c #E9DDBE",
"9m c #595F64",
"Q2 c #F7E8C7",
"u* c #779B92",
"]D c #42362D",
"p* c #759A92",
"d* c #749B91",
"1h c #6D7F8C",
"qf c #474542",
"LT c #776D6A",
"ZL c #71988B",
"IM c #392E29",
"g* c #759A91",
"bc c #6F7582",
"ca c #B1CED9",
"Gh c #5C5D61",
"h* c #74978F",
"bi c #738693",
"j* c #74968E",
"Mp c #6C7888",
"kA c #6B8880",
"k* c #75988E",
"fR c #A19695",
"DA c #67877C",
"z* c #789C92",
"x* c #789E93",
"v* c #79A093",
"d> c #D7C9B3",
"V* c #7C9D94",
"rn c #DBD6D5",
"8= c #7D7370",
"Z* c #79A18E",
"bI c #44342A",
"A* c #82A18F",
"74 c #9A9494",
"S* c #63695D",
"Eh c #8F7D6D",
"H* c #77A397",
"K* c #7A9E92",
"L* c #78A193",
"X5 c #3B2C23",
"p3 c #ACA5A6",
"P* c #78A394",
"U* c #4C5045",
"07 c #B4D0DD",
".e c #402D26",
"Y* c #4B3A36",
"R6 c #786856",
"T* c #A89F9F",
"31 c #A59D9E",
"R* c #D5D0D1",
"E* c #D5D1D2",
"fu c #B3CFDE",
"wT c #8C7F7D",
"mx c #687884",
"w2 c #3F2E21",
"W* c #D5D0D2",
"J< c #FDF0CA",
"/J c #74ADA0",
"!* c #D2CECF",
"z0 c #F6E7CA",
"FE c #453F35",
"-: c #49362A",
"g6 c #F9EACE",
"~* c #D4D1D2",
"lj c #5A585F",
"gx c #697884",
"l5 c #4C4031",
")* c #ECE9EA",
"`p c #6A7281",
"_* c #DDDADB",
"Ka c #EAD7BB",
"*L c #6D9586",
" j c #676C77",
"TJ c #74AE9E",
"`* c #E5E1E2",
"ht c #DAC8AC",
"Ol c #6D747F",
">< c #FBECC9",
"]* c #E3DFE0",
"TU c #70928A",
"=, c #D5C2AB",
"oJ c #759D92",
"[* c #EDEBEC",
"QI c #695E5A",
"yn c #4D3C34",
"(8 c #6D7676",
"{* c #DCD9DA",
"45 c #726453",
"X= c #CFCACB",
"#: c #4D3D2F",
"@= c #D8D4D5",
"9b c #524849",
"#= c #DFDBDD",
"55 c #42372C",
"I> c #D1C3AF",
"%= c #999091",
"*= c #554B47",
"-= c #6D635F",
"K2 c #8B7A66",
"I: c #402E1D",
";= c #6F6361",
".z c #545356",
")- c #6D6161",
">= c #796C6A",
"Az c #515152",
"#4 c #695A47",
",= c #6E605E",
"[y c #A4BEC9",
"k, c #D3C5A7",
"TP c #41443A",
"1= c #6E625F",
"Su c #82909D",
"8k c #667586",
"5; c #463526",
"oN c #3C2E29",
"|, c #FDEECC",
"Kr c #ACCAD5",
"9W c #6E8A7F",
"2= c #7A706D",
"mp c #8A9DAA",
"sg c #3B332D",
"6= c #7F7573",
".8 c #F1E4C5",
"BY c #6C736D",
"7= c #857C79",
"iY c #B1A7A5",
"`M c #3A302B",
"mb c #A9A19F",
"q= c #867C7B",
"w= c #898180",
"C, c #CBBEA4",
"|g c #FDECC8",
"r= c #7E7473",
"VE c #BCB5B5",
"y= c #7F7673",
"E< c #FEEECC",
":a c #5C5C64",
"u= c #79706D",
"p= c #827976",
"a= c #847A78",
"9; c #50402F",
"d= c #867E7B",
"ra c #677685",
"f= c #847C78",
"`L c #668C80",
"e3 c #877461",
"Al c #463325",
"p9 c #F6E8CC",
"g= c #807773",
"gF c #424540",
"R: c #B3AEAC",
"h= c #7B736F",
"j= c #7D7470",
"k= c #7C736F",
"5h c #423A36",
"RN c #565C54",
"x= c #7C7270",
"v= c #6E6260",
"#I c #41433C",
"TK c #6A9185",
"Dc c #6C7583",
"F> c #CEC0AA",
"J; c #463429",
"V= c #42473C",
"C= c #424E42",
"+S c #627F75",
"YC c #41322D",
"3: c #554736",
"ef c #788B97",
"A= c #484842",
"RW c #7E736F",
"lY c #B6AEAC",
"S= c #474540",
"G= c #4B4C44",
"J= c #3C291E",
"K= c #44382E",
"Xe c #9F9798",
"L= c #4A4D43",
"P= c #495046",
"4a c #887766",
">V c #5E675E",
"@, c #C6BCA3",
"op c #4C4647",
"R= c #4B4F43",
"Q= c #484B41",
"n> c #CBBEA7",
"eG c #4E544C",
"AC c #8A7D7F",
"`B c #616960",
"^= c #404135",
"/= c #47493D",
")= c #474B3F",
"_= c #484B40",
"yi c #ABA5A5",
"xT c #9A9291",
"x; c #564134",
"e4 c #FFEDCD",
"{v c #58555A",
"`= c #484D42",
"'= c #4B5245",
"@u c #D5C6AE",
"hH c #78A196",
"cm c #595C60",
" - c #47473B",
".- c #47463B",
"Vi c #697A89",
"nR c #56463F",
"o- c #47483C",
"Iy c #95ADBB",
"sJ c #79AFA1",
"O- c #4A4B42",
"!Y c #77AB9C",
"@- c #43443D",
"yk c #F2E3C2",
"#- c #44443D",
"v4 c #ADA6A6",
"$- c #43423B",
"%- c #45443C",
"[l c #6C717B",
"=- c #3F4037",
"en c #412C26",
":- c #454C42",
"s- c #484C41",
"<- c #474A40",
"1- c #47493F",
"2- c #44443B",
"V< c #FDF0CC",
"3- c #494840",
"Zj c #5B5E64",
"6- c #47473F",
"gd c #4D4A4E",
"kj c #6E7382",
"J8 c #EFE2C4",
"_z c #6E7683",
"k- c #817876",
"*q c #AABDC2",
"7- c #4A4A43",
"vZ c #5C6965",
"8- c #4A4A42",
"9- c #45493E",
"0- c #45493C",
"#u c #8F806B",
"SF c #505953",
"Pb c #3F312C",
"e- c #45271C",
")c c #ABA29E",
"r- c #473329",
"KM c #3C322B",
"qs c #677688",
"t- c #515048",
"AF c #4E534D",
"j3 c #A9B5B8",
"KP c #45453C",
"Q; c #493629",
"jt c #715E49",
"y- c #474D42",
"@7 c #B7D0DD",
"KC c #7BAFA5",
"Ef c #3D322C",
"d- c #464C41",
"h- c #3E2B24",
"); c #4D392D",
"j- c #5E514E",
"l- c #827A78",
"5u c #6B7E89",
"x- c #7B706F",
"/l c #DFDBDA",
"c- c #7A7270",
"-9 c #B7D4DB",
"v- c #776F6E",
"e8 c #E0DEDE",
"ew c #897866",
"n- c #87817F",
"m- c #8E8886",
"%a c #B3D1DC",
"By c #697B88",
"`2 c #FFEDCE",
"h> c #CEBEA6",
"bt c #B5D1DC",
"B- c #8E8785",
"', c #FCEDCF",
"C- c #8F8786",
"Fj c #3E332F",
"Z- c #8B8483",
"s, c #DACBAE",
"D- c #89817F",
"F- c #8F8685",
"$j c #46322C",
"ff c #ACC8D4",
"G- c #8E8685",
"XD c #433930",
"(Z c #9D9693",
"C> c #CFC2AD",
"z8 c #FAE8CE",
"H- c #847D7B",
"K- c #857D7B",
"Y- c #8A817F",
"p2 c #F9E9CB",
"xR c #8D8080",
"Q- c #8A807F",
"59 c #45392F",
"zr c #D9D5D7",
"PF c #566058",
"~- c #897F7E",
"vI c #403126",
"^1 c #F7E8CA",
"AG c #494D47",
"^- c #877E7C",
"O6 c #E7E5E5",
"(- c #6F6161",
"&1 c #F8EBCA",
"fh c #4C4548",
"'- c #E8E6E5",
"XF c #3F352C",
"%j c #877362",
"[- c #4C3A36",
"{- c #5A4E3C",
"F2 c #3A2A20",
"L: c #4A3725",
" ; c #463428",
"`y c #A0B7C3",
"L9 c #7F6F5D",
"[0 c #4A4946",
".; c #443326",
"Ze c #848E90",
"Da c #F9E7CA",
"O; c #46362A",
"3d c #FAEBC7",
"e: c #513F2C",
"6V c #616A5F",
"4; c #4A3929",
"#; c #423525",
"WE c #7DACA4",
"&; c #4D4030",
"@E c #C9C2C1",
"Xa c #3E372D",
"AV c #C6C2C2",
"3< c #FDEEC9",
"=; c #493928",
",A c #6B8B82",
"_1 c #B3ADAC",
"^6 c #AABEC8",
"kg c #36302A",
"-; c #4D3C2D",
"&B c #5C6559",
";; c #433122",
"^3 c #6C594B",
":; c #453223",
"Ih c #646771",
">; c #4B3929",
"1; c #433320",
"2; c #4B3A2A",
"gp c #524132",
"6; c #483828",
"oi c #687888",
"~6 c #606567",
"8; c #4B3B2A",
"k2 c #F6E6C9",
"q; c #4A3A29",
"e; c #463623",
"r; c #4A3A28",
"{r c #ADA7A8",
"$q c #776855",
"uc c #E5E1E0",
"T, c #FDEECD",
"y; c #4D3E2D",
"j8 c #9CA9AD",
"eW c #51403D",
"~j c #ABA5A4",
"6< c #FBECCB",
"u; c #4B3C2B",
"ji c #6D7B88",
"Q, c #FDEDCE",
"s; c #453623",
"ak c #B2ACAB",
"1p c #AECCD7",
"f; c #443320",
"g; c #483723",
"nf c #3E3527",
"Wz c #62636A",
"h; c #503C29",
"-, c #D5C2AA",
"j; c #4F3F2A",
"9U c #706361",
":P c #3D4035",
"l; c #453825",
"dI c #403C33",
"v; c #4C392C",
"M; c #493C31",
"N; c #4E4033",
"os c #ADC5D3",
"C; c #4B372A",
"S; c #453326",
"F; c #4C3B2E",
"l0 c #F2E0C5",
"CM c #B3A8A9",
"G; c #514033",
"Ai c #B3CFDB",
"V> c #D2C6B1",
"L; c #4B3C2E",
"P; c #534335",
"Qf c #686F76",
"|Y c #412F27",
"JH c #759B8F",
"o1 c #A9A3A3",
"I; c #493A2C",
"U; c #4D3D30",
"lq c #B6D3E1",
"Y; c #4D3C30",
"Y4 c #432F29",
"T; c #453426",
"W; c #453224",
"zg c #686D78",
"M0 c #646665",
"!; c #523E32",
"VB c #5C635A",
"^; c #503E31",
"/; c #534136",
"<i c #ACC8D2",
"9< c #FDEFCA",
"(; c #4B392E",
"fa c #403432",
" t c #F2E2C6",
"*4 c #857163",
"`; c #483829",
"oV c #5E6C5F",
"y> c #DACAB1",
"Gv c #657686",
"'; c #453626",
"]; c #524332",
"R, c #FDEFCD",
"[; c #4C3D2E",
"4Y c #B6ADAB",
"|; c #443426",
"Uj c #62616B",
"C2 c #422F29",
" : c #4B3A2C",
"LP c #45473E",
"Fe c #D8CBAF",
".: c #544135",
"+: c #49392D",
"$: c #47372A",
"Bu c #718491",
"%: c #554538",
"Sw c #A29A9A",
"=: c #473429",
"<: c #3F3225",
"LA c #66867C",
"Ss c #6C717F",
">d c #6B7180",
"4: c #483527",
"6: c #4A3429",
"q< c #FCEDD0",
"eY c #ADA3A0",
"Cj c #B7A48F",
"7: c #4D372C",
"Hm c #5D5E65",
"/a c #6D7988",
"8: c #4E382C",
"ce c #BAAC94",
"6z c #ADA5A3",
"9: c #483627",
"9H c #769F93",
"C6 c #B6CDD5",
"0: c #433524",
"q: c #483724",
"Fu c #53565C",
"w: c #493625",
"+p c #697685",
"r: c #52422F",
"a< c #FCEFCE",
"t: c #50402E",
"oU c #776964",
"[g c #7E705A",
"Gl c #AAA4A2",
"y: c #51402D",
"u: c #4E3D2A",
"]< c #7B6B59",
"i: c #574731",
"a: c #52412B",
"f: c #4C3A26",
"g: c #54412D",
"Ms c #768B99",
"PM c #3A302C",
"h: c #4C3A28",
"t8 c #44342B",
"j: c #53412F",
"P9 c #B4AFAF",
"}s c #ABB8C1",
"l: c #4A3828",
"Bi c #6A7888",
"z: c #4C3927",
"v: c #523E2E",
"#8 c #B4CFD7",
"@a c #7E94A0",
"N: c #524333",
"B: c #544634",
"(s c #B7D5DE",
"a3 c #422F2A",
"^d c #6D7E8A",
".6 c #3E2E25",
"G0 c #FFEDC9",
"4< c #FDEECA",
"A: c #413222",
"S: c #453625",
")f c #657685",
"D: c #473725",
"H: c #423020",
"!u c #635445",
">3 c #FAEBCF",
"P: c #4B3924",
"T1 c #3C2C20",
"!: c #D6C7AF",
"Yu c #ADA4A5",
"Og c #4B3E35",
"aJ c #78AD9F",
"&z c #675144",
"~: c #CABBA3",
"<a c #7E6F59",
"^: c #CDBFA6",
"/: c #CDC0A6",
"(: c #CEC0A7",
"[9 c #46372D",
"_: c #CEC0A8",
"rY c #B5ACA9",
"`: c #D5C7B0",
"]: c #CDC2A8",
"[: c #D0C3A8",
"^< c #F9EACC",
"#h c #E7D8B8",
".> c #D6C5AE",
"sw c #8D7D6B",
"+> c #D5C7AD",
"$> c #D5C7AC",
"sV c #5E6357",
"I, c #FDEECB",
"/7 c #B8D2DF",
"lP c #3B3D35",
"tH c #79A197",
"}N c #5C6459",
"%> c #D9CBB1",
"x2 c #3B2A1F",
"(u c #90A0AA",
"Gg c #4A3A32",
"nN c #3C3026",
",> c #CDBEA5",
"1> c #D6C9AF",
"Xd c #677784",
"2> c #D0C4AA",
"4> c #CDC1A6",
"oy c #ABC4CF",
",T c #6B837B",
"5> c #D0C4A9",
"38 c #B6D4DD",
"h, c #D5C6AC",
"6> c #C4B99C",
"8> c #C7BA9F",
"$H c #77A195",
";i c #544A4B",
"q> c #D4C4A9",
"qY c #AFA6A3",
"MH c #79A39A",
"r> c #D0C2A4",
"0, c #D0BFA2",
"i> c #D6C9AE",
"Tp c #968471",
")P c #3E4338",
"f8 c #B5D3DF",
"xD c #40372E",
"6A c #6F8F85",
"hV c #666F64",
"a> c #D3C3AD",
"g> c #D3C5AB",
">T c #76A79C",
"j> c #D0BFA6",
"k> c #DACEB4",
"gZ c #85B1AB",
"c> c #D6C9B0",
":Y c #B9B1AF",
"+< c #FBEFCB",
"v> c #D5C9AF",
"oW c #7CACA4",
"b> c #D4C8B0",
"m> c #CBC0A6",
"q2 c #8A7965",
"}1 c #A39D9C",
"%P c #3E4139",
"N> c #D3C7AE",
" 6 c #80705C",
"{0 c #99A9AE",
"B> c #D0C4AD",
" p c #E7D6B8",
"Z> c #C8BAA5",
";n c #4A372C",
"A> c #CFC1AB",
"D> c #C9BCA6",
"H> c #CFC0AC",
"+G c #474B40",
"J> c #D3C4B1",
"dw c #443227",
"K> c #D4C6B3",
"JY c #4C4C44",
";2 c #F8E9CB",
"U> c #CABEA8",
"om c #687483",
"33 c #B0AAA9",
"Y> c #CEC1AA",
"pe c #BEAF94",
"zR c #7D6467",
"[e c #5B4936",
"^> c #CCBEA4",
"p5 c #565958",
"/> c #D3C1A9",
")> c #D7C5AC",
"_> c #D1C0A6",
"`> c #CDBEA4",
"|i c #FBECC8",
"<E c #877977",
"q0 c #ECDCBF",
"MD c #453B33",
"&C c #7BA69E",
"'> c #D6C6AF",
"$4 c #EBDFBD",
"*K c #75ABA1",
"[> c #DACCB3",
"R2 c #FFEECF",
" N c #3B2E23",
"=M c #575B64",
"V, c #CBBEA3",
"{> c #CFC4A9",
"|> c #DACAB4",
"VC c #81A194",
"Za c #F5E6C5",
" , c #D3C4AD",
"Im c #595C63",
"wt c #B4D3DF",
"WS c #41372E",
"., c #D2C3AD",
"ID c #3E3731",
"O, c #D4C8AE",
"Em c #595C5F",
"#< c #FDEDCC",
"ax c #B2A9A7",
"#, c #CEC6AA",
"$i c #ADC9D7",
"2F c #756563",
"1x c #3B2E28",
"%, c #D2CDAC",
"[b c #6A6D76",
"M3 c #A39C9C",
"#j c #DCD9D8",
"&, c #D0C5A8",
"Ir c #392D24",
"Nd c #9DB5C0",
"'m c #585C62",
"(3 c #ADC4CF",
"*, c #D1C2A9",
"NT c #D6D2D4",
"[6 c #FCEBCD",
";, c #D4C2A6",
"}I c #766763",
"Ue c #70624E",
">, c #D1C1A6",
"yW c #3F3124",
",, c #CEBFA3",
"}r c #ABA3A2",
"<, c #CBBD9F",
"]v c #6B727E",
"c2 c #A29B9C",
"da c #4B4949",
"6, c #D8C8A9",
"H, c #412F28",
"Wl c #64676D",
"7, c #DACAAC",
"b3 c #F8E9CA",
"8, c #DDCCB0",
"r, c #D5C5AA",
"y, c #CCBDA3",
"34 c #F0E0C2",
"d3 c #F8E7CB",
"i, c #D3C3A8",
"p, c #CCBEA3",
"iw c #715D4F",
"Hh c #6B7482",
"d, c #D0C3A5",
"m8 c #B5D5DE",
"DI c #7B6F6B",
"ps c #6C7481",
"93 c #352721",
":m c #B6ACAB",
"b1 c #B1AAAA",
"@j c #998676",
"6R c #B3A9A9",
"l, c #D7CAAC",
"z, c #D5C9AB",
"x, c #CBBFA3",
"c, c #CCBFA3",
"5G c #474C43",
"Ij c #6F7584",
"v, c #CEC1A5",
"75 c #4E4130",
"b, c #CDC0A4",
"F, c #A8A0A2",
"m, c #D1C4A7",
"/A c #6B8881",
":7 c #3D2D24",
"M, c #CFC1A6",
"Z, c #D0C4A7",
"S, c #8E7D66",
"]5 c #92989C",
"K, c #F4E5C5",
" F c #3A342A",
"ov c #646B71",
"L, c #FDEFCC",
"=s c #EEDEBC",
"P, c #FCEECC",
"@w c #B5CACD",
"gh c #3D2E29",
"ea c #677586",
"IE c #BFB7B7",
"@F c #C6C0BF",
"U, c #FCEDCA",
"E, c #FDEECE",
"W, c #FDEFCE",
"iI c #4C322A",
"~, c #FCEECE",
"77 c #45362B",
"^, c #FDEECF",
"/, c #FCEECD",
"(, c #FEEECF",
"Zy c #A9C3CF",
"S5 c #9E9898",
"), c #FCEDCD",
")v c #504D4F",
"`, c #FBEECD",
"{, c #FCEFCA",
"fD c #40352D",
"RB c #586357",
".< c #FBEECB",
"(1 c #3F2E23",
"Ca c #CFBEA3",
"[C c #505650",
"%< c #FBEECF",
".k c #5E5C5F",
"*< c #FAEDCC",
";Y c #C1B9B7",
"2B c #565E55",
"Ly c #687889",
"=< c #F9EDCB",
",< c #FBECC7",
"I0 c #B5D5E2",
"`r c #EDDDC2",
"%5 c #61666B",
"<< c #FCECC8",
"tq c #B8D3E1",
"7< c #FBF0CB",
"Kn c #ACA5A4",
"0< c #FCECCB",
"mu c #6C7D8C",
";K c #718A85",
"w< c #FCEED0",
"58 c #99A5A8",
"AT c #6C837C",
"8J c #E4DFE0",
"i< c #FCECC9",
"p< c #FCECCA",
"s< c #FCEFCF",
"d< c #F9EBCD",
"UP c #3D4038",
"f< c #998771",
"BN c #3D2C20",
"rh c #867463",
";A c #66887F",
"l< c #3F2F27",
"x< c #F0E3C1",
"b< c #FEEFCA",
"7h c #6E5F4A",
"m< c #FEEFCB",
".s c #9EB7C3",
"z3 c #4E3D2E",
"N< c #FFEFCD",
"oF c #41362C",
"C< c #FEF0CD",
"Z< c #FEEFCE",
"Lp c #6C7885",
"D< c #FFEECC",
"qg c #B1A08C",
"Gi c #67747F",
"G< c #FFEFCA",
"H< c #FFEECB",
"Df c #44352D",
"K< c #FEF0C9",
"T< c #FEEECB",
"~< c #FEF0CF",
"SR c #DFDADA",
"/< c #937E6A",
"(< c #402A21",
"Ws c #544033",
"8j c #3B2D22",
"NU c #3E3A32",
")< c #A39B9C",
"Ed c #6A727E",
"Ld c #E3E1E1",
"_< c #D4CFD0",
"`< c #B3AEAD",
"(d c #687A86",
"gM c #545861",
"!d c #BDD6DE",
"'< c #402F28",
".a c #626768",
"}< c #FFEECE",
"Xp c #46362B",
"]H c #77A594",
"|< c #FDF0CD",
" 1 c #F7E9CA",
".1 c #927E6B",
"9t c #483A2D",
"X1 c #432E26",
"+1 c #ADA7A7",
"'1 c #766557",
"@1 c #412E29",
"4y c #AFB9B6",
"#1 c #796957",
"Wm c #57595D",
"+3 c #43302A",
"pn c #4A4649",
"*1 c #92816C",
"=1 c #A8A2A1",
"Gd c #7B6F5A",
";1 c #B2ADAD",
"13 c #392A20",
">1 c #746352",
",1 c #F1E3C3",
"hq c #575755",
"21 c #412D23",
"41 c #B7B2B2",
"51 c #3D2C29",
"}7 c #827161",
"mf c #7B705B",
"Oh c #4A3A30",
"Zx c #412F24",
"71 c #F5E6C7",
"yq c #A4B1BB",
"mq c #83715E",
"01 c #433025",
"q1 c #AFA8A7",
"r1 c #3D2C27",
"t1 c #766455",
"i1 c #FFF0CE",
"a1 c #8F7F6B",
"s1 c #ACA6A5",
"YT c #403B34",
"d1 c #DDDADA",
"g1 c #473532",
"h1 c #756455",
"YP c #45463C",
"j1 c #F2E3C4",
"D7 c #B09E88",
"k1 c #F8E9CD",
"z1 c #3E2F22",
"v1 c #E1DEDE",
"M1 c #F4E6C7",
"N1 c #FEF0CE",
"Uh c #3A3026",
"B1 c #F7E9CC",
"xw c #E8D8BC",
"5b c #697482",
"C1 c #3E2E23",
"6s c #A79381",
"si c #DBCCAE",
"Z1 c #DEDBDA",
"h5 c #B8D3E0",
"A1 c #E0DDDD",
"S1 c #AFA8A8",
"D1 c #3B2A26",
"J1 c #A39C9B",
"K1 c #F1EFEF",
"(C c #7FA79B",
"L1 c #3C2A27",
"Bd c #AEC7D2",
"P1 c #6E5E4F",
"|9 c #B5CFD7",
"d9 c #4C3C30",
"I1 c #ECDDBF",
"U1 c #F6E8CA",
".4 c #3C2A23",
"(9 c #9BA8AA",
"Y1 c #857460",
"E1 c #EFEDED",
"bN c #372E25",
" k c #3F3229",
"!1 c #726052",
"/1 c #897864",
"`1 c #402D28",
"]1 c #F8E8CB",
"]2 c #FBEBC9",
",B c #636B61",
"[1 c #8B7967",
"Nu c #6F8290",
"ug c #70604D",
"{1 c #3F2F23",
"V0 c #B1D4DF",
"|U c #C2BBB9",
"YI c #746561",
")j c #F5E8C7",
"+2 c #F9E9CC",
"52 c #A5A09E",
"Kw c #F3E3C9",
"@2 c #897763",
"=B c #5F675C",
"#2 c #3D2D20",
"Lq c #B6D4E1",
"$2 c #9C9594",
">2 c #3D2D21",
"+4 c #AEA6A7",
"<p c #B5D1DE",
",2 c #9F9998",
"]x c #46332B",
"e2 c #9E9896",
"<2 c #F0EEEE",
"12 c #412D27",
"ON c #3F312B",
"22 c #806F62",
"62 c #E0DCDB",
"72 c #AFA8A6",
"t0 c #BAA792",
"nc c #656A76",
"r2 c #F1F0F0",
"mT c #564A46",
"t2 c #ADA6A5",
";a c #6D7483",
"2n c #372923",
"u2 c #7A695A",
"a2 c #7D6B57",
"kr c #3E2C25",
"dn c #6A7783",
"/h c #FBEBCE",
"f2 c #D6D3D3",
"Yy c #B2D3DF",
"j2 c #7B695A",
"l2 c #F9EACD",
"se c #3B3330",
"95 c #E9D9BC",
"Ar c #B2D0DB",
"z2 c #907E6B",
"v2 c #D9D5D5",
"b2 c #766355",
"h4 c #443E38",
"-6 c #B3D5DF",
"m2 c #FAE9CE",
"M2 c #93806D",
"Hc c #545053",
"N2 c #3A291E",
"fs c #BCD1DC",
"NF c #454B43",
"V2 c #ABA4A4",
"Z2 c #7A6758",
"a8 c #635143",
"A2 c #F4E4C8",
"w6 c #5A5A58",
"D2 c #826F5C",
"|B c #5C685C",
"G2 c #A09A9A",
"J2 c #F1E2C6",
"Mi c #6C7E8B",
"P2 c #DEDBDB",
"Lt c #6D5C51",
"IH c #76A393",
"Y2 c #776554",
":8 c #4F4130",
"!2 c #F8E9C6",
"Pi c #B6D0DB",
"/2 c #A19A9A",
"_2 c #EADCBE",
"J3 c #8E7F6C",
"FJ c #78AF9E",
"{2 c #9E9079",
"}2 c #968670",
"78 c #3A2F25",
"|2 c #AD9C83",
" 3 c #F2E2C5",
"03 c #646161",
"X3 c #8C7C66",
"#E c #C2BAB9",
"@3 c #72604F",
"JT c #6F9081",
"#3 c #EDDEC1",
"^b c #4E474B",
"$3 c #FFEDD0",
";T c #47463F",
"_j c #F8EAC8",
"p8 c #D3C0A9",
"@0 c #6E6450",
"%3 c #FDEBCA",
"&3 c #D5C2A6",
"mA c #6D8A81",
"Hj c #6B717A",
"=3 c #32251B",
"-3 c #312419",
"[N c #686F64",
"R3 c #422E29",
"xL c #71948C",
":3 c #C9B69E",
"05 c #FCEBCC",
",3 c #F9EACB",
"/k c #EFE0C4",
"23 c #A59F9F",
"Rq c #FEEEC7",
"83 c #877462",
"17 c #45342D",
"q3 c #625C5A",
"15 c #857A67",
"w3 c #38281C",
"r3 c #EFDEC5",
"t3 c #9A8B76",
"y3 c #3B2D21",
"g3 c #443328",
"gW c #4B3729",
"h3 c #4B4D4F",
"6e c #B5D5E4",
"l3 c #433C35",
"ab c #504647",
"7a c #F6E8CB",
"n3 c #7E6E59",
"N3 c #44312C",
"ge c #B6D5DE",
".u c #C4CED9",
"B3 c #7F6E5D",
"A3 c #3E3633",
"<x c #535454",
"S3 c #8B979D",
"7K c #A69F9D",
"F3 c #B6C8D0",
"}k c #FAEECA",
",u c #433936",
"L3 c #FDEDC8",
"HW c #44352A",
"'k c #ACA3A4",
"U3 c #806F5C",
"Y3 c #AAA4A4",
"zY c #BAB3B1",
"ds c #84898D",
"ZJ c #78AD9D",
"W3 c #F2E4C4",
"!3 c #FCEBD0",
"Dy c #8095A2",
")3 c #B3D3E0",
"`3 c #A0AEB3",
"!g c #667685",
"[3 c #CEBFA7",
"GP c #42433B",
" 4 c #7D6B58",
"o4 c #F4F2F3",
"qc c #3F3737",
"O4 c #DFDBDB",
"+t c #B7CDD9",
"&4 c #E5D3BC",
"=4 c #3C2C24",
"{h c #392F28",
"}5 c #7C6C5F",
">4 c #B2D4E1",
",4 c #B4D4E0",
"24 c #372B21",
"94 c #3D2B26",
"*p c #6C7989",
"QS c #3B3429",
"Xw c #DAC9B3",
"04 c #756553",
"r0 c #F6E4C7",
"gI c #46443D",
"q4 c #F0E3C2",
"w4 c #FFEDCC",
"#B c #596156",
"r4 c #FDECCD",
"t4 c #EFE1C5",
"y4 c #9A8976",
"u4 c #575554",
"1y c #AACCD6",
"i4 c #9CAAB3",
"%d c #788E9B",
"$7 c #697070",
"p4 c #B5CFDC",
"a4 c #B3D4E0",
"s4 c #B3D5E0",
"KL c #72958A",
"[m c #565A5F",
"d4 c #B4D5E0",
"g4 c #98A4A7",
"j4 c #4F3F2F",
"9w c #746252",
"Yp c #48392B",
"8h c #CFBFA2",
"k4 c #F7E5C8",
"z4 c #3B2B23",
"sn c #677689",
"^a c #6A7985",
"b4 c #7C6B59",
"~e c #B3D7DE",
"]m c #595D62",
"n4 c #F3E4C3",
"m4 c #FFECCD",
"gt c #735F50",
"&s c #605442",
"<B c #5C645A",
"ph c #62666E",
"M4 c #FEEBCD",
"sW c #779286",
"CK c #BCB7B6",
"9r c #3F3024",
"N4 c #F5E5C9",
"2f c #FBEBCA",
"B4 c #B2A38B",
"C4 c #8F9EA2",
"Z4 c #B3CEDB",
"S4 c #B7CBD0",
"G4 c #8C7D6B",
"H4 c #F1E3C5",
"J4 c #FBEBCC",
"K4 c #F9E7C9",
"L4 c #94826E",
"`G c #EFECEB",
"9n c #443632",
"ny c #95AEB7",
"I4 c #E1DCDD",
"U4 c #AFA8A9",
"eE c #7CA19A",
"T4 c #756351",
"gY c #C6BDBB",
"E4 c #FAE8CC",
"W4 c #C5B39A",
"Q4 c #5E4E3C",
"^V c #7BA79D",
"!4 c #3B322A",
"^4 c #AEC8CF",
"Ya c #687586",
"Bj c #F6E8C7",
"3q c #FAE9CC",
"/4 c #B2D4DF",
"%0 c #7C6D5A",
"Mx c #666A71",
")4 c #98A3A8",
"de c #737E84",
"{q c #847061",
"mt c #A6C3CE",
"FK c #6B938B",
"_4 c #3B372F",
"`4 c #514333",
"'4 c #CFC2A8",
"Di c #6C7C8D",
"Zg c #E5D6B6",
"]4 c #FAECCB",
"Py c #6A7D8C",
"Zf c #AAA5A4",
"5T c #424237",
"{4 c #A59581",
"<9 c #523E31",
".5 c #8A7863",
"o5 c #A6A0A0",
"O5 c #B4ADAD",
"20 c #6E7474",
"+5 c #47332B",
"<F c #8C8180",
"#5 c #DBCAB2",
"~y c #39251E",
"Qg c #58575D",
"$5 c #6E5D49",
"0y c #B0C8D0",
">k c #F6E9CA",
"&5 c #ABBFC9",
"*5 c #B5D3DE",
"kw c #788086",
"=5 c #B2D4E0",
"(h c #D9CBB2",
"]C c #534139",
";5 c #B4D4E1",
">5 c #B3C8D1",
"25 c #EEE0C4",
"]y c #A3BBC8",
"ot c #493E36",
"35 c #DDCEB2",
"<Y c #ADA2A0",
"65 c #3A3025",
"+0 c #43392B",
"uy c #86898C",
"e5 c #3A2C23",
"LL c #6F9187",
"y5 c #E6D5BE",
"u5 c #857461",
"i5 c #3A2C1E",
"s5 c #B5D2DF",
"ei c #FAECCE",
"d5 c #B2D4DE",
"_S c #3E362C",
"f5 c #B4D3E1",
"*T c #C5BDBC",
"aK c #6C827C",
"nk c #697580",
"g5 c #B4D4E2",
"k5 c #444540",
"+u c #685C4B",
"z5 c #CDBCA6",
"4L c #759991",
"[M c #3B2D27",
"x5 c #FCECCF",
"cF c #474C47",
"c5 c #EEDEC4",
"_d c #62656C",
"b5 c #43382E",
"n5 c #555553",
"lg c #45413F",
"M5 c #433E38",
"B5 c #E3D2BA",
")h c #6D604E",
"Sq c #7A6859",
"]i c #DDDBDB",
"%h c #434040",
"$m c #423C39",
"V5 c #FBEACE",
"Z5 c #90806D",
"A5 c #3B2D23",
"nj c #413227",
"Ff c #6D5B4C",
"H5 c #FEEFCF",
"Ee c #ADC5D2",
"<R c #3D3831",
"dD c #43382F",
"J5 c #F1E0C5",
"PK c #70968D",
"K5 c #9F8A7A",
"|8 c #4A3B2C",
"P5 c #434440",
"U5 c #B4D1DC",
"cw c #F8EBC9",
"Y5 c #B3D3DE",
"qD c #423C2F",
"H0 c #F9EBC9",
"T5 c #B2D3DE",
"R5 c #B2D3E0",
"T0 c #A7B4C0",
"pM c #555B65",
"W5 c #B5CDD7",
"6p c #6D7986",
"`b c #ADA5A2",
"^5 c #F2E3C7",
"(5 c #AA9987",
")5 c #493A2E",
"Ag c #FAEAD1",
"Na c #484243",
"_5 c #4E4D4B",
"`5 c #9DA8AD",
"`H c #719F8D",
"'5 c #B9C7CD",
"Rh c #EDDEC0",
"[5 c #4E4946",
"X6 c #A8A1A2",
"@L c #71988D",
"F7 c #584739",
"o6 c #E1DEDF",
"nz c #DAD4D3",
"dh c #6C727F",
"uW c #5A6960",
"+6 c #45322A",
"9j c #A8A2A2",
"@6 c #705E4E",
"$6 c #BAA791",
"&6 c #38312B",
"*6 c #808E90",
"~w c #FBECCE",
";6 c #B3D4DE",
"OM c #5B5C63",
":6 c #B6D3DF",
">6 c #A0B1B9",
"X8 c #F6E4C8",
"Lh c #443B39",
",6 c #494946",
"ww c #F8E7CA",
"<6 c #4F4133",
"16 c #CABCA3",
"$I c #3E4037",
"36 c #F8E7CC",
"46 c #BCAB98",
"66 c #4A4743",
"VM c #D3CFCE",
"76 c #96A3A7",
"86 c #B7CFD7",
" 9 c #A3947E",
"[q c #F8E6CA",
"jh c #697582",
"3L c #72978F",
"96 c #B8D3DD",
"Ru c #796758",
"2h c #758693",
".I c #3C3F35",
"06 c #B9CFD8",
"q6 c #9DA9AE",
"e6 c #403429",
"r6 c #6A5C4D",
"u6 c #82715E",
"p6 c #ACA6A6",
"a6 c #AFA9A8",
"s6 c #45332C",
"d6 c #796858",
"KW c #739889",
"f6 c #F4E5C9",
"j6 c #5F4C39",
"zf c #A1B7C2",
"OV c #5E6C60",
"Bs c #9FB8C5",
"VV c #585C51",
"l6 c #717B7D",
"z6 c #ACC7CE",
"v6 c #6C7678",
"Oa c #AAB8C0",
"b6 c #393124",
"m6 c #EEE0C3",
"N6 c #5D4C3D",
"di c #6F604B",
"~h c #F7E8CB",
"B6 c #423832",
"V6 c #8A9395",
"A6 c #B5D4E0",
"S6 c #B6D4E0",
".d c #708290",
"D6 c #B8D1DE",
"/s c #A7BFCB",
"Aw c #432F27",
"%u c #ABA3A3",
"F6 c #A6B3BE",
"%I c #41443B",
"G6 c #626365",
"`E c #7FA79A",
"H6 c #3B352C",
"J6 c #5A4D3F",
"K6 c #BCAE98",
"+I c #414037",
"L6 c #F3E3C4",
"P6 c #FDECCA",
")n c #687783",
"I6 c #F9EBCE",
"{6 c #D6C3AD",
"ns c #718593",
"U6 c #837260",
"T6 c #45342B",
"W6 c #FAEBCD",
"/6 c #B2D5DF",
"!r c #B2D2DE",
"8M c #555B5E",
"(6 c #B5D2DD",
"`6 c #4F4131",
"'6 c #C2B19B",
"Je c #B7B0B1",
"]6 c #FAEACB",
"*8 c #7A6B58",
"zV c #667166",
"|6 c #43372D",
" 7 c #797F7F",
".7 c #B3C8CE",
"o7 c #B5D4DF",
"#7 c #ACBCC4",
"%i c #718394",
"}Y c #616C63",
"1A c #709086",
"%7 c #393229",
"&7 c #4F4032",
"*7 c #A4927E",
"=7 c #ECDBC0",
"Ge c #F8E9C9",
"0A c #66887C",
"-7 c #FAEACA",
";7 c #F8E8CC",
"87 c #535653",
"@N c #42332C",
"97 c #9FB0B8",
"0H c #79A497",
"6F c #423C34",
"_l c #7F6B5C",
"9h c #F7E8C5",
"mm c #535A5F",
"q7 c #B1D5E0",
"lA c #627E77",
"80 c #757674",
"bw c #473A32",
"w7 c #B4D4DF",
"e7 c #B4D3DE",
"r7 c #B3CCD4",
"t7 c #707777",
"y7 c #382D20",
"2K c #79AAA3",
"p7 c #DCCAB2",
"^r c #B4D4DC",
"TY c #F6F5F5",
"a7 c #796657",
"s7 c #47392E",
"f7 c #ABBFC4",
"g7 c #B5D4DC",
"k7 c #ADC0C6",
")0 c #F3E5C8",
"HK c #6D9790",
"kS c #749286",
"x7 c #3C3024",
"c7 c #8A7E6B",
"v7 c #DDCEB4",
"b7 c #FAE9CA",
"B7 c #B7B2B1",
"L8 c #3C312B",
"C7 c #6E5F4D",
"Qi c #6B7788",
"A7 c #FDECCC",
"Zp c #3C312A",
"id c #B3CED8",
"fw c #5B5856",
"iR c #7BABA2",
"C8 c #524737",
"J7 c #B6D0DA",
"K7 c #B2D5E0",
"9e c #E5D4B8",
"DG c #42453C",
"P7 c #94A2A7",
"Y7 c #F9EBCA",
"h0 c #3F372D",
"PT c #C7C2C2",
"0L c #6F958B",
"T7 c #FCEEC9",
"4W c #6B8579",
"E7 c #43342A",
"$Y c #BDB4B1",
"/d c #687987",
"W7 c #575655",
"~J c #3A372F",
"Q7 c #A3B2B9",
"!7 c #B6D2DD",
"zP c #3E4038",
"~7 c #B4D4DE",
"HE c #E7E5E4",
"(7 c #B1C4CD",
"3I c #43443B",
")7 c #838B92",
"_7 c #403D3C",
"`7 c #3C3022",
"-x c #DCD7D5",
"'7 c #CDBCA5",
"Fw c #ECEAEA",
"[7 c #FBEDCA",
"gr c #564636",
"Ep c #FAEAC9",
"{7 c #F8E5CA",
"*V c #656F66",
"|7 c #ADA8A7",
"*J c #76A192",
"o8 c #BEAC95",
"+8 c #48423A",
"@8 c #889699",
"$8 c #B3CBD1",
"iU c #726460",
"Un c #50494D",
"%8 c #6E7371",
"=8 c #E5D7BA",
"j0 c #5B4F40",
" w c #776455",
";8 c #AB9D85",
"6x c #B0A9A6",
">8 c #4B4945",
",8 c #96A3AB",
"<8 c #B6D1DE",
"28 c #B3D5E2",
"Sa c #FDECC7",
"`h c #504E50",
"8K c #58665C",
"48 c #B5CCD3",
"98 c #B9AD96",
"08 c #F3E5C7",
"q8 c #8C7B6B",
"vW c #897C7B",
"w8 c #3C2E24",
"r8 c #AEA9A7",
"y8 c #736451",
"u8 c #EADDBE",
"s8 c #727979",
"yZ c #7E9B92",
"wd c #D1BEA6",
"d8 c #B6CAD1",
"bu c #778D9A",
"AE c #5D766D",
"h8 c #B6D3DD",
"el c #63676D",
"k8 c #453F37",
"/q c #B6CAD3",
"ML c #70958A",
"C9 c #B6D5E0",
"QT c #403F38",
"l8 c #A99B85",
"x8 c #CBB9A4",
"3g c #899EAB",
"c8 c #5B4C3C",
"b8 c #849194",
"pE c #77B1A5",
"n8 c #B5CFD9",
"vD c #3F352D",
"M8 c #B9D1DB",
"AL c #729A8F",
"N8 c #A6B3BC",
"Z8 c #B3A48E",
"_e c #E0D3B9",
"S8 c #FDECC9",
"Wq c #FEEEC8",
"F8 c #B1ABAA",
"E0 c #3D372F",
"H8 c #746655",
"lf c #A7BEC9",
"K8 c #DFCEB1",
")N c #636E62",
"-h c #697985",
"gk c #7F6B59",
"P8 c #5C5F62",
"I8 c #AABCC2",
"Y8 c #B6CCD3",
"T8 c #787C7A",
"R8 c #3C3124",
"FA c #5C7B73",
"W8 c #EFDDC2",
"Q8 c #FCF0CD",
"KG c #43433D",
"!8 c #FBEBCD",
"~8 c #DFCEB7",
"~D c #473E38",
"^8 c #756355",
"eu c #9BB3BF",
"/8 c #3E322B",
"yp c #C3C4C4",
"6j c #FBEBCF",
")8 c #AEC6CD",
".K c #74ACA0",
"WZ c #7BAEA1",
"_8 c #B5D6DF",
"$g c #C5B5A0",
"`8 c #B3D6DF",
"~A c #62837A",
"'8 c #B3D5E1",
"]8 c #B7D1DE",
":t c #667986",
"eA c #6C8B82",
"[8 c #ADBEC8",
"}8 c #3A3226",
".9 c #EFDFC1",
"#w c #B7D6E0",
"iL c #739A90",
"X9 c #887A67",
"o9 c #413228",
"Kp c #687689",
"+9 c #3D302C",
"@9 c #776959",
"#9 c #F5E8CB",
"yj c #473829",
"ld c #697C8A",
"%9 c #9C8B76",
"pB c #5F6960",
"vM c #545B5D",
"wM c #565B63",
"&9 c #40322A",
"3e c #49362B",
"SL c #70978C",
":9 c #B8D5DE",
"^z c #D9D3D3",
">9 c #A0ABB2",
" u c #BDD3DF",
",9 c #413B36",
"2y c #A7C9D1",
"_m c #575A60",
"Sl c #7B6856",
"19 c #C4B099",
"7A c #67887C",
"29 c #FBEACA",
"39 c #E5D4BB",
"Vy c #677C89",
"my c #758A95",
"&Y c #B7AEAB",
"49 c #81705F",
"89 c #B6D3DC",
"]A c #67837B",
"99 c #B0C2C7",
"09 c #777A79",
"UG c #796A65",
"q9 c #3D342B",
"w9 c #483B2D",
"zj c #403731",
"FN c #38251A",
"av c #AAA2A1",
"e9 c #9E907B",
"^e c #B5D0D8",
"t9 c #90806E",
"NN c #412E20",
"y9 c #B1ABAB",
"hP c #43453A",
"u9 c #3A2C28",
"i9 c #796A5C",
"6l c #F6E7C9",
"a9 c #F3E3C8",
"f9 c #504C4C",
"h9 c #B9D2DD",
"Ip c #5A5960",
"#x c #696B75",
"=z c #574634",
"j9 c #B4D5DE",
"k9 c #B5D6E0",
"&F c #9C9390",
"l9 c #B6C9D4",
"JR c #41342A",
"z9 c #6A6B6C",
"x9 c #412F23",
"v9 c #EEDDBF",
"b9 c #E9D7BE",
"n9 c #917F6D",
"*m c #687883",
"m9 c #473A2E",
"M9 c #515452",
"wi c #F1E1C5",
";f c #6B7485",
"8F c #4C534B",
"dA c #6A877D",
"KB c #5A645C",
"N9 c #9EB0B4",
"zk c #686F7D",
"B9 c #B5D2DB",
"V9 c #B3D6E1",
"Z9 c #B4D5E2",
"aq c #FAECC7",
"A9 c #B6D4DC",
"eR c #CEC9C9",
"S9 c #B3C5CC",
"5e c #A2B1B7",
"D9 c #868A8E",
"J9 c #DCCDB3",
"K9 c #FAEBCA",
"I9 c #3F2E2A",
"2t c #B5D6DE",
"7p c #6B727C",
"uK c #312721",
"Y9 c #FCF0C9",
"HV c #7BA99B",
"R9 c #F6E6CB",
"Gz c #464442",
"!9 c #8C9597",
"~9 c #B9CFDA",
"^9 c #B4D6E0",
"LG c #3A3C34",
"/9 c #B8D4DE",
"_9 c #4F3C2F",
"`9 c #FAEBC9",
"]9 c #9D8A78",
"}9 c #8D9DA2",
">u c #564638",
"o0 c #949EA2",
"~M c #3D312C",
"O0 c #4D4E49",
"#0 c #F7E7CA",
"$0 c #F8EACC",
"er c #D3C3AC",
"WL c #749B8F",
"&0 c #402F27",
"*0 c #E4E1E2",
"%Z c #56584E",
"#n c #A19693",
"=0 c #43322D",
"wj c #F7EAC9",
"[t c #816E5B",
"-0 c #766656",
"xk c #6E747F",
">0 c #FBEEC8",
"_A c #728E87",
"4C c #7BAA9E",
"<0 c #5D4C3E",
"$Q c #938885",
"30 c #B1C6CD",
"OK c #7DACA1",
"60 c #B6D6E0",
"XW c #80ACA4",
"70 c #B7CBD2",
"@q c #FCEDC7",
" G c #3B382E",
"90 c #46392C",
"00 c #837460",
"w0 c #FDEDC7",
"u0 c #44413D",
"i0 c #92A2A6",
"0R c #7B9891",
"p0 c #B2CED6",
"-E c #6B5D5A",
"a0 c #B5D6E1",
"{P c #3F4038",
"s0 c #B5D4DE",
"d0 c #B4CED5",
"6T c #78988D",
"g0 c #525251",
"<y c #AFCAD8",
"k0 c #B7A793",
"x0 c #7F6F5E",
"7q c #42302A",
"Es c #C4B09C",
">R c #DDD8D8",
"c0 c #423128",
"v0 c #B5B0B0",
"n0 c #E4D3B9",
"m0 c #7C695B",
"XZ c #7AB0A3",
"Pu c #F9ECCC",
"Ps c #A39E9C",
"N0 c #ABBEC4",
"B0 c #B4D3DC",
"'n c #687582",
"qw c #F9E6CA",
"2p c #788D9A",
"2L c #73978F",
"C0 c #B9D3DD",
"Ce c #B5CAD2",
"Z0 c #A3ACB2",
"A0 c #46403B",
"HC c #7AB0A5",
".N c #3F3127",
"Ey c #8FA8B0",
"S0 c #4C3E31",
"F0 c #FAEAC7",
"K0 c #3E342A",
"Y0 c #B3CCD8",
"=v c #6D737D",
"W0 c #4A3C2F",
"Tw c #B7D1DD",
"6t c #AFA08E",
";h c #64656D",
"Q0 c #9F8E7B",
"~0 c #8E7D6B",
"/0 c #AEA7A7",
"Cs c #96ABB8",
"(0 c #7B695B",
"Hp c #677788",
"Xf c #6F8491",
"`0 c #F0DFC3",
" r c #B5CDD4",
"'0 c #9F8D7A",
"Zs c #677986",
"df c #768C98",
"-Y c #B5ADAC",
"XS c #6D8B82",
"]0 c #443529",
"}0 c #B5D3DD",
"|0 c #B2D5DE",
"Xq c #777A7F",
"{T c #A79D9D",
"oq c #3A3128",
"#q c #FEEDC7",
"%q c #413429",
"eZ c #789A93",
"&q c #626665",
"=q c #B5D3DC",
"-q c #B4D2E0",
"Vt c #6A7D8B",
">y c #657887",
";q c #B5CFDE",
":q c #ADC0CC",
",q c #3C3631",
"*e c #829095",
"^S c #433D33",
"<q c #47382C",
"1q c #8C7D6A",
"2q c #E5D5B9",
"5q c #A7A0A1",
"6q c #B5B1B0",
"Ti c #687989",
"8q c #F4E6C9",
"zW c #77968D",
"TE c #493E33",
"Ht c #BAD4D6",
"0C c #7BAA9D",
"GM c #3F3027",
"9q c #F3E3C6",
"+w c #6F736D",
"qq c #4B3C2C",
"wq c #403C36",
"eq c #8B959A",
"rq c #B7CFD9",
"}v c #382D27",
"uq c #4A4846",
"iq c #4B3C2D",
"pq c #C1B196",
"sq c #FDEEC6",
"!c c #68747F",
"dq c #FDEEC8",
"gq c #45352B",
"HU c #C4B9B9",
"jq c #9EAFB5",
"ai c #F4E6CA",
"xq c #B4D3DD",
"]t c #E3D5B8",
"cq c #B0C5CD",
"bD c #3C332A",
"yC c #7CA69D",
"bq c #413B37",
";W c #837F7F",
"[L c #5C7267",
"Mq c #DAC6AD",
"Bq c #8D7A69",
"sh c #69778A",
"3m c #5B5E63",
"Cq c #A59F9E",
"ox c #48352D",
"Zq c #B5B0AF",
"Aq c #413027",
"He c #8D7E69",
"Sx c #DAD5D4",
"Fq c #C9B8A4",
"Gq c #5C4A3C",
"Hq c #453E31",
"!U c #776965",
"Jq c #838F8B",
"Kq c #B7CED7",
"4j c #55545B",
"7B c #565E54",
"/e c #81888D",
"Pq c #B6CBD7",
"Iq c #6F7679",
"Uq c #3C3227",
"Yq c #ECDDBD",
"(q c #8B969A",
".Q c #C6BFBF",
"jW c #759085",
"nn c #453532",
")q c #4C4A46",
"Lg c #40362E",
"_q c #403024",
"]q c #FAEACC",
"}q c #E8E7E6",
"CW c #6D8377",
"|q c #402F26",
"ow c #736151",
"(P c #3A3F33",
"Ow c #443428",
"$w c #B7D3DE",
"%w c #9DADB4",
"Jj c #697585",
"&w c #3E3C39",
"Nv c #B2AAA8",
"*w c #433427",
"8P c #3F4437",
"=w c #B8A993",
"-w c #F9EAC9",
":w c #FDEFC8",
"5U c #796C67",
"#l c #69747F",
">w c #FCEEC8",
",w c #F5E8C6",
"VH c #77988D",
"<w c #BDAC93",
"1w c #5A4537",
"Ql c #463D3B",
"2w c #423834",
"rg c #8A796B",
"4w c #B4CDD4",
">s c #F8E5C9",
"9Y c #ACA2A0",
"0w c #D6C4AC",
"rw c #44322A",
"gw c #ACB9BF",
"hU c #655351",
"PD c #443D36",
"eC c #7AA9A0",
"hw c #B9D5DF",
"jw c #B3CBD7",
"WU c #7E968F",
"lw c #392F2B",
"zw c #68584C",
"vw c #665442",
"nw c #757A7D",
"Mw c #B7D1DB",
"Vw c #695545",
"'Z c #38332B",
"Cw c #BDA893",
"Dw c #F3F2F2",
"Fi c #677884",
"-a c #6C7887",
"Gw c #A79E9E",
"Lw c #F0E1C5",
"Hg c #665543",
"VL c #6C9387",
"0i c #574839",
"Xx c #B1A9A6",
"Uw c #4A4945",
"Yw c #9AA8AD",
"Pf c #656B6F",
"ZG c #41413D",
",i c #A4BAC5",
"_R c #453228",
"Ew c #565455",
"Ww c #443228",
"Ma c #656570",
"^w c #E1D0B8",
"Fg c #A19795",
"/w c #7F6D59",
"qr c #F8ECCD",
"(w c #463A2D",
"_w c #ACBEC6",
"'w c #A1B2B8",
"oe c #B8B2B2",
"II c #766864",
"Oe c #49322D",
"Nf c #FAE8C8",
"#e c #FDEFCF",
"GB c #5E665C",
"ad c #B3CCD3",
"$e c #B8A791",
"%e c #524335",
"nm c #555960",
"&e c #3B3734",
"-e c #B3CED9",
":e c #372B25",
"'B c #5F685F",
",e c #FBEFCA",
"7e c #777C82",
"ee c #422E27",
":J c #729B8D",
"re c #A69E9E",
"9p c #403531",
"5r c #A6C1CF",
"ie c #F0E1C7",
":j c #6A7684",
"#s c #6C6E7A",
"ae c #554536",
";b c #B1AAA9",
"Aj c #697483",
"fe c #B0CBD3",
"je c #B5D1DD",
"xS c #718C83",
"ke c #B3D7E0",
"<c c #6A727C",
"le c #B4D6DE",
"fd c #697481",
"xe c #52524F",
"ve c #F9ECCB",
"be c #FAEECD",
"1n c #5C5A5E",
"3i c #687785",
"me c #513C2D",
"4z c #6B7586",
"Me c #4F4542",
"qh c #9D8C7D",
"Be c #B0D5DF",
"Ve c #B1D4E0",
"Ke c #48322D",
"Qs c #3D322E",
"Vh c #F3F1F1",
"xG c #454943",
")S c #3E342B",
"&M c #5B5C66",
"Le c #776254",
"Pe c #EEDFC4",
"Ye c #3B312B",
"rr c #695648",
"Re c #ACC3CC",
"We c #889FAD",
"2z c #6A7685",
"Qe c #9DB7C5",
"!e c #B2D7DF",
"(e c #372C23",
";r c #8D7B64",
"]f c #636772",
"`e c #FAEDCD",
"{e c #493F34",
"|e c #B3CBD6",
"|y c #B2D0DA",
"kL c #71978C",
"or c #31271C",
"Or c #706352",
"+r c #D1C1A8",
"#r c #F6E7C8",
"$r c #796A56",
"%r c #3B2A21",
"-t c #697788",
"&r c #A49D9D",
"=r c #7B6656",
"of c #6A7A88",
"BJ c #79AD9E",
"-r c #EBDABD",
",j c #443B36",
">r c #56575C",
"2r c #7E909F",
"vJ c #7CAEA1",
"6r c #B2D6DF",
"7r c #AABBC6",
"8r c #514F4E",
"0r c #ADA08C",
"<b c #677783",
"dz c #4A372E",
"wr c #F6EBCE",
"tr c #41342B",
";L c #6F978C",
"yr c #6B7374",
"ir c #B2D5DD",
"pr c #B5D4DD",
"GH c #779F93",
"ar c #B7CDD5",
"sr c #8E999E",
"dr c #424440",
"jr c #F7E7C9",
"yI c #827473",
"xr c #48332C",
"cr c #725D4E",
"nr c #F0E0C3",
"~s c #6A7784",
"mr c #A4907A",
"Mr c #4F3C2C",
"2A c #708F85",
"Br c #9CA9B3",
"7S c #6C8A7F",
"Vr c #B6D7E2",
"Zr c #B7D4E1",
"Cd c #A1B8C3",
"Dr c #758796",
"Gr c #667785",
"Ok c #6F7488",
"Hr c #637785",
"Lr c #B4CDDA",
"Ur c #70604F",
"rV c #626D60",
"Tr c #F5EACE",
"Jb c #52494D",
"Rr c #E4D9BF",
"Wr c #57585C",
"/K c #6F9A8D",
"Qr c #A1B6BF",
"nM c #565C62",
"oj c #504030",
")r c #372D24",
"_r c #AA9886",
"'r c #F9E8CC",
"wk c #444341",
"]r c #8A7866",
"-f c #697687",
"[r c #3D2C25",
"Xt c #574230",
"Ot c #7E878C",
"@t c #B9D6E2",
"#t c #B7D7E1",
"$t c #B6D6E1",
"%t c #B0CED9",
"3h c #6E7582",
"au c #728693",
"ZD c #43372F",
"&t c #93ADB9",
"*t c #6E8190",
"@A c #6F8B83",
"=t c #697888",
",M c #494443",
"iz c #3F2F24",
";t c #687787",
">t c #637B86",
"5k c #41372F",
",t c #91ADB9",
"<t c #B1D0DB",
"ey c #B7D7E0",
"Xv c #6C727C",
"qz c #6F7481",
"1t c #B2D6DE",
"WK c #759B92",
"3t c #9FB0B5",
")B c #5B665A",
"7t c #EBDFC9",
"{k c #F7E8C8",
"8t c #AEA18A",
"0t c #474546",
"mW c #4A5249",
"rt c #4F5456",
"cn c #667688",
"tt c #3D322B",
"yt c #493729",
"ut c #9B8B76",
"at c #3E2D26",
"_G c #EFEDEC",
"dt c #B7B0AF",
"NH c #7AA399",
"IA c #5D7A71",
"ft c #47322B",
"kt c #473931",
"vg c #94ACB8",
"lt c #636669",
"FV c #473A3A",
"vt c #B9D6E0",
"Mt c #B3D1DD",
"Bt c #8DA6B1",
"At c #657986",
"St c #6F8692",
"ta c #A3BDC8",
"Dt c #A4BECA",
"TD c #463E3A",
"Gt c #B4D8DE",
"yK c #5B6D64",
"Jt c #808480",
"Kt c #3A2B23",
"It c #58483A",
"HN c #4E413B",
".x c #DAD5D3",
"Ut c #3E3B35",
",f c #362F21",
"Yt c #859297",
"Aa c #FBEBC7",
"Qb c #6B7882",
"Rt c #A5BBBD",
"qb c #666A70",
"Qt c #453425",
"^t c #F5E4C7",
"/t c #756251",
"(t c #D7D4D5",
")t c #B2ABAB",
"/F c #4F534E",
"'t c #FCEFCD",
"[u c #6C7F8B",
"{t c #48382E",
" y c #C1D7DF",
".y c #BFD9E2",
"Kd c #A49D9C",
"]P c #3B3C34",
"BP c #3E3F38",
"Xy c #B9D4DE",
"Oy c #91A6B2",
"+y c #778C99",
"#y c #8EA8B4",
"%y c #ACC6D3",
"dS c #6A877C",
"lx c #64707F",
"fg c #697280",
"&y c #859DA9",
"xN c #392D26",
"*y c #687B89",
"=y c #687887",
"-y c #697789",
"pd c #BBD7DF",
";y c #697688",
"9y c #6B7576",
"*j c #EAD9BF",
"KV c #7BA9A2",
",y c #8096A4",
"6y c #3C281E",
"7y c #412C22",
"ol c #6C7687",
"Xg c #3E2F26",
"8y c #382C25",
"6a c #7E6C5B",
">C c #7BA9A0",
"qy c #B8D5DF",
".D c #433830",
"2d c #E6D7B8",
"wy c #B8D6E1",
"yy c #AEBDC6",
">z c #677A87",
"]a c #A8C7CF",
"@D c #3D3530",
"iy c #48423C",
"py c #776757",
"Yf c #8495A2",
"ay c #D7C9AF",
"7b c #B1A9A8",
"dy c #82725E",
"fy c #413028",
"hy c #45322C",
"7l c #C0AF96",
"ga c #818589",
"aE c #4B5448",
"ky c #EDE0C2",
"ly c #9F917A",
"oR c #DED8D8",
"Vc c #413128",
"xy c #A3ACB1",
"cy c #C7DBE3",
"vy c #C3DAE3",
"by c #B0C9D3",
"Ny c #6B7B8A",
".M c #555A5D",
"aa c #6B7885",
"Sy c #ABC4D1",
"tM c #595E65",
"Fy c #697988",
"yu c #7A8E9D",
"Jy c #687788",
"Ky c #697889",
"Uy c #B4D1DD",
"jg c #606268",
"qd c #F4E4CA",
"iG c #45493F",
"Ty c #91ACB8",
"9l c #3F3633",
"Wy c #B3C2C3",
"^y c #555454",
"/y c #A7BAC1",
"(y c #B4D4DD",
"6G c #484E45",
"'y c #A2B9C6",
"}y c #ABC9D3",
"CJ c #77AC9C",
"Xu c #8C8F92",
"ou c #3A3533",
"Ou c #31241B",
"&u c #432E29",
"_K c #73988B",
"-u c #FAEECC",
";u c #F5EACC",
"<u c #888B8F",
"1u c #C3D0D8",
"FZ c #77ABA0",
"4u c #758994",
"8u c #6C7A8A",
"8b c #A8A09D",
"0u c #6A7A89",
"9g c #3B2F27",
"Xl c #60656E",
"qu c #687A87",
"Nh c #3C2C21",
"wu c #758A96",
"Nm c #5A5C63",
"tu c #A5BDCB",
"kC c #697C70",
"pu c #6A7988",
"(v c #686A74",
"gu c #8196A5",
"ju c #657A84",
"ku c #778890",
"nx c #4C4344",
":k c #796553",
"lu c #85898B",
"-L c #70978D",
"!f c #687583",
"xu c #3A2822",
"cu c #6F7577",
"vu c #ACC8D3",
"nu c #667885",
"Mu c #6E808E",
"8Z c #524540",
"Zi c #94ACB9",
"Vu c #748895",
"Cu c #768C99",
"5a c #A9A1A1",
"Zu c #7B909D",
"Au c #7E909E",
"Du c #7A848D",
"Hu c #34261F",
"Ju c #625445",
"Jg c #EADCC0",
"Ku c #BFB099",
"uJ c #75AD9E",
"Iu c #8F816C",
"Tu c #46322D",
"Eu c #F1E4C8",
"Qu c #CEC2A8",
"~u c #3F332F",
"^u c #726F73",
" h c #FAEAD0",
")u c #70838E",
"`u c #6B798A",
"|u c #9CB6C0",
"+i c #697987",
"@i c #8198A4",
"*i c #657784",
"-i c #6A707A",
":i c #3F3028",
"1i c #6F8490",
"2i c #667684",
"@g c #F1E1C6",
"7z c #49352B",
"4i c #687784",
",S c #637E75",
"6i c #6B7382",
"dj c #5E5E64",
"WY c #58655A",
"uP c #3D423A",
"7i c #61636D",
"8i c #454144",
"9i c #382C26",
"qi c #B6A691",
"$S c #5E7A72",
"ri c #988975",
"ti c #413229",
"ui c #AAA2A2",
"Us c #ACA5A3",
"pi c #7C6A5A",
"hi c #6D737E",
"ki c #687986",
"=A c #67867E",
"zi c #687988",
"wp c #EADCBD",
"xA c #6D8B83",
"vi c #6B7888",
"!s c #5F6269",
"jv c #3C332D",
"ni c #93A9B4",
"mi c #879DA7",
"Ni c #697786",
"Li c #828C93",
"bg c #B4CFDC",
"nA c #67867C",
"Ui c #748A97",
"Yi c #667585",
"ja c #B1CFD8",
"oP c #4E3D35",
"Ei c #6A7886",
"wm c #545A5D",
"Wi c #6A7885",
"!i c #707987",
"~i c #6A6E79",
"~V c #7AA99D",
"^i c #4A494D",
"LI c #7A6C68",
"/i c #544337",
"_i c #FAEFCA",
"mg c #738793",
"{i c #44332D",
"}i c #7E6D5C",
"UV c #7DA99C",
".p c #84745E",
"Op c #676C75",
"2l c #473028",
"$p c #6F8391",
"QD c #433730",
"%p c #A3BCC9",
"&p c #92A8B6",
"=p c #687885",
"-p c #6C7581",
"'h c #69717C",
">p c #565456",
",p c #A9B9C3",
"dp c #F4E4C5",
"DM c #352012",
"4p c #697886",
"'G c #969999",
"vj c #E8DBBD",
"5p c #697885",
"8p c #515053",
"qp c #978A73",
"ep c #847664",
"tp c #AFA9A9",
"up c #9B9090",
"ip c #44342E",
"fp c #BCAC93",
"!v c #B2AAA9",
"kp c #6A7483",
"zp c #687688",
"cp c #8196A3",
"bp c #B3D3DD",
"np c #B3D5DD",
"Vp c #6E727E",
"Wp c #8A7B69",
"Ap c #848A8E",
"nh c #C3B497",
"Ga c #A79E9D",
"Dp c #B1CFDA",
"[s c #3E3432",
"Jp c #677786",
" E c #4D524B",
"Up c #3D3431",
"Rp c #E3D2B7",
"Qp c #AEA8A8",
"!p c #E6E5E5",
"|M c #40342A",
"~p c #9E9494",
".J c #78A294",
"^p c #43332C",
"{V c #78A69A",
"/p c #736251",
"'p c #6A7788",
"Hb c #4C3A31",
"[p c #96ACB9",
"{p c #B1D5DE",
")F c #464D45",
"Fm c #5C5F65",
"}p c #AECCD6",
"+a c #A4BBC7",
"1z c #666B74",
"#a c #879EAA",
"$a c #AEC9D5",
"aH c #779C92",
"_g c #6B7280",
"&a c #879DA9",
">a c #413837",
"1a c #D7C7AB",
"8a c #D9C8AF",
"'J c #678174",
",H c #759E93",
"9a c #726254",
"0a c #42342D",
"sa c #6B747D",
"ha c #B6CED5",
"la c #738191",
"za c #6A7C89",
"xa c #8EA5B2",
"va c #B6D3E0",
"na c #687686",
"ma c #6D7684",
"7c c #B6AFAC",
"Ba c #3C3023",
"tG c #4B554D",
"Va c #73644E",
"Ha c #776553",
"La c #84715F",
"Pa c #42322A",
"Ra c #6A7887",
"Ea c #8197A3",
"Tf c #6D7886",
"YH c #749E92",
"Px c #6B727D",
"Wa c #AECAD4",
"Qa c #B4D5DD",
"~a c #6B7A8A",
")a c #3B312E",
"`a c #A5B4BA",
"[a c #859EA6",
"{a c #6D7D89",
"|a c #6A7F8D",
"Xs c #9BB2C0",
"1E c #D0C8C8",
"+s c #91A6B3",
"@s c #6D7786",
"MM c #4C4443",
"%s c #3A2F24",
"-s c #FCEBC4",
"=l c #54575D",
";s c #FDECC5",
"Dg c #DDD8D9",
".V c #586458",
":s c #FDEDC6",
",s c #827060",
"<s c #A19B99",
"1s c #D2CECE",
"2s c #EDECEB",
"3s c #AAA2A0",
"+C c #7DA89D",
"5s c #F5E1C6",
"7s c #3F3839",
"8s c #616770",
"bs c #A2BDC9",
"'f c #6C7785",
"9s c #697686",
"0s c #677789",
"Cc c #B5AEAD",
"ws c #677687",
"rs c #94AAB6",
"ts c #B4D1DA",
"us c #697986",
"wg c #F2E1C3",
"as c #4F4D4E",
"ss c #3E312C",
"hs c #B6D0E1",
"DK c #74928C",
"js c #A2BBC9",
"un c #585255",
"ks c #79909A",
"zs c #677987",
" I c #3B3E34",
"~C c #7BAEA4",
"3v c #666B72",
"vs c #B5D2DE",
"ms c #697B8A",
"Vs c #AECAD6",
"Fs c #342D26",
"Gs c #534837",
"Ks c #FBEBC5",
"Ls c #917F6F",
")s c #B7D7DF",
"`s c #7F929E",
"6n c #B6AEAD",
"'s c #6D7A86",
"]s c #63676F",
"{s c #575352",
"|s c #B6CCDB",
"3k c #69717E",
" d c #94ABB9",
"Od c #AFC9D6",
"DT c #D5CECE",
"@d c #6A7B8A",
"2H c #78A396",
"ll c #F6E9C6",
"$d c #6C7F8E",
"&d c #92A9B6",
"=d c #B4D0DB",
",d c #4C4E54",
"9K c #7DA399",
"<d c #372F2B",
"4d c #8C7B6A",
"pm c #585E63",
"rl c #413B39",
"6d c #A69F9E",
"eT c #6B847B",
"mn c #504A4E",
"7d c #EBE9E8",
"}L c #42322D",
"sG c #424B3E",
"8d c #A49C99",
"0d c #796757",
"ed c #695546",
"td c #6B7582",
"KY c #462F26",
"ud c #8499A6",
"UA c #648278",
"]V c #7CA69C",
"sd c #758691",
"dd c #697A86",
"wl c #6B788A",
"kd c #667584",
"1V c #626A61",
"zd c #8FA7B3",
".S c #67857B",
"cd c #B2D3DC",
"NI c #776C69",
"Jv c #657786",
"bd c #6A7A8A",
"~H c #75A192",
"nd c #6B7C8B",
"md c #738694",
"Md c #859AA6",
"wY c #B9B0AD",
"Zd c #687789",
"Fd c #40372A",
"Hd c #D9C9AE",
"Jd c #8B7A69",
"3j c #6B7887",
"kZ c #756C66",
"Pd c #9F9795",
"2c c #382925",
"Ud c #F7E7CC",
"8f c #E4D6BC",
"Rd c #4E4C50",
"Wd c #6A7789",
"`d c #3A322F",
"]d c #686C73",
"{d c #687684",
"}d c #687685",
"|d c #6C828E",
".f c #9FBBC6",
"bz c #A9A09D",
" z c #3A2F27",
"Of c #6B7A89",
"LY c #847674",
"#f c #8FA3B0",
"NL c #72968C",
"%f c #B2CBD7",
"*f c #A6BDC8",
"=f c #6B7C89",
">f c #403E3C",
"Zc c #ACA5A2",
"<f c #726853",
"1f c #DCCEB3",
"dP c #3E4035",
"4f c #423328",
"5f c #EBEAEA",
"7f c #776556",
"9f c #867664",
"0f c #423123",
"jT c #44322C",
"wf c #676F78",
"Rv c #6F7683",
"yf c #6C747E",
"uf c #4C4747",
"if c #433832",
"kf c #8FA5B1",
"pf c #646365",
"af c #6A757E",
"aM c #595E68",
"sf c #667A87",
"(G c #AAA1A0",
"jf c #788C99",
"vf c #64686F",
"bf c #42413D",
"Bf c #FEECCB",
"Cf c #827262",
"Af c #ECEBEA",
"kh c #677587",
"Sf c #A29B99",
"fv c #6B7684",
"Gf c #F1E1C7",
"Jf c #9C8D79",
"Lf c #423B37",
"If c #697783",
"Uf c #869AA4",
"Rf c #64646B",
"~f c #687A89",
"_f c #6B7E8B",
"`f c #6F828E",
"{f c #645444",
"}f c #C8B59F",
" g c #F9EAD0",
"+g c #766555",
"fn c #565355",
"#g c #FDECCB",
"PR c #8A8484",
"SU c #958A89",
"&g c #3B322F",
";g c #6B7B8B",
"jc c #6A727F",
">g c #6F7480",
"-W c #796D6A",
"bb c #4E4C4E",
"<g c #372E29",
"zF c #535B54",
"1g c #5D5D60",
"2g c #6B7480",
"4g c #B3CEDA",
"6g c #6D7587",
"8g c #4A464A",
"8B c #697165",
"0g c #544336",
"Mz c #49342C",
"tg c #A39A98",
"yg c #483A31",
"YA c #729087",
"ag c #706253",
"gg c #6B7987",
"xg c #687585",
"cg c #6C808C",
"eP c #3C3E35",
"ng c #A8C1CC",
"EU c #75988D",
"Mg c #696F7C",
"AS c #5D5550",
"Ng c #4E4D53",
"Bg c #382F29",
"Cg c #9A8A73",
"Sg c #89786A",
"Kg c #716251",
"Yg c #697689",
"HS c #3C362E",
"Rg c #6D747D",
"Eg c #474446",
"(g c #AAC2CD",
"'g c #3D342F",
"]g c #463727",
"{g c #DBCBAE",
"Xh c #A0999A",
"$h c #8E7F68",
"aA c #6F8E85",
"*h c #697683",
"=h c #697586",
">h c #473C3B",
",h c #676B73",
"<h c #677684",
"AW c #423428",
"6Y c #BBB1AE",
"4h c #606066",
"1c c #525052",
"6h c #3C2E22",
"0h c #FBEAD0",
"wh c #3E2D24",
"oK c #76ABA0",
"eh c #A09A99",
"%l c #6A778A",
"yh c #9F937B",
"uh c #433628",
"ih c #3F3937",
"xh c #6C7684",
"vh c #423C3C",
"lT c #78A59A",
"mh c #F5E5C3",
"Mh c #8B7969",
"Bh c #9F9997",
"Zh c #7E6B5A",
"Ah c #FAEBCB",
"Sh c #C1B39A",
"Dh c #4B3E2E",
"Fh c #3C352E",
"Jh c #606069",
"Kh c #3B2F2B",
"Th c #AE9D86",
"Wh c #A6A1A0",
"Qh c #4B3831",
"MV c #5D6158",
"Xj c #392F2A",
"&j c #FFEFCF",
"=j c #423329",
"-j c #494545",
">j c #64666D",
"&D c #41352E",
"1j c #6B6F7A",
"2j c #697684",
"MJ c #79AF9E",
"5j c #9F9079",
"ej c #FDF1CC",
"-I c #47483F",
"rj c #FFF0CF",
"tj c #A28F7A",
"uj c #433E3B",
"ij c #61676F",
"aj c #4D4949",
"Bm c #595E62",
"sj c #3E332E",
"fj c #6B7682",
" Y c #BAB1B0",
"gj c #677989",
"7Z c #4C4C43",
"hj c #69788A",
"jj c #6C7789",
"xj c #453827",
"Nj c #86735E",
"Vj c #FFEFD0",
"Dj c #62626A",
"Lj c #677889",
"Pj c #6C7788",
"(x c #67666D",
"Yj c #41393A",
"Ej c #E6D5BA",
"vV c #5D655C",
"Wj c #FBECCD",
"pI c #463F35",
"Qj c #FAEACE",
"!j c #8A7967",
"^j c #A59B9A",
";k c #49332D",
"/j c #4D3830",
"[G c #DAD4D5",
"(j c #7A6653",
"MG c #454841",
"'j c #5A4836",
"]j c #3B3028",
"[j c #55555A",
"{j c #68717F",
"4G c #50554E",
"}j c #6C717E",
"ZN c #382B23",
"|j c #514C4B",
"rU c #7D6F6B",
"Xk c #6A7481",
"ok c #6A7687",
"+k c #646573",
"7D c #42392D",
"@k c #42403E",
"#k c #413627",
"&k c #F8E9C8",
"*k c #FAEACF",
"=k c #857666",
"-k c #A59B9B",
"<k c #705F48",
"2k c #515256",
"4k c #626468",
"6k c #443D3A",
"9k c #6B7688",
"0k c #6D7686",
"mz c #AEA6A3",
"ek c #413628",
"rk c #6C5E49",
"tk c #B3A38B",
"XE c #61736C",
"7Y c #BAB0AE",
"uk c #F9E8CD",
"ik c #8E7F6D",
",K c #6C867B",
"dk c #B5AEAE",
"fk c #442E28",
"jk c #E4D4B6",
"kk c #86755C",
"RK c #6F9288",
"lk c #4C4A4F",
"vk c #3B2F29",
"tV c #636F62",
"mk c #646A76",
"cN c #41322A",
"yM c #575B63",
"Mk c #454345",
"Nk c #3A3125",
"Vk c #AC9B80",
"jC c #80A599",
"Ck c #EEE0C0",
"Zk c #F4E3C6",
"Ak c #7B6C58",
"Dk c #DAD6D6",
"Fk c #452D27",
"Gk c #7C6755",
"Hk c #F7E9C9",
"2E c #C9C0BF",
"Kk c #8F7D66",
"aP c #3B4035",
"Pk c #666B79",
"Uk c #66676E",
"Yk c #3D3430",
"RD c #413631",
"Tk c #454140",
"Ek c #667786",
"Cb c #677885",
"Wk c #6C7589",
"Qk c #4A4A4D",
"!k c #3D362B",
"~k c #4B3C29",
"(k c #F1E1C2",
")k c #82735F",
"2v c #4A3E3E",
"_k c #3E3024",
"`k c #DAD7D6",
"]k c #4A322D",
"nF c #3F453E",
"[k c #7E6957",
"|k c #F1E2C2",
"7T c #7CAD9E",
" l c #A5947C",
"&l c #6C788A",
";l c #4E4334",
":l c #E9D7BC",
",l c #392C20",
"3l c #85735E",
"4l c #F7E9C8",
"8l c #524030",
"+E c #64514D",
"ql c #6D7685",
"tl c #413B3A",
"yl c #656A70",
"ul c #697784",
"pl c #403B35",
"al c #927F6B",
"Ul c #62676E",
"sl c #DCC8B1",
"fl c #ADA6A4",
"gl c #DFDBD9",
"hl c #453026",
"jl c #84735E",
"kl c #F6E9C7",
"zl c #D7C7AC",
"xl c #705E4D",
"cl c #473A36",
"vl c #58575F",
"ml c #4F4E50",
"Nl c #585859",
"Yb c #565559",
"Bl c #6B7681",
"BM c #837876",
"Vl c #6C7683",
"Cl c #61656A",
"Zl c #453E38",
"Dl c #877966",
"Jl c #7C6C59",
"Kl c #E4D7B6",
"Ll c #877861",
"Il c #6D7382",
"Yl c #413A37",
"Tl c #676B75",
"=J c #75A190",
"%D c #483D35",
"Rl c #6C7886",
"!l c #403124",
"~l c #3E2F21",
"^l c #AEA7A5",
"(l c #ACA4A2",
"EL c #73998C",
")l c #4D3730",
"`l c #EDDCC0",
"'l c #A59478",
"{l c #6A7686",
"|l c #555152",
"oz c #6D7583",
"Oz c #636671",
"@z c #342821",
"#z c #412F22",
"1F c #817372",
"%z c #4B362F",
"vb c #5F6169",
"-z c #453D3B",
":z c #6B7685",
",z c #6A6872",
"<T c #3C332C",
"<z c #47403E",
"3z c #6B7886",
"5z c #646874",
"8z c #61493C",
"9z c #5A5C62",
" K c #75ABA2",
"wz c #524E4E",
"9E c #E9E5E4",
"ib c #ABA19E",
"ez c #373029",
"8H c #749E91",
"rz c #545457",
"uz c #484644",
"pz c #AAA29F",
"az c #DBD6D6",
"sz c #A69D9A",
"fz c #432C1F",
"gz c #515255",
"jz c #6E7886",
"lz c #3A3931",
"zz c #383530",
"xz c #60646C",
"cz c #6A7986",
"vz c #454341",
"Nz c #402B22",
"Cz c #6C7986",
"Zz c #717883",
"Sz c #342A24",
"Dz c #4E494C",
"/H c #79A598",
"Hz c #422F25",
"Jz c #A9A09E",
"sM c #61646C",
"Iz c #4C3D3A",
"Uz c #6E707A",
"Yz c #6D7987",
"Tz c #686B73",
"Rz c #403633",
"Ez c #40322E",
"&T c #56443E",
"Qz c #68757F",
"6I c #43463E",
"xn c #3B3331",
"!z c #4B4848",
"~z c #443026",
"/z c #473228",
"RP c #43433B",
"(z c #574D4D",
"jD c #42372E",
")z c #6F7783",
"QY c #7CA797",
"`z c #565054",
"{z c #68737E",
"}z c #4A4747",
"|z c #443127",
"eH c #759B90",
" x c #A9A19E",
"Ox c #534B4D",
"+x c #6E7784",
"@x c #6C7786",
"$x c #3B322E",
"%x c #5F656D",
"sI c #434036",
"&x c #69757F",
"*x c #4A4746",
"=x c #412F25",
"FT c #61514C",
";x c #ABA29F",
":x c #493731",
"<S c #709187",
"2x c #677382",
"5x c #433127",
"7x c #E1DDDC",
"9x c #ACA4A1",
"qx c #514A4C",
"wx c #6D7681",
"_J c #76AC9F",
"ex c #676E74",
"rx c #483F3E",
"tx c #40302B",
"}U c #BDB5B2",
"ix c #4F4D4C",
"sx c #B5AFAD",
"dx c #443128",
"fx c #4E4646",
"9D c #443A2E",
"hx c #6B7883",
"jx c #59575C",
"<W c #7DA09A",
"XP c #9E9390",
"zx c #4F4C4C",
"cx c #ABA3A0",
"vx c #DCD7D6",
"Bx c #442E26",
"Vx c #697682",
"UK c #749B90",
"Ax c #A8A19E",
"bY c #BBB0B0",
"Dx c #B2AAA7",
"Gx c #4E4545",
"MF c #4E584F",
"Jx c #6A737E",
"8C c #79A99D",
"Kx c #555052",
"Lx c #564643",
"rE c #627266",
"Ux c #504F4F",
"Yx c #433126",
"Tx c #AFA7A4",
"1m c #595B60",
"Rx c #DFDAD9",
"Ex c #B1AAA8",
"Wx c #473229",
"Qx c #4A4141",
"~x c #666A72",
"6M c #54595D",
"/x c #40302A",
")x c #687581",
"_x c #4E4C4D",
"Ec c #433A39",
"`x c #423026",
"'x c #B0A8A6",
"[x c #463E3D",
"{x c #69737C",
"MI c #786D6A",
"Xb c #4F4C4E",
"|x c #535056",
" c c #392722",
".c c #504748",
"kY c #BAB2B0",
"Xc c #6C7480",
" m c #677483",
"oc c #4F4F4E",
"Oc c #463229",
"+c c #453D3C",
"@c c #68717B",
"#c c #646973",
"$c c #3F3430",
"%c c #3A2A24",
"tF c #505851",
"*c c #677581",
"=c c #50504F",
";c c #EAE7E6",
":c c #B8B0AE",
">c c #453128",
"3c c #474246",
"4c c #6B7580",
"5c c #3F2F25",
"6c c #E8E5E4",
"8c c #4E4647",
"YS c #464036",
"9c c #6C757F",
"0c c #676D77",
"wc c #39302D",
"rT c #79AA9E",
"ec c #5D6068",
"rc c #565655",
"tc c #453429",
"yc c #B7AFAD",
"7U c #7F726E",
",Z c #A69A9B",
"ic c #ECEAE9",
"pc c #B3ACA9",
"ac c #46342A",
"sc c #504648",
"fc c #54555B",
"gc c #362D26",
"hc c #4B4849",
"lc c #E6E4E3",
"zc c #D7D6D5",
"xc c #A59C98",
"+m c #687281",
"vc c #514648",
"Mc c #3C322E",
"4U c #7A6D68",
"Nc c #6A7883",
"Bc c #535252",
" U c #6C5D58",
"Ac c #48362D",
"Fc c #58565A",
"Gc c #3C3029",
"Jc c #6B7581",
"Kc c #687681",
"YZ c #7BADA1",
"Lc c #525150",
"Pc c #B3ABAA",
"Uc c #4B4041",
"Yc c #6C737E",
"'W c #434235",
"vB c #5E675F",
"Tc c #6A6C76",
"Rc c #443A38",
"Wc c #636971",
"Qc c #697584",
"~c c #4C4A49",
"/c c #B6AFAD",
"8U c #746764",
"(c c #E5E0E0",
"_c c #4B3A31",
"`c c #483D3D",
"[c c #6A737D",
"|c c #AEA5A1",
" v c #4E3D34",
"DH c #78A195",
".v c #483B3B",
"Ov c #3B3934",
"@v c #60646A",
"Ym c #595D61",
"#v c #6A7582",
"$A c #68897F",
"$v c #4E4C4A",
"&v c #4B372D",
"*v c #493C3C",
"7L c #6E9389",
"-v c #342C26",
";v c #4C4A4C",
"HT c #779E92",
":v c #68727D",
">v c #6C7782",
"5v c #61636C",
"6v c #687484",
"bH c #749E94",
"7v c #6D7883",
"8v c #53504F",
"OU c #746762",
"9v c #423025",
"lM c #52545B",
"0v c #B4AEAB",
"4T c #52423D",
"qv c #4F4244",
"wv c #6E7481",
"rv c #555354",
"tv c #3E312B",
"}G c #59463F",
"yv c #4F4B4E",
"pv c #504C4A",
"sv c #49372E",
"dv c #504445",
"EN c #5C675F",
"gv c #686C76",
"hv c #403A38",
"kv c #606269",
"-H c #759E94",
"zv c #6C7883",
"CB c #575D54",
"xv c #4F4B4A",
"vv c #49372D",
"bv c #4D3F41",
"nv c #6A7584",
"mv c #595B5F",
"Mv c #3B3128",
"Bv c #E2DEDD",
"Vv c #B1ACA9",
"ZE c #44372B",
"Zv c #4F4445",
"{U c #BBB2B0",
"Av c #6D7480",
"Sv c #463F3C",
"Dv c #3E322D",
"Fv c #64666E",
"/U c #B7AEAD",
"Hv c #657687",
"4J c #524037",
"Kv c #534F4F",
"aU c #776966",
"Lv c #453229",
"~E c #D0CACB",
"Pv c #B5ADAB",
"Iv c #E4E0DF",
"Uv c #A9A39F",
"kT c #586961",
"Tv c #544A4C",
"Ev c #585659",
"*N c #3C2F28",
"Wv c #392C24",
"Qv c #4F4B4D",
"~v c #B4AEAA",
"/v c #514749",
"_v c #423027",
"`v c #53433A",
"'v c #4B4142",
"[v c #6C7381",
"&L c #6E9585",
"$V c #5C675D",
"|v c #514E4F",
" b c #677485",
"QL c #71978D",
".b c #697583",
"ob c #B4ACAB",
"Ob c #A49B97",
"iH c #779F94",
"+b c #4E3D33",
"@b c #473D3E",
"#b c #67707B",
"JV c #7EAA9F",
"$b c #6A6F78",
"%b c #3B322C",
"*b c #657785",
"=b c #4F4C4D",
"(M c #3A2F28",
"-b c #3F2C24",
"SJ c #78AF9F",
"{G c #B9ADAC",
":b c #ABA5A2",
">b c #48372D",
",b c #4D4243",
"1b c #545154",
"3b c #504B4D",
"qE c #513F39",
"4b c #697587",
"MY c #BDB4B4",
"6b c #4C4849",
"0b c #6C7681",
"wb c #40352C",
"=C c #7AA99F",
"eb c #3F312E",
"rb c #676971",
"uV c #607264",
"yb c #534F50",
"ub c #E3E4E4",
" V c #596559",
"pb c #513F37",
"db c #392923",
"fb c #514C4F",
"gb c #C5C3C3",
"hb c #A99F9B",
"FW c #D5D2D2",
"pK c #38332C",
"jb c #523F36",
"lb c #6B7481",
"cb c #392D29",
"^W c #57463E",
"nb c #3F2D23",
"fE c #BCB2B0",
"an c #6A7480",
"Mb c #D9D4D3",
"Bb c #4A372D",
"eF c #43463F",
"Vb c #554B4E",
"BR c #7BA296",
"GN c #3F2E26",
"Zb c #5A585D",
"OT c #6B8376",
"Ab c #382C24",
"Vm c #545B5C",
"Sb c #4D4547",
"Db c #6C737F",
";S c #65807A",
"Fb c #A79F9D",
"Gb c #A69E9B",
"Kb c #696F77",
"Lb c #433C37",
"Ib c #606169",
"Ub c #6C7987",
"PG c #3D3D34",
"MZ c #7DADA4",
"Tb c #B3B5B6",
"bL c #739991",
"Rb c #A79D99",
"Eb c #503E35",
"Wb c #4F474A",
"!b c #595859",
"/b c #6D7782",
"(b c #53555A",
")b c #402E26",
"_b c #AFA7A6",
"'b c #4B392F",
"]T c #42342B",
"}b c #60636C",
"|b c #555860",
" n c #412F29",
".n c #5B5A5F",
"Xn c #342B22",
"on c #4D4B4B",
"}H c #79A194",
"+n c #433029",
"}F c #4D534C",
"!S c #3D352A",
"@n c #E8E6E6",
"%n c #686F77",
"sC c #7EA9A0",
"&n c #403D36",
"*n c #372F29",
"=n c #61646D",
"-n c #53545A",
"5F c #433129",
":n c #4B4446",
">n c #6A7680",
",n c #6A7688",
"<n c #6C7784",
"3n c #4B464C",
"5n c #515054",
"5V c #677063",
"7n c #AEA6A4",
"8n c #4B4447",
"0n c #3F302C",
"wB c #516051",
"qn c #5F636A",
"4E c #3F3A2F",
"wn c #555255",
"tn c #E9E8E7",
"in c #3C2B24",
"GA c #5F7E76",
"gn c #422F28",
"hn c #A7A09E",
"jn c #A79F9E",
"kn c #4B3A35",
"ln c #4E484C",
"zn c #3C3230",
"bn c #555254",
"Nn c #525457",
"Bn c #382E28",
"Vn c #555154",
"Cn c #B0A9A8",
"An c #4D494B",
"Sn c #677588",
"Dn c #667788",
"Fn c #646C75",
"Gn c #3F3735",
"Hn c #3F3531",
"Ln c #A8A0A0",
"Pn c #483732",
"In c #4B4548",
"Rn c #6E7A84",
"En c #535054",
"Wn c #3E2E27",
"Qn c #DAD5D5",
"!n c #49352F",
"^n c #6E767F",
"(n c #6B7986",
"zC c #786E6D",
"_n c #687584",
"{n c #677583",
"|n c #687682",
".m c #677484",
"Xm c #687485",
"Om c #657584",
"%m c #6C7686",
"&m c #667583",
"=m c #687984",
"-m c #A59D9C",
";m c #F3F0F0",
"GJ c #7DA295",
"<m c #5F5D5E",
"'U c #BAB1AF",
"4m c #5C6066",
"5m c #5A5D64",
"0m c #575D62",
"`P c #393B33",
"qm c #575B61",
"^J c #688D83",
"em c #55585D",
"tm c #57575E",
"%U c #71635E",
"ym c #5D5C63",
"um c #5C5E64",
"im c #575C62",
"am c #575C61",
"4A c #6A897F",
"sm c #565C60",
"fm c #575C60",
" L c #71948A",
"gm c #555B5F",
"yF c #545A52",
"hm c #565A60",
"=S c #6F8C84",
":C c #7AA99E",
"jm c #585B62",
"km c #595D63",
"lm c #5B5F65",
"zm c #5B5D63",
"xm c #5A5D62",
"vm c #575B5E",
".U c #665854",
"bm c #585A60",
"Mm c #535A60",
"Zm c #5B5E66",
"Sm c #555A60",
"8T c #6F897A",
"VK c #534946",
"Dm c #565B61",
"Gm c #5C5D64",
"Jm c #5B5C62",
"IY c #BFB6B6",
"Km c #55555D",
"Pm c #57585E",
"Um c #5A5E64",
"Tm c #5A5D60",
"Rm c #5A5C61",
"!m c #5B5D62",
"#Q c #695C57",
"~m c #585B5F",
"rW c #B8B0B1",
"(m c #5E6168",
")m c #575B5F",
"{m c #565A5E",
"}m c #585C61",
"|m c #585B60",
" M c #585A61",
"(L c #6F9A8E",
"XM c #56595E",
"oM c #595C61",
"ZP c #3F3F37",
"+M c #595A62",
"@M c #55585C",
"#M c #57595F",
"%A c #65867A",
"$M c #56585F",
"%M c #585960",
"CP c #40413A",
"*M c #5C5F68",
"'P c #3E3F37",
"pC c #7EA89E",
"-M c #585A62",
";M c #5B565A",
">M c #382A22",
"3M c #595960",
"4M c #54585D",
"5M c #54585C",
"eU c #7C6F6C",
"7M c #53595D",
"9M c #585961",
"qM c #565B62",
"eM c #585C65",
"uM c #585D64",
"iM c #555C63",
"dM c #5A5E66",
"fM c #565B65",
"BZ c #7CAEA2",
"hM c #4F5158",
"jM c #504F57",
"kM c #575861",
"zM c #515359",
"xM c #57585F",
"OQ c #8B8280",
"~B c #636A60",
"cM c #585D5E",
"bM c #565C5F",
"NM c #3B2920",
"SM c #36251A",
"gP c #404337",
"FM c #362418",
"HM c #3B2E26",
"JM c #392E27",
"LM c #3B302A",
"UM c #3A2E28",
"0V c #5C685E",
"TM c #3C2F27",
"0U c #726563",
"$G c #50554D",
"[A c #607E74",
"RM c #3C2E28",
"xE c #BFB8B8",
"EM c #3A2B24",
"EA c #617E74",
"WM c #3D2E28",
"TH c #77A294",
"QM c #3B2E2C",
"!M c #382C29",
"^M c #3A2F29",
"/M c #392D28",
")M c #3B3029",
"lE c #52564C",
"_M c #3B302B",
"rC c #78A99E",
"'M c #3F342E",
"{M c #3A2B25",
"}M c #3C2E27",
"{N c #62695D",
"XN c #3E3129",
"+N c #41332C",
"$N c #3D3028",
"%N c #3D2F26",
"&N c #3C2F26",
"-N c #3E3029",
";N c #3E2F29",
"#Z c #ADA09D",
"YB c #5E685E",
":N c #3E2F27",
">N c #392B24",
"cL c #71968F",
",N c #41322B",
"<N c #382923",
"LB c #606B62",
"sB c #586158",
"2N c #3C2F2A",
"1Y c #B8AFAD",
"3N c #3C2F29",
"6N c #40342C",
"7N c #3E322A",
"8N c #3E3026",
"9N c #3C2F25",
"0N c #3D2F25",
"IN c #5C4747",
"wN c #3E332D",
" H c #768D83",
"eN c #40332B",
"rN c #3D2A1C",
"iZ c #62574F",
"tN c #37271A",
"yN c #382A20",
"iN c #3E302A",
"pN c #3A2E26",
"sN c #3E312A",
"dN c #3D3027",
"fN c #3D3128",
"gN c #3D3129",
"hN c #3F342B",
"jN c #3B2E27",
"kN c #392C26",
"lN c #3D312B",
"zE c #56443F",
"zN c #392D27",
"vN c #352C24",
"mN c #37281D",
"MN c #3D2B1F",
"VN c #3C2D22",
"CN c #3A2D24",
"AN c #3B3129",
"DN c #38281E",
"KN c #BAB4B3",
"PN c #BFB5B6",
"iB c #646F65",
"UN c #4D564B",
"YN c #556053",
"TN c #575D50",
"WN c #617063",
"QN c #5C6C5E",
"!N c #5C6A5D",
"(B c #626960",
"/N c #596458",
"(N c #5A6659",
"_N c #677165",
"'N c #596155",
"]N c #60675B",
"TL c #709688",
"|N c #5E675D",
" B c #5F695E",
".B c #636E63",
"XB c #616D64",
"_F c #4A534D",
"oB c #5E695F",
"`J c #7AAB9E",
"OB c #586257",
"+B c #5D655B",
"@B c #676E64",
"CI c #736662",
"$B c #575F55",
"%B c #5D645B",
"*B c #576054",
"-B c #646C61",
"1B c #545D53",
"3B c #646D63",
"4B c #616A62",
"6B c #555D53",
"PA c #638177",
"9B c #697268",
"CD c #41362E",
"0B c #636E64",
"qB c #546156",
"rB c #677169",
"yB c #59655B",
"uB c #647064",
"aB c #59625A",
"jB c #636D64",
"lB c #5E6B62",
"zB c #5F6A62",
"xB c #5D665E",
"cB c #5A645B",
"mB c #5E6A5F",
"MB c #626D62",
"NB c #5D675C",
"BB c #555F55",
"{F c #4B534D",
"SB c #5F695F",
"DB c #5C655B",
"FB c #616B61",
"HB c #576156",
"PB c #5E6A60",
"IB c #5F6A60",
"TB c #576257",
"WB c #5D665D",
"!B c #5C6359",
"^B c #596157",
"/B c #576056",
"_B c #5A6559",
"]B c #626C61",
"{B c #5A675A",
"}B c #5E6A5E",
"XV c #5B695B",
"+V c #5E6B60",
"+A c #66847B",
"@V c #5B675B",
"#V c #59645A",
"%V c #5B685C",
"&V c #5D695E",
"=V c #667067",
")J c #74AC9F",
";V c #616D61",
":V c #656F65",
"<V c #60695E",
"7V c #626B60",
"8V c #5D675D",
"9V c #667167",
"qV c #566157",
"wV c #5A6358",
"eV c #646D61",
"iV c #5F7062",
"pV c #5D6B5D",
"aV c #596256",
"QH c #75A092",
"dV c #62655A",
"!D c #463C34",
"fV c #5D6255",
"gV c #5E6659",
"kV c #616D63",
"lV c #67736A",
"xV c #586359",
"cV c #5A6359",
"nV c #656D63",
"rH c #779C91",
"+F c #746866",
"BV c #656A61",
"CV c #383428",
"ZV c #615855",
"VW c #7FABA2",
"fF c #42433F",
"SV c #D1C8C9",
"DV c #867677",
"xF c #444842",
"GV c #6D827D",
"LV c #7BAC9D",
"YV c #7BA99D",
"TV c #7BA99E",
"RV c #7CA99D",
"EV c #7CA89D",
"WV c #7CA89C",
"QV c #79A89B",
"{L c #41443C",
"!V c #7AA99C",
"(V c #7BA69C",
"_V c #7AA89B",
"`V c #7CA79D",
"[V c #7AA59B",
"}V c #79A69B",
"|V c #7BA69A",
"hY c #BAB2B1",
" C c #7AA69D",
".C c #7AA79C",
"/P c #383C32",
"XC c #7AA89C",
"oC c #7AA89D",
"'F c #454A44",
"OC c #7BA99F",
"#C c #7AA89E",
"WA c #6F8E84",
"$C c #7AA79E",
"%C c #7AA69E",
"*C c #79A69C",
"-C c #79A89E",
"-U c #796A66",
"<C c #7BA79F",
"1C c #7AA8A0",
"5C c #7BAAA0",
"6C c #7AA9A1",
"7C c #7AA7A2",
"9C c #7CAAA0",
"qC c #7DAA9E",
"CH c #799C91",
"wC c #7CA99F",
"tC c #79A89C",
"uC c #7BA79E",
"iC c #7DAA9F",
"aC c #7DA89F",
"dC c #7EAAA0",
"fC c #80A9A1",
"gC c #81A9A2",
"hC c #81AAA0",
"xC c #C9C3C4",
"cC c #B2A7A8",
"vC c #554846",
"MC c #79AFA6",
"wZ c #423F39",
"NC c #78B0A6",
"BC c #7BAEA3",
"CC c #4C4D44",
"SC c #8D8081",
",P c #444640",
"DC c #493B36",
"FC c #535E5B",
"GC c #7FA9A3",
"FG c #525853",
"JC c #7BAFA3",
"PC c #79B0A5",
"IC c #7CA397",
"TC c #7D6C6E",
"VA c #6F8D85",
"RC c #958888",
"EC c #493A35",
"GW c #877A76",
"WC c #4F5854",
"QC c #7FA7A2",
"!C c #7AAFA6",
"^C c #7BAFA6",
")C c #585F54",
"_C c #483B34",
"`C c #8E8080",
"'C c #958684",
"{C c #7EA7A0",
"}C c #7BAEA6",
"|C c #7AACA4",
" Z c #79ACA5",
".Z c #7BAFA4",
"oZ c #82AA9D",
"OZ c #545B50",
"yT c #759A8F",
"+Z c #483B35",
"@Z c #8E8081",
"$Z c #5E4B41",
"&Z c #7BA39B",
"-S c #66837A",
"*Z c #7BADA5",
"=Z c #7BB0A4",
"-Z c #7BB1A4",
";Z c #7FA699",
":Z c #4C5047",
">Z c #50433F",
"#T c #79AFA0",
"gS c #668377",
"<Z c #B4A9A7",
"1Z c #55463E",
"3Z c #7BADA6",
"5Z c #7DB1A6",
"9Z c #AA9F9F",
"0Z c #BCB2B2",
"qZ c #594A44",
"JG c #3B3D34",
"rZ c #7BADA4",
"uZ c #464239",
"sZ c #75908B",
"dZ c #76AFA3",
"RS c #40382B",
"fZ c #7DAFA7",
"hZ c #758982",
"jZ c #3E352B",
"lZ c #D7D3D1",
"tJ c #7CAA9A",
"zZ c #CBC3C2",
"xZ c #8C7D7C",
"cZ c #402C24",
"nZ c #7DACA0",
"HP c #3E3E34",
"NZ c #7EAEA4",
"tR c #4B3731",
"VZ c #7DAEA4",
"SZ c #7AADA0",
"GZ c #77AB9F",
"HZ c #78AC9F",
"JZ c #79AC9F",
"|K c #6F9388",
"KZ c #7AAD9F",
".A c #728B85",
"LZ c #7BADA2",
"nK c #74ACA1",
"PZ c #77AEA0",
"IZ c #77AC9F",
"WD c #433831",
"UZ c #78AC9E",
"RZ c #7DAEA3",
"QZ c #7DADA3",
"!Z c #80ACA2",
"~Z c #87ADA5",
"^Z c #8BA5A0",
"BI c #756A66",
"/Z c #5D615B",
"@S c #6A887D",
"_Z c #C0B8B7",
"0E c #D2CBCA",
"`Z c #564742",
"]Z c #53635A",
"KR c #7B706C",
"{Z c #6D857D",
" A c #748E88",
"#A c #74928B",
"-A c #6B8C82",
":A c #64847D",
"SY c #71988E",
"uS c #6F8880",
">A c #68887F",
",D c #453C32",
"<A c #719288",
"5A c #6D8D83",
"%G c #4E534B",
"8A c #68877D",
"9A c #69887E",
"qA c #6B8E81",
"wA c #719286",
"TW c #C5BEBC",
"UY c #D7D0D0",
"rA c #68877E",
"9L c #6A9187",
"tA c #65847B",
"yA c #6B8B80",
"uA c #6D8B81",
"JA c #688A7F",
"iA c #6B8A80",
";J c #739D8E",
"pA c #6D8C83",
"gA c #69867D",
"zA c #627F78",
"vA c #6C8C83",
"bA c #6B8981",
"MA c #69877F",
"NA c #628179",
"BA c #63837A",
"ZA c #708F86",
"AA c #6F8E86",
"zH c #77A296",
"HA c #6B8D83",
"KA c #65867C",
"TA c #6A897E",
"UR c #403A31",
"RA c #628075",
"QA c #719389",
"^A c #68867F",
"(A c #6A8980",
")A c #6E8B84",
"`A c #69867E",
"'A c #67847B",
"}A c #668378",
"|A c #6D8981",
"oS c #6B8B81",
"OS c #628078",
"#S c #6A887E",
"ZH c #79A094",
"%S c #68827B",
"&S c #628178",
"*S c #6C8A81",
":S c #708C84",
"1S c #6B8E82",
"2S c #719287",
"3S c #74958B",
"4S c #74958C",
"5S c #698981",
"6S c #69897F",
"8S c #69877D",
"0S c #658078",
"qS c #6F8C83",
"wS c #729289",
"eS c #65877D",
"tS c #68857B",
"yS c #668078",
"ZW c #454638",
"iS c #748F86",
"pS c #718C82",
"sS c #6E897F",
"fS c #678479",
"jS c #6D8B7F",
"lI c #44433A",
"vS c #6B867E",
"bS c #738C83",
"EY c #432F28",
"nS c #778D86",
"mS c #6D8179",
"MS c #717E75",
"BS c #3F3227",
"1Q c #968B88",
"VS c #6C605B",
"ZS c #FBFAFA",
"SS c #3E362E",
"JS c #3A352C",
"KS c #3D382D",
"LS c #3D392F",
"IS c #393427",
"US c #413C31",
"ES c #42392F",
"~S c #403930",
"/S c #423B32",
"(S c #3F362D",
"+W c #515C4C",
"'S c #3E352C",
"]S c #403A2F",
">I c #47453C",
"[S c #484137",
" D c #413830",
"oD c #413831",
"OD c #453C35",
"+D c #403831",
"fJ c #78AE9F",
"#D c #40362F",
"$D c #443931",
"*D c #423931",
"=D c #3D362D",
";D c #3E352D",
":D c #3F372C",
"-T c #5F504A",
"@T c #77AD9D",
"<D c #3E382B",
"1D c #453F34",
"2D c #433C31",
"3D c #40382D",
"[R c #A89E9E",
"QP c #3D3D32",
"4D c #473F36",
"5D c #473E36",
"6D c #433A2F",
"0D c #423B31",
"JL c #73988C",
"bF c #464D46",
"rD c #42392E",
"yD c #40352A",
"uD c #3F3328",
"iD c #403227",
"aD c #484035",
"sD c #413A2F",
"gD c #3F352B",
"kD c #3F3429",
"lD c #40352B",
"zD c #3C3329",
"cD c #41382F",
"nD c #393129",
"mD c #3F372F",
"oL c #6C8F85",
"ND c #43372E",
"BD c #42382F",
"VD c #443B32",
" T c #847A79",
"AD c #3C3128",
"LJ c #E9E6E6",
"0F c #4C534C",
"SD c #3C352A",
"zG c #4F554E",
"DD c #484036",
"FD c #423C32",
"6K c #362C29",
"OG c #45483E",
"GD c #413A30",
"JD c #41352F",
"+Y c #C3BBB9",
"|I c #756561",
"LD c #433A32",
"YD c #443E3A",
"ED c #423730",
"^D c #3F362F",
"/D c #403630",
"(D c #473C38",
"PU c #4E352D",
"_D c #423630",
"'D c #41352D",
"=T c #CBC6C6",
"{D c #403A2D",
"}K c #74968C",
"}D c #423E32",
".F c #3C342A",
"OF c #43362B",
"=F c #897D7A",
"-F c #A9A2A1",
";F c #A09896",
":F c #9D9594",
">F c #9E9695",
",F c #908785",
"BG c #4C4E48",
"4F c #553F36",
"7F c #4D5047",
"9F c #4A514B",
"qF c #494F49",
"3T c #BDB6B6",
"wF c #474D45",
"rF c #464C44",
"iF c #43413A",
"pF c #46453E",
"aF c #43443F",
"sF c #464844",
"dF c #474945",
"hF c #454743",
"kF c #464A44",
"lF c #525A54",
"vF c #464C47",
"mF c #464E47",
"VF c #535752",
"CF c #474842",
"ZF c #46453F",
"bK c #74AAA0",
"DF c #444941",
"FF c #4F554D",
"KF c #494C44",
"'E c #505449",
"LF c #555E56",
"IF c #4E574F",
"UF c #484F49",
"YF c #4D514A",
"WF c #4B5048",
"QF c #565D57",
"~F c #41443F",
"]F c #474A44",
"|F c #45463E",
".G c #4A4A3E",
"XG c #52554B",
"oG c #494D42",
"@G c #3F443B",
"#G c #40453C",
"&G c #484C43",
"fK c #76A99F",
"5H c #739C91",
"*G c #484A44",
"=G c #43463D",
"-G c #565D55",
";G c #4D554B",
">G c #424740",
",G c #4B534C",
"1G c #41473D",
"'I c #6E605C",
"2G c #434841",
"8G c #494D45",
"9G c #4D534B",
"`Y c #473B35",
"0G c #4B524A",
"qG c #41453E",
":T c #799A92",
"wG c #3F423C",
"rG c #434C42",
"yG c #59645B",
"uG c #515950",
"aG c #42493D",
"fG c #536054",
"gG c #424B40",
"jG c #4C5249",
"kG c #464A42",
"lG c #43453E",
"vG c #414441",
"bG c #434641",
"zU c #46443B",
"nG c #4A4F4A",
"mG c #434941",
"VG c #42413C",
"[I c #756763",
"CG c #42403D",
"GG c #565D56",
"HG c #43473F",
"IG c #4C372D",
"YG c #897E7B",
"TG c #918684",
"RG c #9B9290",
"mK c #74ABA0",
"EG c #A29A99",
"QG c #928786",
"AR c #EDE9E8",
"^G c #958B8A",
"/G c #938987",
"|G c #424339",
".H c #7DA197",
"XH c #78A197",
"OH c #76A195",
"@H c #76A093",
"%H c #77A398",
"&H c #79A398",
"*H c #769D91",
"=H c #779B91",
";H c #759F96",
":H c #759D93",
">H c #749D93",
"<H c #759D91",
"3H c #78A295",
"4H c #739D91",
"6H c #759F94",
"7H c #74A093",
"qH c #75A294",
"wH c #779F95",
"%W c #4A342C",
"yH c #78A298",
"uH c #79A095",
"pH c #74978C",
"sH c #79A399",
"dH c #77A399",
"fH c #79A299",
"gH c #79A196",
"kH c #779E95",
"lH c #78A096",
"aL c #6D9288",
"xH c #74A194",
"vH c #75A197",
"nH c #779E96",
"BH c #7A9F95",
"FH c #77A094",
"HH c #769C8F",
"KH c #749F91",
"LH c #719A8D",
"PH c #77A395",
"UH c #709D8C",
"RH c #729E8E",
"!H c #769C90",
"^H c #76A397",
"(H c #759E90",
")H c #75A091",
"_H c #739F8F",
"'H c #76A493",
"[H c #749F90",
"{H c #77A093",
"|H c #779E91",
"9J c #EEEBEC",
"XJ c #769D92",
"OJ c #769E92",
"@J c #77A194",
"#J c #76A294",
"_U c #BCB4B2",
"$J c #72A090",
"%J c #749D92",
"&J c #759E91",
"-J c #77A197",
">J c #769C92",
",J c #769C93",
"2J c #72877B",
"yP c #3E3F36",
"3J c #454034",
"5J c #B5ABA9",
"6J c #E6E2E2",
"wJ c #A39795",
"eJ c #493931",
"yJ c #75AC9E",
"iJ c #76AD9E",
"pJ c #77AD9E",
"dJ c #77AD9F",
"gJ c #79AE9F",
"kJ c #79AE9E",
"zJ c #7BAD9F",
"bJ c #7BAFA0",
"nJ c #7AAF9F",
"mJ c #78AE9E",
"NJ c #7BAF9F",
"sE c #4D3935",
"VJ c #79AD9D",
"AJ c #79AF9F",
"DJ c #77AF9E",
"HJ c #51584A",
"JJ c #433329",
"KJ c #AAA3A1",
"XQ c #DDD7D7",
"PJ c #E3DEDE",
"IJ c #AFA5A3",
"UJ c #638276",
"YJ c #74AD9F",
"EJ c #5B6B5E",
"WJ c #3E3126",
"QJ c #DAD4D4",
"!J c #958887",
"(J c #73AD9F",
"]J c #42382B",
"[J c #978D8A",
"{J c #887A79",
"}J c #3A3B32",
"XK c #75AC9F",
"+K c #6A857C",
"UL c #729A8E",
"$K c #968A8A",
"%K c #393A32",
"&K c #7CABA1",
"=K c #75ABA0",
":K c #908281",
">K c #32312A",
"<K c #80AA9F",
"1K c #75AAA1",
"3K c #78A9A0",
"4K c #7BAB9F",
"5K c #708882",
"0K c #76AAA0",
"qK c #75AAA0",
"wK c #75AA9F",
"rK c #78AA9F",
"tK c #7CA79B",
"tE c #453129",
"sK c #75AB9F",
"@P c #363D37",
"dK c #76AA9E",
"jK c #75A9A1",
"zK c #74AB9F",
"xK c #74AA9E",
"cK c #74A99D",
"vK c #75AA9E",
"BK c #393A34",
"SK c #6F817E",
"GK c #6C958F",
"KK c #70998F",
"LK c #71998F",
"IK c #71978E",
"YK c #70988D",
"QK c #72998F",
"!K c #72998E",
"^K c #719C90",
"(K c #6F978B",
")K c #749A8E",
"`K c #709588",
"'K c #76998D",
"]K c #73978C",
"[K c #6D9085",
"{K c #6E9086",
".L c #73948B",
"XL c #729389",
"OL c #74988E",
"+L c #739B90",
"#L c #739C8E",
"$L c #72998C",
"%L c #6D9486",
"uL c #749A91",
"=L c #70988B",
">L c #6E968C",
"<L c #739990",
"5L c #72978E",
"6L c #70968B",
"8L c #6D9389",
"wL c #749B92",
"eL c #6F988E",
"GR c #69887F",
"rL c #70988E",
"tL c #719A8F",
"sL c #6C9187",
"dL c #6C9186",
"gL c #72988D",
"jL c #6E958A",
"lL c #73988D",
"zL c #6E948A",
"vL c #739891",
"yE c #A79C98",
"nL c #739890",
"CL c #739A8E",
"GL c #74998E",
"HL c #749A8F",
"IL c #6E9689",
"YL c #759B91",
"RL c #759A8D",
"~L c #719B8F",
")L c #709A8F",
"_L c #689186",
"]L c #6C8C7F",
" P c #FBF7F7",
"OP c #393832",
"+P c #343A33",
"~R c #53403B",
"&P c #40423A",
"=P c #3E423A",
"-P c #3E443A",
";P c #3D4439",
"<P c #40433D",
"2P c #464D43",
"4P c #394238",
"5P c #394237",
"6P c #40453B",
"7P c #3E4438",
"0P c #3F4237",
"qP c #3B3D33",
"wP c #3E4138",
"rP c #404138",
"tP c #414238",
"iP c #464940",
"pP c #42463C",
"[T c #92827D",
"sP c #3C4035",
"fP c #3E4034",
"jP c #3D4036",
"kP c #3F4137",
"xP c #3F4239",
"cP c #363A32",
"vP c #3F433C",
"bP c #3B403B",
"nP c #393D39",
"mP c #3F423D",
"MP c #454842",
"VP c #42413A",
"AP c #3C3B35",
"SP c #3B3B34",
"DP c #373931",
"FP c #3D3F38",
"JP c #3C3B31",
"PP c #3F433A",
"kW c #7BA99C",
"IP c #40443C",
"EP c #404036",
"WP c #3B3B32",
"^P c #3E4137",
"_P c #393D33",
"[P c #3D3F36",
"|P c #3F443A",
"XI c #404339",
"@I c #383931",
"=I c #3D4137",
":I c #474439",
",I c #45443B",
"<I c #434439",
"1I c #46483D",
"|R c #7EA39D",
"2I c #42453B",
"4I c #44483E",
"5I c #41453A",
"8I c #3C3B30",
"9I c #3B3930",
"0I c #423D32",
"qI c #3D3026",
"wI c #513F3A",
"eI c #9F9595",
"tI c #7F6F6D",
"aI c #464339",
"/I c #716461",
"fI c #4C493F",
"jI c #443E36",
"zI c #3E3F34",
"xI c #3F3D34",
"cI c #3E372E",
"nI c #60544E",
"mI c #706360",
"VI c #746965",
"ZI c #746863",
"AI c #726662",
"SI c #756964",
"FI c #746663",
"GI c #726461",
"HI c #776A65",
"JI c #776A66",
"PI c #756662",
"UI c #7D6F6A",
"TI c #746662",
"RI c #746661",
"EI c #71625E",
"WI c #6F625E",
"!I c #6B615E",
"^I c #726562",
"(I c #746560",
")I c #6E5F5A",
"_I c #675954",
"fT c #7CAA9B",
"`I c #72645F",
"]I c #70625E",
":Q c #4F3C34",
"XU c #6B5E5A",
"+U c #675956",
"@U c #685B57",
"bU c #403D34",
"#U c #6C5F5A",
"$U c #73655F",
"&U c #6B5D59",
"*U c #685A55",
";U c #6B5D58",
">U c #6F635D",
"1U c #6E625D",
"2U c #786B66",
"3U c #726560",
"6U c #7B6E6B",
"qU c #786A67",
"wU c #7A6E6A",
"tU c #6F635E",
"sU c #776865",
"dU c #746462",
"jU c #423429",
"kU c #413B31",
"xU c #44423A",
"nU c #48453A",
"MU c #3D3A33",
"hR c #7CA49A",
"BU c #473025",
"VU c #58443D",
"CU c #7E716D",
"ZU c #7C6D6C",
"AU c #796B69",
"DU c #B6ADAC",
"GU c #C2B8B8",
"JU c #C7BEBE",
"KU c #C6BDBD",
"LU c #AB9E9C",
"IU c #545148",
"UU c #788F83",
"YU c #72958C",
"RU c #72968B",
"~U c #C3BCBA",
"^U c #B3A9A7",
"(U c #BEB7B6",
")U c #BDB5B3",
"`U c #BFB7B5",
"]U c #BBB3B0",
"[U c #BCB3B1",
".Y c #B9B0AE",
"oY c #BEB6B3",
"OY c #BBB3B1",
"@Y c #C0B7B5",
"#Y c #BAB1AE",
"%Y c #C1B8B6",
"*Y c #B7AFAC",
">Y c #B9B1AE",
",Y c #B3A9A5",
"2Y c #B9AFAD",
"3Y c #B4AAA8",
"5Y c #B2A8A6",
"8Y c #B1A7A4",
"0Y c #BCB3B0",
"uY c #AFA5A2",
"pY c #B4ABA9",
"aY c #B6AEAB",
"dE c #C3BABB",
"sY c #BFB7B4",
"dY c #B9B2AE",
"fY c #B2A9A6",
"jY c #BFB6B4",
"xY c #BEB6B4",
"QW c #6A746D",
"cY c #BDB4B2",
"mY c #B9ADAE",
"NY c #7A706C",
"FR c #362C26",
"CY c #6C9389",
"ZY c #6E978C",
"AY c #719A8E",
"DY c #70968C",
"FY c #70988C",
"GY c #73998D",
"HY c #768E86",
"PY c #C2B9B9",
"YY c #EFEBEB",
"RY c #A09392",
"~Y c #7DB0A3",
"^Y c #87ACA2",
"/Y c #697069",
"IT c #D4CDCF",
"(Y c #47342B",
"_Y c #A19998",
"'Y c #646D68",
"]Y c #80A8A1",
"{Y c #7BA398",
"XT c #7E7170",
"+T c #79AB9B",
"$T c #7CA091",
"1T c #665A57",
"0T c #786B6A",
"qT c #FFFCFC",
"tT c #74AA9D",
"SW c #8C827F",
"uT c #52554C",
"iT c #47362F",
"sT c #43322A",
"dT c #58675C",
"hT c #B9B0B0",
"zT c #5D6C63",
"cT c #C4BEBE",
"vT c #81726F",
"bT c #6F8A7F",
"nT c #50554B",
"ZT c #769C91",
"TT c #6B8C81",
"RT c #78AAA4",
"ET c #78AAA3",
"WT c #73958D",
"!T c #5A4A47",
"^T c #E3DEDF",
"/T c #FAF9F9",
"(T c #A79D9C",
")T c #44322E",
"_T c #59655D",
"`T c #7BAC9F",
"'T c #5D7263",
"}T c #5A6E62",
" R c #58635C",
".R c #44352E",
"OR c #6C817A",
"@R c #4B4F44",
"#R c #584742",
"$R c #CFCACA",
"%R c #E9E7E6",
"&R c #564745",
"*R c #4A5046",
"=R c #7A9F92",
"-R c #738882",
";R c #3D322A",
":R c #918683",
",R c #6E5E5C",
"2R c #78ABA4",
"3R c #76938B",
"4R c #4A4039",
"5R c #817472",
"7R c #7A6C6B",
"8R c #423E36",
"9R c #718E82",
"wR c #5E4F4B",
"rR c #FFFEFE",
"uR c #79A499",
"aR c #ACA4A3",
"dR c #D9D3D4",
"gR c #63766C",
"jR c #525951",
"lR c #C3BCBB",
"vR c #7CA198",
"bR c #4E5046",
"mR c #BDB5B5",
"MR c #4F3F3B",
"NR c #51594F",
"VR c #7EACA3",
"ZR c #918582",
"DR c #706261",
"HR c #728B83",
"LR c #919494",
"YR c #739287",
"TR c #7BACA5",
"RR c #79948E",
"UE c #E2DFDE",
"ER c #40392E",
"WR c #6D5F58",
"QR c #968D8D",
"!R c #B7ADAD",
"^R c #494F47",
"/R c #759F95",
"(R c #76AFA4",
")R c #58655E",
"{R c #46362C",
".E c #A19896",
"oE c #769B8F",
"OE c #4A4940",
"$E c #594740",
"&E c #637A6F",
"=E c #9D9191",
";E c #3C372E",
">E c #7CACA5",
"5E c #74968A",
"6E c #3F3B2F",
"7E c #64524F",
"8E c #D6D0D0",
"wE c #49524B",
"uE c #423129",
"iE c #5E6F67",
"gE c #47352B",
"jE c #7DAAA3",
"kE c #79A096",
"bE c #4E4F47",
"nE c #76B0A5",
"mE c #7FB0A2",
"CE c #D5CFCE",
"DE c #719084",
"KE c #76B0A4",
"LE c #80B1A2",
"RE c #475B52",
"EE c #7EA59D",
"QE c #5D7465",
"!E c #9B9392",
"^E c #A69A9A",
"/E c #433227",
"|W c #514039",
"(E c #6E8175",
")E c #7CAD9F",
"_E c #77ABA4",
"]E c #4D3E36",
"[E c #C2BCBA",
"{E c #D1CDCC",
"|E c #6E655D",
".W c #769189",
"OW c #79A394",
"@W c #4B3C31",
"#W c #BEB9B7",
"$W c #BEB5B4",
"&W c #5A6156",
"*W c #7CA697",
"=W c #70887F",
":W c #D4CFCE",
">W c #A59E9A",
"2W c #7CADA5",
"3W c #79ADA6",
"5W c #3F392C",
"6W c #D6D4D3",
"8W c #65504B",
"0W c #7BABA1",
"tW c #776963",
"iW c #7D9E95",
"pW c #7FAAA3",
"aW c #7DAB9E",
"dW c #45362D",
"fW c #A39694",
"hW c #505246",
"xW c #575F56",
"bW c #6E5E57",
"nW c #413426",
"MW c #6C827A",
"NW c #7B9D92",
"BW c #80A99E",
"DW c #D4CFCD",
"JW c #62786B",
"LW c #79A59C",
"PW c #64796F",
"IW c #46493F",
"UW c #463730",
"YW c #7E706D",
"WW c #504F45",
"!W c #565F59",
"~W c #45382A",
"/W c #D7D2D2",
"_W c #5A4C44",
"]W c #535C52",
"{W c #545C52",
" Q c #8D8281",
"oQ c #A39B9A",
"@Q c #4C3C35",
"&Q c #C7C3C3",
"*Q c #D4D1D1",
"=Q c #B9B1B0",
"-Q c #958A87",
";Q c #695B56",
",Q c #513D36",
"<Q c #6F5F5B",
"2Q c #B0A5A4",
/* pixels */
"                                                                                                                                                                                                                                                    . X o O + @ # $ %                                                                                                                                                                                                                                                     ",
"                                                                                                                                                                                                                                                & * = - ; : > , < 1 2 3                                                                                                                                                                                                                                                   ",
"                                                                                                                                                                                                                                              4 5 6 7 8 9 0 q w e r t y u                                                                                                                                                                                                                                                 ",
"                                                                                                                                                                                                                                            i p a s d f g h j k l z x c v b                                                                                                                                                                                                                                               ",
"                                                                                                                                                                                                                                            n m M N B V C Z A S D F G H J K                                                                                                                                                                                                                                               ",
"                                                                                                                                                                                                                                            L P I U Y T R E W W Q ! ~ ^ / (                                                                                                                                                                                                                                               ",
"                                                                                                                                                                                                                                          ) _ ` ' ] [ { } | W  .} ..X.o.O.+.@.                                                                                                                                                                                                                                            ",
"                                                                                                                                                                                                                                          #.$.%.&.*.=.-.;.:. .>.E ,.<.1.2.3.#.                                                                                                                                                                                                                                            ",
"                                                                                                                                                                                                                                          4.5.6.7.8.9.0.Q q.R w.E R e.r.t.y.u.                                                                                                                                                                                                                                            ",
"                                                                                                                                                                                                                                          i.p.2.a.s.d.f.} g...R R T h.j.k.l.z.                                                                                                                                                                                                                                            ",
"                                                                                                                                                                                                                                          x.c.v.b.f.n.f.} q.m.M.R N.B.V.C.Z.A.                                                                                                                                                                                                                                            ",
"                                                                                                                                                                                                                                          S.D.F.G.H.J.:.K.K.L.M.P.I.U.Y.T.R.E.                                                                                                                                                                                                                                            ",
"                                                                                                                                                                                                                                          W.Q.!.~.^./.(.K.)._._.`.'.].Y.[.{.}.                                                                                                                                                                                                                                            ",
"                                                                                                                                                                                                                                          |. X.XXXoXOX+X)._.@X#X$X%X&X*X=X-X;X                                                                                                                                                                                                                                            ",
"                                                                                                                                                                                                                                          W.:X>X,X*.<X+X_._.@X1X2X3X4X5X6X7X8X                                                                                                                                                                                                                                            ",
"                                                                                                                                                                                                                                          #.9X0XqXwX<XL._._.eX1X2XrX4XtXyXuXiX                                                                                                                                                                                                                                            ",
"                                                                                                                                                                                                                                          pXaXsXdXq.<XfXgX_.#XhXjXkXlXzXxXcXvX                                                                                                                                                                                                                                            ",
"                                                                                                                                                                                                                                          bXnXmXMXQ <XNXM.M._.BXhXeXlXVXCXZXAX                                                                                                                                                                                                                                            ",
"                                                                                                                                                                                                                                          SXDXFXGXQ <XNXM.M.M.M.BXeXHXJX, KXLX                                                                                                                                                                                                                                            ",
"                                                                                                                                                                                                                                          4.PXIXUX:.YXNXgXL.M.M.M._.TXRXEXPXi.                                                                                                                                                                                                                                            ",
"                                                                                                                                                                                                                                          4.WXQX!Xf.~X^XNXL.gXgXM./X(X)X_X`X'X                                                                                                                                                                                                                                            ",
"                                                                                                                                                                                                                                          ]X$.[X{Xn.~X-.fXfXfX}XgX/X|X o.oXoW.                                                                                                                                                                                                                                            ",
"                                                                                                                                                                                                                                          E.ooOo+o@o#ofX$o$o$o}X$X%o&o*o=o-oW.                                                                                                                                                                                                                                            ",
"                                                                                                                                                                                                                                          ;o:o>o,o{ <o+X1o2o3o#X2X/X4o5o, 6o7o                                                                                                                                                                                                                                            ",
"                                                                                                                                                                                                                                          E.8o9o0ogX<o1o@X3o3o1X2XrX|Xqowoeo]X                                                                                                                                                                                                                                            ",
"                                                                                                                                                                                                                                          rotoyoUXuoio}X@X1o3o#XporXTXaosoDXSX                                                                                                                                                                                                                                            ",
"                                                                                                                                                                                                                                          S.dofogohojoL.1o1o3o/XrXrX4okolozoSX                                                                                                                                                                                                                                            ",
"                                                                                                                                                                                                                                          ]XxocovobojoL.1o1o3o/X%Xno4omoMoNo#.                                                                                                                                                                                                                                            ",
"                                                                                                                                                                                                                                          BoVofoCoI.ZoNXL.1oAo$onoZo4oSoDoFoE.                                                                                                                                                                                                                                            ",
"                                                                                                                                                                                                                                          SXGoHoJoT ioNXL.1oAoKoZoZoLoPoIoUoYo                                                                                                                                                                                                                                            ",
"                                                                                                                                                                                                                                          ToRoEoWouo<ofXgXfXKoKoQoQo!o~o^o/o#.                                                                                                                                                                                                                                            ",
"                                                                                                                                                                                u (o)o_o`o'o]o[o{ou.                                      SX}o|o O%X<o(.fX.O.OjoXOoOOO~o+O@OYo                                      #O$O)o%O&O*O=O-O;O:O                                                                                                                                                                                  ",
"                                                                                                                                                                              >O,O<O1O2O3O4O5O6O7O8O9O0O                                  SXqOwOeOrOtO<XYXyOyOyOuOiOpOaOsO6o7o                                  >OdOfOgOhOjOkOlOzOxOcOvObO                                                                                                                                                                                ",
"                                                                                                                                                                            #OnOmOMONOBOVOCOZOAOSODOFOGOHOJOKOJOYo7oLOPOPOE.W.IOpXi.pXUOYO#.TOROEOWOQO3o(.AoL.#Xpo/X!O~O^O/OYon n E.POPO(O  (O)O4._OA.#O4.KO) `O'O]O[O{O}O|O +.+X+o+O+++@+#+                                                                                                                                                                              ",
"                                                                                                                                                                            $+%+s &+*+=+-+;+:+>+,+<+1+2+3+4+5+6+6+7+8+9+0+q+# w+e+r+r+t+y+u+i+p+a+s+d+f+g+h+j+k+l+z+gox+c+v+b+n+n+w+m+M+M+N+B+V+7+C+Z+A+S+e+D+u+F+.oG+H+J+K+L+P+I+-+U+Y+T+R+                                                                                                                                                                              ",
"                                                                                                                                                                            E+W+Q+!+~+^+/+(+)+_+`+'+]+[+{+}+|+ @ @.@X@o@O@+@@@#@$@%@&@*@=@-@;@:@>@,@<@1@2@3@4@5@6@7@8@9@0@q@w@e@r@t@y@u@i@p@a@s@d@f@g@h@j@k@l@z@x@c@v@b@n@m@M@N@B@V@C@Z@A@S@                                                                                                                                                                              ",
"                                                                                                                                                                          D@F@G@H@J@K@L@L@L@L@P@I@U@Y@T@R@E@W@Q@!@~@^@/@(@)@_@`@'@]@[@{@}@|@ #.#X#o#O#+#@###$#%#&#*#=#-#;#:#>#,#<#1#2#3#4#5#6#7#8#9#0#q#w#e#r#t#y#u#i#p#a#s#d#f#f#g#h#j#k#l#z#                                                                                                                                                                            ",
"                                                                                                                                                                          >Ox#c#v#Z hojX#X2Xb#n#m#M###N#B#V#C#Z#A#S#D#F#G#H#J#H#K#L#P#I#U#I#Y#T#R#E#W#Q#!#~#^#^#/#(#)#)#_#L#`#'#]#[#{#J@!O}#|#!O $.$)#Q#/#X$o$O$+$@$#$$$%$&$*$QOQOrXgX=$-$;$:$                                                                                                                                                                            ",
"                                                                                                                                                                        >$,$<$1$2$b#3X}X_.M.po%o3$4$5$6$7$(.fXL.}XL.3o}X}X/X8$%XrXhopojX9$9$d#0$q$q$w$rXno}X#X_.M.gXfXfX8$e$Zor$t$y$s#s#u$y$y$y$i$#XjX2X$X$Xp$a$s$d$f$g$h$j$k$i$jX/Xl$z$x$c$v$b$                                                                                                                                                                          ",
"                                                                                                                                                                        n$m$M$N$B$/XV$Zo8$NXgX[ C$Z$A$S$D$F$q.q.m._.L.}X8$/X/XL._.po0$i$q$1Xi$i$u$eXi$rX}X}X@X@X_.L.L.@X#X8$rX/XjX1Xq$q$1X9$1X1X#Xi$d#d#rXw$n#G$H$T.J$K$L$j$P$eXBXuoI$U$Y$T$R$E$                                                                                                                                                                          ",
"                                                                                                                                                                        W$Q$!$~$^$T gXV$I${ -.=./$($)$_$HX`$R w.m.L.L.$o'$8$3o3o1o3okXkXi$i$i$rXi$u$u$u$#X#X@XeX}XL._.@X@X3okXkX#X1X1X1X1X1X1Xd#i$i$i$q$q$]$9$[${$}$|$ %k$.%P$_.P.N.X%o%O%+%@%#%                                                                                                                                                                          ",
"                                                                                                                                                                        $%%%&%*%=%R w.-%X%;%:%-.>%,%<%1%-%E w.[ l$fX$o$oKo2o}X}X}X}XrX0$kXk$k$rXkXi$u$#X#X}X#X#X/X}X#Xpopopo}XkXkXeXu$u$q$d#i$rXk$2%u$u$u$9$9$3%4%5%6%7%8%u$kX/XP.9%rO0%q%w%e%r%                                                                                                                                                                          ",
"                                                                                                                                                                      t%y%u%i%p%$Xuow.[ a%l$:%+Xs%d%f%g%NXm.(..O^XfX$o$or$3o#X#X/X/X}XkX3o.%kXnokXkXkXkX/X/X}X}X/X8$nokXkX0$kXkX3o.%.%kXu$u$u$.%.%u$u$w$k$w$i$kXh%j%k%l%z%w$#X/XT ,.%X.Ox%c%v%b%t%                                                                                                                                                                        ",
"                                                                                                                                                                      n%m%M%N%B%V%{ [ [ [ ^XZoC%Z%A%S%D%@ofX:%F%fX1o}Xr$r$}X3oG%3o3okX.%t$t$kXe$e$2%u$.%}X}X3o3ononor$.%t$.%kXi$eXu$.%.%.%t$H%J%]$]$q$K%w$L%e$P%Z I%U%Y%T%K%jXpo%oT V$tOR%E%W%Q%!%                                                                                                                                                                        ",
"                                                                                                                                                                      ~%^%/%+o(%ZoNXuow.E [ )%_%`%'%]%[%{%l$.O.O$o$okXrXrXrXP$}%}%|% &r$P$.%e$m#.&k$2%2%kXnor$kXkXnoZoL$L$L$k$rXrXrXkXj$L$X&X&o&y$O&+&K%K%w$@&#&m#$&%&&&*&=&9$eX}X/XV%-&;&:&>&,&~%                                                                                                                                                                        ",
"                                                                                                                                                                      * <&1&2&3&8$gX,.4&4&5&6&7&8&9&0&q&w&e&l$8$nor$norXrXrXa#t$r&r&3okX}Xu$rX.&t&y&u&s#$or$r$P$$o'$i&h$h$2%k$w$QOQOw$k$p&p&h$a&s#s#s&+&O&+&w$d&f&g&h&j&k&l&z&h$j$rXm#x&&$c&v&b&n&                                                                                                                                                                        ",
"                                                                  m&M&N&B&K V&V&C&Z&C&C&z.A&S&D&F&G&% H&J&K&L&P&I&U&Y&T&R&E&W&E&Y&V&Q&n !&~&vOD&^&/&(&C&)&_&_&C&_&E&`&'&]&[&{&}&|& *.*X*o*O*+*@*#*$*%*&*g%**=*-*;*:*>*,*<*1*2*3*4*5*6*7*8*9*0*q*w*e*r*t*y*u*i*p*a*s*d*f*g*h*j*k*l*t*z*x*w*c*v*b*n*m*M*N*1*B*V*C*Z*A*S*D*F*G*H*A#2*J*K*L*P*I*U*Y*T*R*U&E*W*Q*!*~*^*/*(*)*)*R&b$^*:$R&_*/*>O7o`*'*]*)*[*)*{*}*z#b |*R*t% ='*.=!&X=F&]*o=O=.=r%+=C&@=#=$=                                                                    ",
"                                                                  P&%=&=*===-=;=:=>=,=<=1=2=3=4=5=6=7=8=9=7=0=q=w=e=r=w=t=y=u=i=p=a=s=d=f=g=h=j=k=l=z=3=x=c=v=b=b=n=m=M=N=B=V=C=Z=A=S=D=S=F=G=H=J=K=L=P=I=U=Y=T=R=E=W=Q=!=9&~=^=/=(=)=_=L=`='=]=[={=}=|= -.-X-o-O-+-@-#-$-%-&-*-=---;-:->-,-<-1-2-3-4-5-6-7-8-9-0-q-w-e-r-t-y-u-i-p-a-s-d-f-g-h-j-k-l-z-x-k-c-v-b-b-n-m-M-N-B-V-C-Z-A-V-M-B-t=S-D-F-C-G-H-J-B-K-L-P-I-U-Y-T-R-E-W-Q-!-~-^-,&/-(-)-_-`-                                                                    ",
"                                                                '-]-[-,@{-}-|- ;.;X;o;O;+;@;#;$;%;&;*;=;-;;;:;>;,;<;1;2;3;4;5;6;7;4;8;9;0;q;w;e;r;t;y;u;i;p;a;s;d;f;g;h;h;j;k;l;z;x;c;v;b;n;m;M;N;B;V;C;-;Z;A;S;D;F;G;F;H;J;K;L;P;I;U;Y;T;R;E;W;Q;!;~;^;/;(;);v;.;.;_;`;';];[;{;};|; :.:X:Q;V;o:O:+:@:#:$:%:&:*:=:-:;:::>:,:<:1:2:3:4:5:6:7:8:9:p;0:s;q:w:e:r:t:y:u:i:p:a:s:d:f:g:h:h:j:k:l:z:x:c:v:b:n:m:a;0:M:N:B:V:C:Z:A:S:D:F:G::;H:J:K:L:P:I:U:Y:T:                                                                  ",
"                                                                t%R:E:W:Q:!:~:^:/:(:):_:`:':]:[:{:}:|: >.>X>o>O>+>@>#>$>%>&>*>=>->^:|:;>:>>>->,>+><>1>2>3>4>5>6>7>8>9>0>q>w>e>r>t>y>u>i>p>a>s>d>f>g>h>j>$>k>l>):z>x>c>v>b>n>m>M>N>B>V>C>Z>A>S>D>F>G>H>J>K>L>P>I>U>Y>T>R>E>W>Q>!>~>^>/>(>)>_>`>'>*>]>[>{>}>d>|> ,.,X,o,O,+,R>@,#,$,%,&,*,=,-,;,:,>,,,<,1,2,3,4,5,6,7,8,9,7,0,q,w,e,q>r,t,y,u,i,p,a,s,d,f,g,h,j,k,l,z,x,c,v,b,n,m,p,M,N,B,V,C,Z,A,S,D,F,@=                                                                  ",
"                                                                #.G,H,J,K,L,P,I,I,U,I,Y,T,R,R,T,E,T,W,Q,!,E,~,^,E,/,/,/,/,T,E,Q,T,T,^,Q,(,Q,E,),T,),),),W,_,E,/,`,~,',',),],[,{,},|,|, <.<P,X<P,o<O<[,O<o<+<@<P,#<P, <L,P,.<o<o<$<+<`,`,~,%<&<&<*<=<-<],;<},X<},},:<><,<<<<<U,1<I,I,#<Y,2<3<4<I,I,I,I,[,P,X<}, <5<P,6< <@<@<P,+<7<8<7< </,[,9<O<#<P,;<},0<X<P,T,~,^,!,q<w<e<e<r<t<y<_,_,_,),y<P,u<U,U,[,:<#<Y,U,i<U,:<:<p<Y,Y,Y,},T,T,~,a<s<s<d<f<g<h<~&                                                                  ",
"                                                                j<k<l<z<x<c<v<b<b<b<n<m<m<M<N<N<M<M<M<M<M<M<L,M<B<M<M<V<V<C<B<M<M<M<N<B<B<B<B<B<M<M<R,B<Z<A<Z<B<L,M<N<N<M<M<N<m<S<D<S<m<F<G<H<b<b<m<m<9<J<F<m<H<H<b<m<S<m<n<m<b<K<J<L<L<M<M<M<C<L,c<9<P<P<b<G<G<b<m<m<b<I<U<Y<H<D<T<D<S<n<b<n<G<n<n<m<m<n<m<m<c<c<m<D<M<S<S<R<B<L,c<m<E<R<M<W<L,M<E<T<E<E<Q<Q<!<Z<Z<!<Q<E,B<Q<R,L,R,R,B<L,L,L<L<m<b<m<T<T<T<m<m<Y<b<Y<Y<Y<Y<T<E<S<M<B<E<B<R,~<^</<(<)<_<                                                                  ",
"                                                                T&`<'<]<[<c<M<B<S<S<n<S<S<S<N<S<M<M<M<M<M<c<m<m<M<M<c<L,M<B<B<c<M<M<B<B<M<M<S<M<M<M<M<M<S<S<M<M<M<S<S<S<c<N<N<N<N<N<N<M<M<M<S<N<N<S<M<M<m<S<S<D<D<D<S<S<S<S<S<n<v<v<v<n<M<M<c<C<B<M<M<m<n<n<S<S<M<M<M<M<m<m<S<S<S<S<S<S<S<S<S<S<S<S<N<N<B<M<S<N<N<N<N<N<{<N<N<N<N<N<N<R<}<Q<M<M<M<M<m<M<S<S<B<N<N<S<S<M<M<M<M<B<M<B<B<B<M<M<m<m<M<T<E<D<S<S<S<M<M<m<S<T<T<H<E<D<S<B<N<S<c<|<|< 1.1X1o1O1                                                                  ",
"                                                                #=+1@1#1$1B<N<N<S<S<S<S<n<S<S<S<S<M<S<S<S<S<n<n<S<M<c<M<M<B<B<c<S<S<N<N<S<S<S<S<S<M<S<S<S<S<S<S<S<N<N<S<{<N<N<N<N<N<N<N<N<B<S<N<N<N<S<S<S<S<S<N<S<S<S<S<S<S<S<S<{<S<n<S<S<S<S<c<S<M<S<M<M<S<S<N<B<N<S<S<M<M<S<S<S<S<S<S<S<S<S<S<S<N<N<%1%1N<N<N<N<N<N<N<%1N<N<N<N<R<N<N<N<R<N<R<R<S<n<S<S<S<S<S<S<S<S<S<S<S<S<B<N<R<R<N<M<m<m<S<S<M<S<S<S<S<S<D<D<D<S<m<m<n<n<n<S<S<N<S<c<c<c<&1*1[+=1-1                                                                  ",
"                                                                t%;1:1>1,1C<N<N<N<N<S<S<S<S<N<N<S<M<S<N<N<N<S<S<S<c<M<S<S<N<N<N<N<N<N<N<N<S<N<N<N<N<}<}<A<N<N<N<N<N<N<N<N<N<A<N<N<S<N<A<}<N<N<N<N<N<S<S<S<S<S<N<S<S<S<S<S<S<S<S<N<N<N<N<N<N<S<S<S<S<S<M<M<N<N<N<N<S<S<S<S<S<S<N<N<N<S<S<S<N<N<N<%1N<N<N<N<N<N<N<A<N<N<N<A<N<N<N<N<N<N<N<N<R<R<}<N<M<m<S<S<S<S<N<R<N<N<N<N<N<N<B<N<R<R<S<n<m<n<S<M<S<S<N<N<N<N<S<S<S<S<n<n<n<n<n<n<n<S<S<S<N<C<<1112131C&                                                                  ",
"                                                                3 41516171c<N<S<S<S<S<N<N<S<S<S<S<S<M<M<S<N<N<S<M<{<c<M<M<M<S<N<N<N<S<S<S<S<S<S<N<N<}<}<N<N<S<S<S<S<S<N<N<N<N<{<{<{<S<S<S<S<S<S<S<S<S<S<M<M<S<S<S<S<S<S<S<S<S<S<S<N<A<N<S<S<S<n<S<m<M<M<N<N<S<S<S<c<M<M<M<M<N<N<M<S<S<S<S<S<N<N<N<N<N<N<N<N<N<S<N<N<N<N<N<S<{<{<S<S<S<S<R<N<M<S<S<M<m<n<n<S<S<S<S<S<N<N<N<S<S<S<N<B<M<S<S<n<n<m<m<M<M<M<S<S<S<n<m<n<S<S<S<S<n<n<n<S<S<S<N<N<A<819101q1%                                                                   ",
"                                                                w1e1r1t1y1M<S<S<S<S<S<N<N<S<{<{<S<N<S<S<S<N<N<N<S<M<N<N<S<S<S<N<N<N<S<S<N<S<S<S<S<S<A<N<c<c<N<N<N<S<S<N<N<S<{<{<N<N<S<u1S<S<N<N<{<S<S<S<S<n<n<S<N<S<S<S<S<S<S<S<S<N<A<N<S<S<S<S<S<n<S<N<N<N<S<{<S<B<N<S<S<N<N<N<v<c<N<N<S<{<{<N<A<N<N<%1N<N<N<{<{<N<N<N<{<{<B<N<S<S<m<N<}<N<v<M<N<N<S<S<S<S<S<S<{<S<N<N<N<M<M<N<N<N<M<M<N<N<N<S<M<N<N<S<S<S<S<S<S<S<S<N<N<S<S<S<S<S<N<N<N<S<i1p1a1,@s1d1                                                                  ",
"                                                                }*f1g1h1j1m<S<N<S<S<S<N<N<S<S<S<N<N<N<S<S<S<S<S<S<S<N<N<N<N<S<N<N<N<N<N<N<N<N<S<S<S<N<N<S<N<N<N<N<N<S<N<S<N<S<S<N<N<N<S<S<N<N<N<N<S<N<N<N<S<S<S<S<S<S<N<N<N<N<N<S<S<S<S<S<N<N<N<}<S<S<S<S<S<S<N<N<N<N<N<S<S<N<N<S<S<N<N<N<S<{<S<S<S<S<N<N<N<N<N<S<N<N<S<S<S<N<N<R<N<M<S<N<N<S<S<N<N<N<N<N<S<S<S<S<S<N<N<N<N<N<N<N<N<N<N<N<N<N<N<S<S<S<S<S<S<N<N<N<S<S<S<S<N<S<S<N<S<N<N<N<S<Z<k1l1z1x1c1                                                                  ",
"                                                                v1b1n1m1M1b<n<S<S<S<S<S<S<N<N<N<S<S<N<N<S<S<S<S<S<N<S<S<N<N<N<S<S<S<N<N<N<N<N<N<N<S<S<N<N<N<S<S<N<N<N<S<S<N<N<N<S<N<N<N<S<S<S<N<N<S<S<S<N<N<S<S<S<S<N<N<N<N<N<N<S<M<S<S<N<N<S<N<N<N<S<S<S<S<N<N<N<N<N<N<S<S<S<N<N<N<S<S<N<N<S<S<S<S<N<N<N<N<N<N<N<S<S<S<N<N<N<N<N<N<S<M<S<N<N<N<M<S<N<N<N<S<S<S<N<N<N<N<N<N<N<N<S<N<N<N<N<N<N<N<N<S<S<S<N<N<N<N<N<N<S<S<S<S<S<S<N<S<N<N<N<N<N1B1V1C1s1Z1                                                                  ",
"                                                                A1S1D1F1G1P<b<n<S<S<S<N<S<N<N<N<S<S<N<N<S<S<S<S<N<N<N<S<S<N<N<S<S<N<N<N<N<S<N<N<N<N<N<N<N<N<N<S<N<N<N<N<N<N<N<S<S<S<S<S<N<N<S<S<S<S<S<S<S<N<S<S<S<S<N<N<N<N<N<N<N<N<S<N<N<N<S<N<N<N<N<N<S<S<N<N<N<S<N<N<N<N<S<N<N<N<N<S<N<N<N<N<N<N<N<N<N<N<N<N<N<N<S<N<N<N<N<N<N<N<N<N<S<N<N<A<N<N<N<N<N<N<S<N<N<N<N<N<N<N<N<N<N<N<N<N<N<N<N<N<N<N<S<S<N<N<N<S<S<N<N<N<S<N<N<N<N<S<N<N<N<N<Z<B1H1OoJ1K1                                                                  ",
"                                                                t%Y:L1P1I1b<Y<S<S<S<S<N<S<S<S<S<S<S<S<S<S<S<S<S<S<S<N<N<S<S<S<S<S<N<S<S<N<S<S<S<S<N<N<N<S<S<N<N<N<S<S<S<S<S<S<S<S<N<S<S<S<S<S<S<S<S<S<S<S<S<S<S<S<S<S<S<N<N<N<{<S<N<N<N<S<S<N<N<N<{<S<N<S<S<S<S<S<S<S<S<S<N<N<S<S<S<N<N<N<N<S<N<N<N<N<N<N<N<N<N<N<N<N<N<S<S<N<N<S<S<N<N<N<N<S<N<N<N<N<S<N<N<N<N<N<N<N<N<N<N<N<N<N<N<N<N<N<N<N<N<N<N<N<S<S<S<S<S<S<N<N<N<N<N<S<N<N<N<N<N<N<N<N1U1Y1T1R1E1                                                                  ",
"                                                                A1W1Q1!1~1b<H<D<S<S<S<S<S<S<S<S<S<S<S<S<S<S<S<S<S<S<N<N<S<S<S<S<N<N<S<S<N<N<N<S<S<N<N<N<{<S<N<N<N<S<S<N<N<S<S<S<N<N<N<S<S<S<S<N<S<S<S<N<S<{<{<S<N<S<S<S<S<N<N<{<S<N<N<S<S<S<N<N<S<{<{<N<N<S<S<S<N<N<S<S<S<N<N<N<S<S<N<N<N<S<S<N<N<N<N<N<N<N<N<S<S<N<N<N<S<S<N<N<S<S<S<N<N<S<S<S<N<N<N<N<N<N<N<N<N<N<N<N<N<N<N<N<N<N<N<N<N<N<N<N<N<N<N<N<N<S<S<N<S<N<N<N<N<N<N<N<N<N<N<S<%1%1B<^1/1(1)1A1                                                                  ",
"                                                                I&_1`1'1M1b<n<R<S<S<S<S<N<N<S<S<S<S<N<N<S<N<S<S<N<S<N<N<N<N<S<N<N<N<S<S<N<N<N<N<N<N<N<N<N<N<N<N<N<N<N<N<N<N<N<N<N<N<N<N<N<N<N<N<N<N<N<N<N<N<N<N<N<N<N<N<N<N<N<N<N<N<N<N<N<S<N<N<N<S<N<N<N<N<S<S<N<N<N<N<N<N<N<N<N<N<N<N<N<N<N<N<N<N<N<N<N<N<N<N<N<N<N<N<N<N<N<N<N<S<S<N<N<N<N<N<N<N<N<N<N<N<N<N<N<N<N<N<N<N<N<N<N<N<N<N<N<N<N<N<N<N<N<N<N<S<N<S<N<N<N<N<N<N<N<N<N<N<N<S<%1C<C<]1[1{1}1|1                                                                  ",
"                                                                 2.2X2'1o2O2m<N<N<N<S<S<S<N<N<N<S<N<N<N<N<N<N<N<N<N<N<N<N<N<N<N<S<N<N<N<S<N<N<N<N<N<N<N<N<N<N<N<N<N<N<N<N<N<N<N<N<N<N<N<N<N<N<N<N<N<N<N<N<A<N<N<N<N<N<N<N<N<N<N<N<N<N<N<N<N<S<S<N<N<N<N<N<N<N<N<S<N<N<N<N<N<N<N<N<N<N<N<N<N<N<N<N<N<N<N<N<N<N<N<N<N<N<N<N<N<S<N<N<N<N<S<N<N<N<N<N<N<N<N<N<N<N<N<N<N<N<N<N<N<N<N<N<N<N<N<N<N<N<N<N<N<N<N<N<N<N<N<N<N<N<N<N<N<N<N<N<N<N<%1%1C<C<+2@2#2$2_O                                                                  ",
"                                                                %2&2*2=2-2v<M<N<N<S<S<S<S<N<N<N<N<N<N<N<N<N<N<N<N<N<N<S<N<N<N<N<N<N<N<N<N<N<N<N<N<N<N<N<A<N<N<N<N<N<N<N<N<N<N<N<N<N<N<N<N<N<N<N<N<N<N<N<N<N<N<%1S<N<N<N<N<N<N<N<N<N<N<N<N<N<N<S<N<N<N<N<S<N<N<N<N<N<N<N<N<N<N<N<N<N<N<N<N<N<N<N<N<N<N<N<N<N<N<N<N<N<N<N<N<N<N<S<N<A<N<N<N<N<A<N<N<N<N<N<N<N<N<N<N<N<N<N<N<N<N<N<N<N<A<A<N<N<N<N<N<N<N<N<N<N<N<N<N<N<N<N<N<N<N<N<N<N<N<N<%1C<C<;2:2>2,2<2                                                                  ",
"                                                                 2.21222B1L,M<N<S<v<M<N<S<S<S<S<S<N<N<S<N<N<N<N<S<S<S<N<N<S<S<N<N<N<S<N<N<N<N<S<N<N<N<N<S<N<N<N<N<N<N<N<N<N<N<N<N<N<N<N<N<N<N<N<N<N<N<N<N<N<N<N<N<N<N<N<N<N<N<S<N<N<N<N<S<N<N<N<S<S<S<N<N<N<S<N<N<N<N<N<N<N<N<N<N<N<N<N<N<S<N<N<N<N<S<N<N<N<N<S<N<N<N<N<S<N<N<N<S<S<N<N<N<N<N<N<N<N<N<N<N<N<N<N<N<N<N<N<N<N<N<N<N<N<N<N<N<N<N<N<N<N<N<N<N<N<S<S<S<S<N<N<N<N<S<N<N<N<N<%1C<C<N13242Oo52d1                                                                  ",
"                                                                6272829202L,B<A<S<S<M<R<A<S<S<S<N<N<S<S<M<N<N<N<M<M<N<N<N<S<M<N<}<N<S<M<N<N<N<S<M<N<N<N<S<N<N<N<N<N<N<N<N<N<N<N<N<N<S<N<{<S<S<N<N<N<N<S<N<S<N<N<N<N<N<N<N<N<N<S<S<N<N<N<S<S<N<N<S<S<S<N<N<S<S<N<N<N<N<S<S<N<N<N<S<S<N<N<N<S<S<N<A<N<c<M<N<N<N<S<S<N<N<N<S<M<N<N<S<S<S<N<}<N<S<N<N<A<N<S<B<N<A<N<M<B<N<N<N<N<B<N<A<N<N<N<N<N<N<N<B<N<A<N<S<S<N<N<S<S<S<S<N<N<S<N<N<%1N<N<C<C<N1d<q2w2e2r2                                                                  ",
"                                                                !&t2y2u2i2V<B<N<N<S<S<N<N<N<N<N<N<N<N<S<M<B<N<N<N<N<N<R<R<S<N<N<R<N<N<N<N<R<N<N<N<N<N<N<N<N<N<N<N<N<N<N<N<N<N<N<N<S<N<N<S<S<R<R<N<N<N<N<N<S<S<N<N<N<N<N<N<N<N<S<S<N<N<N<N<N<N<N<N<N<N<N<N<N<N<N<A<N<N<S<S<N<N<N<N<N<N<A<A<N<N<N<R<N<N<N<N<N<N<N<N<N<N<N<N<N<N<N<N<S<N<N<R<N<N<N<N<N<N<N<S<N<N<N<N<N<A<N<N<N<S<N<N<A<N<N<A<A<A<N<N<N<N<N<N<S<N<N<N<S<S<N<S<N<S<N<N<{<N<N<%1N<B<p2a2s2d2f2                                                                  ",
"                                                                w1g2h2j2k2L<M<S<S<S<S<S<S<N<N<N<S<S<N<R<N<M<M<N<}<R<S<M<R<N<N<M<M<N<N<N<N<S<N<N<N<S<S<N<N<N<S<N<N<N<N<S<S<S<S<N<N<N<N<R<S<R<R<R<S<S<N<R<N<N<N<N<S<N<N<N<N<N<N<N<N<S<S<N<N<N<S<S<N<N<N<S<S<N<N<N<N<S<N<N<N<S<S<N<A<A<N<N<N<N<N<M<S<R<}<A<N<N<N<N<N<S<S<N<N<N<M<N<N<}<N<S<S<N<N<N<N<S<N<}<N<M<M<N<A<A<N<S<N<N<N<S<N<N<}<A<N<N<N<N<N<S<S<N<N<N<S<N<N<N<S<S<S<N<N<S<{<c<N<A<N<c<N1l2z2x2c2v2                                                                  ",
"                                                                t%f1H,b2n2c<M<S<S<S<S<S<S<N<N<N<S<M<N<R<R<S<m<M<R<R<M<m<S<S<S<S<m<S<R<R<S<v<S<N<N<S<M<S<N<N<S<S<N<N<N<S<S<S<S<N<N<S<R<D<m<S<R<D<m<M<R<R<S<N<N<S<S<S<N<S<S<S<N<}<N<S<M<N<N<N<S<M<S<S<S<S<M<S<N<M<M<M<S<N<N<S<S<S<N<S<M<c<S<B<M<M<c<N<A<A<S<M<N<N<N<S<M<N<R<N<S<M<N<}<N<S<M<N<N<N<N<M<N<}<N<S<M<M<N<N<M<M<N<N<N<S<M<S<R<N<S<M<N<N<N<S<M<S<R<N<S<S<S<N<N<S<S<S<S<S<{<{<N<A<{<c<B<m2M2N2B2|1                                                                  ",
"                                                                O1V2C2Z2A2B<M<S<n<S<N<N<S<M<M<S<S<N<M<M<M<S<S<M<m<S<S<R<M<M<S<R<R<M<M<S<N<N<M<M<N<N<N<M<M<S<S<N<N<M<}<N<N<}<N<N<A<N<}<S<m<m<D<D<m<m<M<M<M<B<N<N<N<N<M<N<N<N<M<c<S<S<N<S<M<S<N<R<S<M<S<R<N<S<S<S<N<N<M<M<S<N<N<S<M<S<N<N<M<c<B<N<N<M<c<S<S<N<M<M<S<N<R<M<M<N<N<N<M<M<S<N<R<N<M<S<N<N<S<M<N<R<R<M<M<S<S<R<M<M<S<R<N<M<M<S<N<N<M<M<S<S<N<M<M<S<S<S<S<M<S<S<S<N<M<S<N<N<N<N<c<c<B<S2D2F2G2|1                                                                  ",
"                                                                K&V2X2H2J2N1M<S<S<S<S<N<N<m<v<M<N<}<M<m<M<S<}<D<m<m<N<}<S<m<m<R<}<N<m<M<N<R<N<M<M<N<N<S<M<M<N<}<N<v<N<}<}<}<N<c<N<S<}<R<v<b<T<T<I,Y<b<@<L,B<}<}<N<S<S<S<N<N<{<v<S<N<}<N<c<M<R<}<N<m<M<R<}<S<M<c<N<}<N<M<M<N<}<N<M<N<}<N<B<M<M<N<}<N<c<M<N<}<N<c<c<R<}<S<v<M<R<}<N<v<c<R<}<N<v<M<N<}<N<v<M<}<}<N<m<M<N<}<S<m<M<R<}<N<c<M<N<}<N<v<c<N<}<S<m<m<D<R<S<m<S<R<}<N<v<c<N<N<N<S<c<c<M<S2K2F2L2K                                                                   ",
"                                                                P2I2U2Y2T2Z<B<{<S<N<S<N<N<N<S<S<M<R<N<S<N<B<R<R<M<M<M<R<R<M<M<M<R<R<S<M<N<R<N<N<N<N<N<N<N<N<N<N<N<c<M<M<N<}<S<v<c<{<R2}<n<b<E2W2Q2!2@<@<O2B<}<}<R<S<N<N<N<N<N<S<N<N<N<R<N<M<M<S<N<S<S<M<R<R<N<M<M<N<N<N<S<N<R<N<S<N<A<N<N<N<N<N<A<A<N<B<N<N<}<N<M<M<N<N<S<S<B<N<R<M<M<N<N<N<M<M<B<N<R<S<S<B<R<R<M<M<B<N<N<S<S<N<R<R<N<N<N<N<N<S<S<N<R<R<S<S<N<R<R<S<S<N<R<N<c<c<N<S<N<N<B<c<B<~211^2/2Y&                                                                  ",
"                                                                bOW1(2)2_2i1C<{<S<N<S<S<S<R<}<N<M<M<R<}<}<M<M<R<}<R<S<M<R<}<R<M<M<R<}<R<S<S<R<}<N<M<M<N<}<N<M<S<A<N<N<c<v<S<S<N<}<}<}<`2'2]2[2{2}2|2 3~,L,L<M<R<R<R<R<N<S<S<N<A<N<v<M<R<}<N<M<M<R<R<R<m<S<R<}<N<S<S<R<}<N<S<S<N<N<A<A<B<N<R2A<N<B<A<A<A<S<N<N<}<N<M<S<R<}<R<M<M<N<}<N<M<M<R<}<N<M<M<N<}<R<M<M<R<}<R<M<M<R<}<R<M<M<R<}<}<M<M<R<}<N<M<S<R<R<N<S<S<R<R<R<N<S<N<N<A<N<{<S<N<B<c<M<.3X3o3G2O3                                                                  ",
"                                                                u e1+3@3#3N1B<%1S<N<S<S<S<R<}<N<S<M<S<R<R<M<m<M<R<R<S<m<Q<}<}<S<M<N<}<R<S<M<N<R<N<S<M<N<N<S<M<S<N<N<}<N<S<S<S<}<$3R2B<D<%3&3*3=3-3;3:3>3W,L<9<m<E<D<S<M<S<c<S<N<S<M<M<N<}<N<S<M<N<}<R<S<M<N<}<N<S<M<N<N<N<M<M<M<B<A<A<c<c<A<N<B<C<B<B<M<M<c<M<N<N<S<M<S<R<R<S<M<N<N<N<S<M<N<}<}<S<M<B<}<}<S<M<B<}<}<S<M<B<}<}<S<M<N<}<}<N<M<N<}<N<N<M<N<R<R<S<M<N<}<}<S<S<N<N<N<N<%1N<{<C<c<B<,3<31323@=                                                                  ",
"                                                                !%33435363C<Z<N<S<S<S<S<N<S<c<S<S<N<M<M<M<M<R<M<M<M<S<M<M<m<M<S<R<M<M<S<N<M<M<M<N<N<R<N<S<S<S<N<N<M<N<R<S<B<B<}<R2!<|,|,73839303q3w3e3r3E,T<4<I,D<D<m<S<S<S<M<M<S<N<R<N<M<S<S<N<B<M<S<N<N<M<M<S<N<N<M<c<S<N<A<N<M<N<N<B<B<B<N<A<A<N<N<N<N<N<M<M<N<N<N<M<M<M<S<N<S<M<N<N<N<B<M<N<N<N<M<M<N<N<R<N<M<N<N<N<M<M<S<N<R<B<M<S<N<N<M<M<M<N<R<B<M<S<N<N<M<m<S<S<N<S<c<N<N<N<N<{<C<C<C<,3t3y3u3E*                                                                  ",
"                                                                i3p3a3s3M1C<A<N<S<S<S<N<}<S<M<M<N<N<S<M<M<N<}<R<m<M<R<}<N<m<M<R<}<S<M<M<N<N<S<S<M<R<}<R<S<S<N<R<R<m<S<R<S<E<M<D<D<Q<^,d3f3g3h3j3k3l3z3x3c3Y,3<1<v3H<m<M<S<S<S<S<M<R<}<N<M<M<N<N<N<M<M<R<}<S<M<N<N<N<S<S<B<A<}<}<N<B<B<B<N<N<B<B<B<B<B<B<N<N<S<M<M<}<}<N<m<S<N<}<N<S<M<N<}<N<c<M<N<}<S<M<M<}<}<R<M<M<R<}<N<M<M<N<}<R<M<M<N<}<N<M<M<R<}<N<M<M<N<}<S<m<M<N<}<S<{<N<N<N<A<%1C<C<B<b3n3m3M3_<                                                                  ",
"                                                                u.b1N3B3M1V<B<N<S<S<S<R<R<N<N<N<N<R<N<S<M<M<R<R<S<N<R<R<R<S<M<N<R<R<S<N<N<R<R<S<S<N<R<R<N<S<S<R<}<m<S<D<E<E<T<L<I,Q,V3C3Z3A3S3D3F3G3H3J3K3p<L3P3I3'2H<n<S<S<S<S<S<S<N<N<S<S<N<N<N<S<S<N<R<N<N<N<N<N<N<S<N<N<N<A<N<B<B<N<}<}<B<B<A<N<B<S<N<S<S<N<S<N<R<}<R<N<N<R<N<N<S<N<R<N<S<N<N<}<R<S<M<B<R<R<N<B<N<R<R<S<M<N<R<R<N<N<N<R<R<N<M<N<R<R<S<S<N<R<N<S<N<N<N<N<S<N<N<N<A<%1C<C<B<l2U3l<Y3O1                                                                  ",
"                                                                I&T3R3E3W3m<B<S<S<S<S<S<R<R<}<N<S<S<N<R<N<m<S<R<R<R<M<S<R<R<N<m<S<S<N<N<S<N<R<N<N<S<S<R<N<N<S<N<R<S<S<S<E<Q3|,@<P,!3~3^3so/3(3)3_3`3'3]3[3]2{3L3U<}3H<H<D<S<S<N<S<v<S<N<N<N<S<S<N<N<N<S<S<N<N<N<{<c<S<S<A<N<M<M<M<B<N<}<}<R<B<}<R2}<N<N<S<S<S<R<N<M<S<R<}<R<S<S<}<}<N<M<S<N<N<N<S<S<N<N<B<m<M<R<}<N<M<S<R<R<N<M<S<R<A<N<M<N<R<R<R<M<M<N<N<N<S<N<N<N<N<M<S<S<N<N<N<N<A<N<N<N<Z<|3 4.4X4o4                                                                  ",
"                                                                O4+4@4#4$4L<B<S<S<S<n<S<S<S<N<S<S<m<S<R<N<m<m<M<R<R<M<m<S<R<N<M<M<S<N<N<S<M<S<N<S<S<S<S<S<R<N<S<N<N<M<M<E<Q3X<P,%4&4*4=4-4;4:4>4,4<41424a134E2L344Y<H<H<n<m<n<S<n<n<M<S<N<S<S<S<S<S<S<S<S<S<c<v<v<v<S<S<}<N<c<M<M<N<}<}<B<Q<E<R<}<B<M<M<M<O2m<M<M<m<M<S<S<S<M<M<N<R<S<S<M<S<N<N<S<M<M<N<N<M<m<M<R<R<S<M<M<R<N<M<M<N<R<R<S<M<N<R<R<S<M<S<N<N<S<M<S<N<N<S<m<S<N<}<N<N<N<A<A<B<B<d354647484                                                                  ",
"                                                                O4+19404q4m<Q<S<S<S<n<S<S<S<M<S<S<S<M<M<S<D<D<S<m<S<D<D<M<M<S<D<D<S<M<S<D<S<S<S<S<S<R<N<S<S<S<S<}<}<R<D<w4e4r4y<t4y4S;u4i4p4a4s4d4f4g4h4j4`>u<L3P3T<D<D<n<G<n<S<S<S<S<S<S<S<S<S<S<S<S<S<S<S<v<S<S<N<N<S<N<A<A<B<M<B<R<Q<Q<M<m<L<M<M<M<M<D<D<D<D<D<D<D<S<M<S<S<S<M<M<S<S<N<M<M<S<N<S<S<M<N<R<R<S<M<N<N<D<M<M<S<N<R<M<M<S<N<S<M<M<S<S<R<S<M<S<N<S<S<M<N<R<R<N<S<N<N<N<A<N<N<M<c<k4l4z4x4c4                                                                  ",
"                                                                !&v4@4b4n4m<S<S<S<S<S<R<R<S<S<M<N<R<S<m<m<D<R<R<m<M<R<}<S<m<M<R<}<S<m<M<N<N<S<M<S<R<}<R<S<S<S<M<B<R<D<E<w4m4M4N4B47;V4C4Z4)3)3a4s4A4S4D4F4G4H4U,Y<Y<w4D<D<S<n<n<n<N<N<S<S<S<S<N<S<S<S<S<R<S<u1S<N<S<N<u1v<M<B<Z<B<m<m<T,!,J4Q2:<I,T<T<E<E<Q<M<M<M<D<R<S<M<M<N<N<S<S<S<R<}<S<M<M<N<}<S<v<M<R<}<N<m<M<N<}<N<M<M<N<}<N<M<M<}<}<N<M<M<R<}<N<M<M<N<R<N<M<M<N<}<N<v<S<N<N<N<S<N<B<c<K4L4P4X4@=                                                                  ",
"                                                                I4U4Y4T4W3M<M<S<S<S<S<S<S<S<S<S<S<N<N<S<S<M<R<R<M<M<S<R<R<S<S<M<S<R<S<S<N<N<N<S<S<S<N<R<S<N<B<M<M<S<m<L<T<R4E4W4Q4!4~4^4/4a4)3a4s4d4(4)4_4`4'4]44<Y<D<D<D<n<n<S<S<S<N<S<S<S<S<S<N<S<S<S<S<S<u1S<S<S<N<S<v<v<c<}<R<O29<[4y>{4}4|4~1},E<E<E<L<L<M<m<M<D<S<S<S<S<M<N<N<N<N<N<N<N<M<S<N<N<S<S<M<N<R<M<M<B<}<R<S<M<B<R<R<S<M<N<N<}<N<S<N<R<N<S<M<S<N<N<S<S<N<S<N<c<S<N<S<%1c<N<B<S< 5.5X5o5V&                                                                  ",
"                                                                I&O5+5@5G1B<B<S<S<R<N<S<S<N<}<N<m<S<R<R<R<M<S<R<R<R<S<S<R<R<R<M<S<R<R<N<S<S<N<N<N<m<v<S<M<N<N<N<R<B<M<L<P,>3#5$5F4%5&5*5/4=5)3a4-5;5:5>5,5<51525E<Y<T<n<n<n<S<R<S<S<S<N<N<S<S<S<S<S<S<n<S<S<{<S<{<v<N<}<N<N<N<}<B<L,;<3545556575859505!<Q3E<M<Q<D<E<S<S<R<R<M<M<N<}<N<M<S<R<R<N<M<S<N<}<}<N<S<N<R<N<M<S<R<}<N<M<S<R<}<}<M<S<N<R<N<M<S<R<R<N<S<S<R<R<R<S<S<R<N<N<N<S<c<c<C<C<{<q5w5e5/2r5                                                                  ",
"                                                                t%G,12t5N4Z<N<N<S<N<S<S<S<N<}<R<S<M<S<R<R<S<m<S<R<R<S<M<M<R<N<S<M<N<R<N<S<{<S<N<}<N<S<N<B<B<N<N<}<B<L,L,',y5u5i5p5a5s5-5d5=5>4)3,4f5g5h5j5k5l5z5x5I,T<m<M<m<S<N<S<S<S<S<N<S<S<S<S<S<S<S<n<N<N<N<N<{<S<N<}<N<M<M<M<~,c5v5b5n5m5M5N511B5V5r4T<E<v3E<E<L,L<M<M<B<M<N<}<S<M<M<N<N<N<S<S<N<}<}<N<M<N<}<}<S<M<B<}<}<S<M<B<}<}<N<c<N<}<R<S<M<R<}<}<S<M<S<}<}<S<S<N<S<c<{<c<C<C<%1C<c<C5Z5A5S5c4                                                                  ",
"                                                                j<O5D5F5G5H5A<N<S<S<S<N<N<M<M<S<S<S<M<M<S<S<S<S<M<S<S<S<M<M<N<N<N<S<S<S<S<S<S<S<N<N<N<}<N<N<N<B<B<M<L,W,J5K5L5P5I5U5,4Y5T5=5R5>4>4E5E5:5W5Q5!5~5^5|,M<E<M<S<S<S<S<S<S<S<S<S<S<S<S<S<S<S<N<N<{<N<N<{<N<N<M<L,L<L</,/5(5)5_5`5'5]5[5{5}5|5p2O<4<I,I,E<E<T<M<D<N<N<M<M<M<B<B<B<M<N<N<S<M<M<N<N<N<N<M<N<N<S<M<M<N<N<N<M<M<N<N<N<M<M<N<N<N<B<M<N<N<S<M<S<N<S<N<N<c<{<{<%1%1%1C<C<c<;2 6.6X6o6                                                                  ",
"                                                                O6f1+6@6#6H5}<A<S<S<S<R<R<S<M<M<S<R<S<M<M<N<}<R<M<M<R<R<N<S<M<N<R<S<S<M<N<N<S<{<N<N<N<A<N<}<N<M<M<B<E,-2$6%6&6*6=6-6/4;6-5a4=5=5=5a4-5d4:6>6,6<61626[,T<D<D<D<n<m<S<N<S<S<S<S<S<S<S<S<N<N<N<{<{<N<{<N<N<V<J<b<Q<3646566676869606q6w6e6r6t6y6.<2<P3}3v3E<E<Q<R<N<M<M<M<R<}<R<S<S<N<}<N<S<S<N<}<R<M<M<N<}<N<M<M<N<}<N<M<M<N<}<N<M<M<R<}<N<M<M<N<N<N<S<S<N<}<N<{<c<N<N<A<%1C<c<M<l2u6i6p6d1                                                                  ",
"                                                                u.a6s6d6f6Q<R<N<S<S<n<S<S<S<S<S<S<R<R<N<M<S<R<R<N<N<N<R<R<S<S<S<R<N<N<N<N<N<N<{<N<N<N<}<N<}<N<M<M<T,g6h6j6k6l6z6;6-6-6a4a4E5a4/4a4a4-6-6x6c6v6b6n6m6},T<T<D<D<m<m<S<S<S<S<S<S<S<S<S<S<S<N<N<S<S<N<{<N<B<V<9<I,p2M6N6B6V6C6Z6A6S6D6F6G6H6J6K6L6]2i<P6Y,|,E<E<D<S<M<M<M<B<}<R<N<S<N<}<}<N<M<N<R<R<S<S<N<R<N<S<M<N<}<R<S<S<N<R<}<S<M<N<R<N<S<M<N<R<N<S<S<S<N<N<S<c<S<N<N<N<%1c<B<I6U6[Xo5@=                                                                  ",
"                                                                '-Y6T6R6E6L<M<S<D<S<S<m<n<S<R<R<m<M<N<R<N<M<S<D<R<R<S<S<R<R<S<S<S<N<N<N<N<N<N<N<N<N<N<N<M<}<R<M<L,W6Q6E3!6~6^6Y5/6/6s4a4E5a4-5-5,4,4s4-6-5(6)6_6`6'6]6I,T<E<E<H<n<n<S<S<S<S<S<S<S<S<S<v<v<S<S<N<N<B<B<B<M<M<[6{6}6|6 7.7X7o7O7O7+7@7#7$7%7&7*7=7-7p<P61<E<E<D<R<R<R<M<M<S<N<N<N<M<S<R<}<S<M<S<R<R<N<M<S<N<N<N<M<S<N<N<N<S<S<R<}<N<M<S<N<N<N<M<S<N<N<N<M<S<N<S<M<{<{<N<N<N<S<C<;7U3:7>7E*                                                                  ",
"                                                                ,7<7172737L<m<S<S<D<S<S<n<D<R<R<S<m<S<S<S<S<m<M<D<S<S<M<S<R<S<S<M<S<S<N<N<N<N<N<N<N<N<N<M<B<Q<T<47576777879707>4q7/4-6s4a4-5-5w7,4d4s4a4,4e7r7t7y7u7i75<4<Y<T<T<H<n<n<n<S<m<m<S<S<S<S<S<S<N<N<N<N<M<M<E<#<_,p7a7s7d7f7g7;6A6:5,4d4h7j7k7l7z7x7c7v7b7p<1<I,E<E<M<m<m<M<m<m<M<N<N<S<M<S<R<S<S<S<S<R<R<S<M<S<R<R<S<M<S<N<N<S<M<S<R<N<S<M<S<N<N<S<M<S<N<N<S<S<N<S<N<N<S<N<N<N<S<S<n7m7M7N7<2                                                                  ",
"                                                                3 B7V7C7Z7M<S<n<n<S<S<D<S<n<S<S<S<N<S<m<S<S<S<M<M<S<S<S<S<S<S<S<S<S<S<N<N<N<A<S<N<N<N<B<M<L,|,A7S7D7F7G7H7J7)3=5K7-6-5-5-5-6-6x6d4d4s4;5;5/4L7P7I7Z:U7Y7T74<Y<H<H<H<n<S<S<n<S<S<M<M<N<N<A<A<A<N<N<M<m<E<y<m6R7E7W7Q7!7~7x6^7A6o7o7x6^7/7(7)7_7`7C7'7]7[7:<#<E<m<b<m<S<S<M<M<S<S<S<S<M<M<S<S<N<S<M<S<N<N<S<S<S<S<S<S<M<S<N<N<S<S<S<N<S<M<M<S<S<S<S<M<N<N<N<N<M<N<N<N<N<S<S<S<S<{7}7:7B2c4                                                                  ",
"                                                                 2|7=4 8.8m<S<S<m<S<n<D<R<n<m<m<N<}<N<m<m<R<R<D<m<M<S<R<S<M<S<R<}<N<S<S<N<N<N<S<N<N<R<Q<m<4<Y,X8o8O8+8@8#8-5K7s4-5-6x6x6-6s4d4d4d4d4d4,4,4-6;6$8%8&8*8=8U,P3-8'2w4D<D<S<S<S<S<S<u1S<N<N<}<}<N<M<B<M<Y,X<f6;8:8>8,8<818A6x6x6w7o7Z6:528;53848586878889808#<}3-8Y<m<M<E<R<D<M<M<M<S<R<N<S<M<N<}<S<m<m<N<R<S<m<S<R<}<N<v<M<R<}<N<c<M<R<}<S<m<M<N<R<S<M<S<R<N<N<n<S<R<}<N<{<{<{<M<d3q8w8=1-1                                                                  ",
"                                                                e8r8t8y8u8c<M<S<S<D<S<R<D<D<S<S<S<R<R<S<m<M<R<R<S<S<S<N<N<S<S<S<N<N<S<N<N<S<N<N<N<S<S<Q<b<3<i8p8a8s s8d8f8a4s4,4d4d4d4d4d4d4d4d4d4d4d4d4g8s4s4h8j8k8S:l8b3P3I3'2w4D<H<n<S<S<S<S<{<S<N<N<N<}<c<|<L,L<#<z8x8c8v8b8n8O7O7A6d4x6x6A6:5g5;5d4x6m8M8N8B8V8C8Z8A8S8L3Y<I,E<m<n<n<m<m<m<M<R<R<N<S<S<R<R<S<M<M<N<N<S<S<S<R<N<S<S<S<R<N<S<S<N<R<N<M<M<N<R<N<S<S<N<N<N<S<N<N<S<S<S<{<c<m<l2D86.s1i3                                                                  ",
"                                                                3 F8G8H8J8M<M<S<D<D<S<S<S<R<}<R<m<S<R<R<R<M<n<R<R<R<S<S<N<N<N<S<v<N<N<N<N<N<N<S<N<N<B<Q<I,><K8t5L8P8I8U8,4E5a4,4d4d4d4d4d4d4d4d4d4d4d4d4g8,4d4d4Y8T8R8E8W8Y,1<4<T<D<D<H<S<S<S<S<{<S<S<S<N<}<|<Q8 <|,!8~8^8/8(8)8_8`8^7A6d4A4A6;5:5+7O7d4s4'8:5]8[8{8}8|8 9.9i<4<E<T<T<m<m<m<D<R<S<S<N<}<R<S<S<R<}<R<S<S<R<R<N<M<S<R<N<N<S<S<R<}<N<S<S<R<N<N<S<S<N<N<N<S<S<N<N<}<N<c<S<S<%1c<c<^<X9o933v1                                                                  ",
"                                                                  O9+9@9#9M<S<N<R<S<m<S<M<S<}<R<S<M<M<R<R<S<m<S<R<R<S<S<S<N<S<S<S<N<N<A<N<N<N<S<M<M<M<E<},$9%9&9*9=9-9~7d4g8a4d4d4d4d4d4d4d4d4d4d4d4d4d4g8g8d4;9:9>9,9<919292<3<T7T<H<H<n<S<S<S<S<S<M<M<S<R<B<R,T,Q,3949596979x6;9`8^7^7d4d4d4g8:5:5O7g8'828'8d4899909q9w9e9r947T<T<T<m<m<m<D<R<S<m<M<R<R<S<M<S<N<N<S<M<S<R<N<S<S<N<}<}<S<M<N<}<}<N<M<N<R<N<S<M<S<R<R<S<M<N<}<R2N<c<S<S<{<c<c<32t9o9T3t%                                                                  ",
"                                                                7oy9u9i9p9M<S<R<R<M<m<S<N<S<S<S<S<S<M<M<S<S<S<S<M<S<S<S<S<M<S<N<A<A<S<N<N<N<N<M<O2W<[,),a9s9d9f9g9h9j9x6,4;5,4d4d4d4d4d4d4d4d4d4d4d4d4g8g8g8'8;9k9l9z9x9c9v92<{3T74<'2H<n<n<S<S<S<S<S<M<D<H<H<X<!,b9n9m9M9N9B9'8V9k9C9^7d4d4d4g8g8g8g8Z9Z9'8s4/6j9A9S9D9F9G9H9J9K9I,I,E<E<D<D<R<D<M<M<S<S<S<B<M<M<S<S<S<M<M<S<N<N<M<M<N<N<S<M<S<S<N<N<S<M<S<S<S<M<S<N<N<N<N<S<N<S<{<N<N<C<c<c<^<L9E7G,t%                                                                  ",
"                                                                t%P9I9U9U1M<D<R<N<M<M<R<}<N<M<M<N<R<S<m<M<S<R<S<m<S<R<N<S<S<N<}<}<R<S<M<M<M<M<m<Y9T9;<R9E9W9Q9!9~918K7/6w7A6,4d4d4^9^9d4d4d4d4d4d4d4d4g8g8g8'8s4s4/9(9)9_9X>`9{3L3U<'2H<G<n<n<n<n<n<m<S<H<I<I<Q3'9]9[9{9}9|9w7s4 0^7.0O7^9^9d4d4g8g8g8g8g8g8s4/6/6=518X0o0O0+0@0B,#0v3}3T<E<E<E<B<M<M<M<m<D<}<R<S<M<N<N<S<u1m<N<R<S<M<S<N<N<N<S<M<R<}<N<M<M<N<R<S<M<S<N<R<N<u1S<N<N<A<N<C<{<{<$0%0&033v1                                                                  ",
"                                                                *0;1=0-0;0v<D<}<R<S<S<N<N<S<S<N<N<R<N<S<S<S<R<R<S<N<S<R<N<S<S<S<N<N<S<M<M<M<Q<E<:0>0,3,0<01020304050>4-6w7,4d4d4d4d4^9^9^9d4d4d4d4d4d4d4d4d4g8d4s46070809000q0<<w044e0I<I<G<n<n<n<n<n<H<Y<-8S8r0t0y0u0i0p0m8w7x6A4^7O7a0^9k9k9d4d4d4g8g8g8g8'8g8g8d4E5s0d0f0g0h0j0k0l0Y,I,T<T<E<Q<M<M<M<S<D<R<R<S<m<M<N<N<S<S<S<N<N<S<N<N<}<}<S<M<N<R<N<S<S<N<N<N<S<S<M<S<N<S<S<N<N<A<N<%1{<m<z0x0c0O5I&                                                                  ",
"                                                                O6v0b0E8M1m<D<R<R<S<S<M<S<N<R<N<S<S<S<S<S<M<S<S<R<N<S<S<N<R<S<m<v<S<S<S<B<Q<Q3v3P3u<n0m0#*M0N0B0V0>4>4a4w7-6s4d4d4d4d4^9d4d4d4d4d4d4d4d4d4g8;5d4d4d4C0Z0A0S0D0F0w044G0e0I<G<n<n<n<n<H<H<I<P3H0_>J0K0L0P0-5K7-5w7o7k9^9a0O7^7^7^7^9^9d4^7O7O7I0I0:5x6-6U0h7Y0T0R0E0W0Q0!0:<I,E<E<E<E<S<D<D<n<m<D<S<S<M<S<R<R<N<S<S<N<N<N<S<S<N<N<S<M<S<S<N<N<S<S<N<N<N<n<S<N<S<N<N<{<N<N<N<v<m<d<~0^0/0!%                                                                  ",
"                                                                u `<'<(0)0O2m<S<n<n<m<S<S<S<R<S<M<M<S<S<S<M<m<M<S<n<v<m<S<S<N<N<S<N<S<M<E<E<v3I3_0`0'0]0[0{0}0|0/6a4;5A6w7-6s4d4d4d4d4d4d4d4d4d4d4s4s4d4d4;5:5d4s4d4 q.qXqoqOq+q@q#q44e0I<b<G<n<H<I<I<G0U<29v7$q%q&q*q=q/6K7s4,4^7^9 0g8O7O7O7O7^9^9k9k9O7O7^7^7^7^9x6w7w7-q;q:q>q,q<q1q2q_0}3T<I,m<L<E<D<m<m<M<R<S<S<M<S<N<S<S<M<S<N<N<S<M<S<R<R<S<m<N<R<R<S<M<N<R<N<S<S<S<{<S<S<{<N<N<N<n<m<3q4q^05q`-                                                                  ",
"                                                                O66q7qu28qM<M<S<D<D<S<S<S<S<S<S<S<S<M<M<S<S<N<S<m<n<S<D<N<m<M<S<S<}<R<S<M<I,1<p<9q0qqqwqeqrq;5d4w7w7A6o7x6`8d4d4d4d4d4d4d4d4d4d4s4d4s4s4d4,4A6s4s4s4d4tqyquqiqpqaqsq#qG0I<I<G<n<I<I<P<dq_0r9fqgqhqjqj7o7w7-6x6x6d4^9 0O7O7O7k9a0a0O7O7k9k9k9k9A4kq`8d4+7lq40zqxqcqvqbqnqmqMqNqP,|,T<b<E<D<D<E<M<M<M<S<M<c<M<S<S<N<M<M<S<N<R<M<M<S<N<N<S<S<S<N<N<S<M<N<S<S<S<u1S<N<A<N<{<N<S<S<3qBqVqCq~&                                                                  ",
"                                                                T:ZqAqSqDqM<M<M<D<R<D<R<R<S<S<S<S<N<S<M<M<S<R<S<m<n<D<R<N<v<v<S<S<}<R<E<L<O<47;7FqGqHqJqKq+728'8w7x6,4d4d4;9d4d4d4d4d4d4d4d4d4d4s4s4s4s4s4d4d4-6x6,4g8LqPqIqUq53YqTqRqEqH<H<T<H<I<WqRqO<G1Qq!q~qi0^qo7w7~7w7x6x6d4^9k9O7a0k9k9k9a0a0a0k9k9k9^7^7kqkqA4S6S6A4U0;6h8/q(q)q_q`q'q]q#<T<-8I<H<E<E<M<M<M<M<S<M<S<S<R<}<N<v<M<R<}<N<v<M<N<R<S<m<M<N<R<S<S<S<R<N<S<{<N<N<A<A<{<%1{<n<[q{qE:J1D&                                                                  ",
"                                                                }qY6|q wi2R,M<M<S<R<D<S<N<N<S<S<S<S<S<S<S<S<S<S<n<n<n<S<N<S<S<N<B<!<B<R,@<o<.wXwowOw+w@w#wV9s4d4d4x6s4s4d4d4d4d4d4d4d4d4d4^7d4d4s4s4s4s4s4d4d4s4d4g8g8g8$w%w&w*w=w-w;w-8'2w4E<T<-8:w>w,w<w1w2w3w4wo7w7A6^7A6d4d4d4k9k9k9k9k9k9k9k9k9a0k9k9k9^7^7d4d4^7^7A4x6x6m8o75w6w7w8wo99w0wqw},4<1<T<|,E<D<M<M<S<N<S<N<N<M<R<}<N<M<M<N<N<S<S<N<N<N<S<S<S<N<N<S<N<N<S<N<S<N<N<A<A<{<N<{<n<wwewrwtwyw                                                                  ",
"                                                                j<+ uwiwpwW,B<B<N<R<S<S<S<N<N<S<S<S<S<N<N<S<n<N<N<N<n<v<S<S<N<A<B<B<M<L,P,]4awswdwfwgwhw^7d4d4d4d4d4d4g8g8^7d4d4d4d4d4d4^7^7d4;9;9s4s4s4d4d4d4s4s4s4-6d4A6jwkwlwzwxw4<-8-8T<9<9<I,O<cwr>vwbwnwmwZ6,4d4,4A6A6^7^7k9k9k9k9k9k9a0k9k9k9k9k9k9k9k9^7^7O7^7A4x6A4A4o7S6:5A6MwNwBw<:VwCwA85<I,I,|,Q<D<R<M<S<S<D<}<N<v<M<R<}<N<S<S<R<}<N<S<S<N<N<N<S<S<N<N<N<S<S<N<N<N<A<%1N<%1A<%1n<.3ZwAwSwDw                                                                  ",
"                                                                FwGwHwJwKwW,B<N<N<N<S<S<S<N<N<N<S<M<S<N<S<M<m<S<R<}<N<{<N<N<N<N<S<M<m<|,y<LwPwIwUwYwTwZ9d4^7d4d4'8g8g8g8O7^7d4d4d4d4d4d4^7^7^9;9;9s4s4s4d4d4s4s4s4d4d4g8g8o7RwEwWwQwH0:03<4<{,!w:<~w^w/w(w)w_wS6Z9g8d4d4^7^7^7^7^7k9k9k9k9k9a0k9k9k9k9k9k9k9k9O7O7O7O7d4d4d4A4S6A6A6w7x6`w'w]w[w{w}w|w0<O<I,E<E<M<m<m<m<M<N<S<M<M<M<N<N<S<S<S<N<S<S<S<N<N<N<S<S<S<N<N<S<S<N<A<}<A<%1N<N<%1%1u1 eY1.eXeK1                                                                  ",
"                                                                3 oeOe+e@e#eZ<N<N<S<S<N<N<S<S<S<S<S<S<S<S<S<N<S<M<N<S<S<N<N<N<S<S<D<E</,9q$e%e&e*eJ7^7^7A6A6:5g8'8d4d4g8O7^7d4d4d4-6`8`8^7C9^9;9=es4s4s4s4s4s4s4s4d4g8Z9g8^9-e;e:e>e_2,eT7Y,.<[7<e1e2e3e4e5e96O76eI0^7^7^7^7^7^7k9k9k9k9k9k9k9k9k9k9k9k9k9k9k9k9^7O7O7O7d4d4d4^7A6w7U0K7E5!7_w7e)$qq8e9e0eP,I,m<T<D<D<S<m<m<S<S<R<N<S<N<N<N<S<S<S<S<N<S<S<S<N<N<S<S<N<S<N<S<{<N<A<A<A<%1C<c<n<qeweeere                                                                    ",
"                                                                7oteyeueie#e}<}<N<S<S<N<A<S<S<S<S<N<S<S<S<S<}<N<v<S<S<S<N<N<c<M<M<E<Q3b3peaesedefegex6x6x6A6A6d4s4d4d4d4d4d4d4d4d4`8-6A4hejeo7d4/6-6-6-6-6/6/6K7s4;5;5+7 0kelezexeg3ceve[7:<.<beo2nemeMeNe^q,4g8g8+7:5^7d4d4^7^7k9k9k9k9k9k9k9k9k9k9k9k9k9^7^7^7^7^7^7O7d4d4d4d4,4-5/6BeVe-5h8CeZeAeSeDeFe,3|,m<E<E<R<M<m<b<m<N<}<N<S<S<N<N<S<S<S<R<}<S<S<S<N<N<S<n<S<S<N<S<u1S<A<A<A<c<C<c<u1GeHe^031R*                                                                  ",
"                                                                JOJeKeLePeZ<Z<A<N<S<S<N<N<N<S<S<S<S<N<S<S<M<N<S<v<S<A<N<N<N<O2O2L<E<47IeUeYeTeReC9A4w7w7-6w7,4,4s4s4d4d4d4d4d4d4d4x6w7$wEeWeQe:4;6-6-6-6/6/6/6/6-6s4;5Z9V9!e~e^e/e(e)e_eC5]4`e'e]e[e{e}e|ea4'8d4d4O7O7g8^9^9^7^7^7^7^7^7k9k9^7^7^7^7^7^7^7^7^7^7^7d4d4d4d4d4d4d4d4a4=5Ve/6;6;6m8 r.rXrorOr+r@rT,E<E<E<T<b<m<m<M<D<S<S<S<S<S<N<N<N<N<N<S<S<N<N<N<S<S<S<S<S<S<S<S<N<N<N<c<C<c<n<#r$r%r&rR*                                                                  ",
"                                                                T:Y:*r=rA2R,B<N<N<S<S<S<S<N<N<N<S<S<N<N<N<{<S<S<u1S<N<S<N<N<M<m<9<},-r;r:r>r,r<ra0^7S6A6-5-6a4,4d4s4s4s4d4s4s4x6-5w7(61r2r3r4r5rxq;6/4/4/6/6K7/6-6-6-6`86r6r6rA67r8r9r0r#9qrwrerrrtryrurzqq7s4x6A4^7d4 0^9^9k9^7^7^7^7^7^7^7^7^7^7^7^7^7^7^7^7^7d4d4d4x6x6x6x6x6d4,4,4a4;6h7ird5prarsrdrfrgrhrA2X<|,E<T<T<D<D<m<m<n<S<N<S<S<R<N<N<S<S<N<N<N<S<S<S<S<N<S<S<S<S<N<N<c<N<N<C<c<S<jru6krlrzr                                                                  ",
"                                                                ,7G,xrcrvrbrB<S<S<S<n<S<S<S<N<N<S<S<S<S<N<S<S<N<S<u1n<n<S<M<m<9<[,nrmrMrNrBr/7VrCr^7Zr18w7/6s4a4,4a4s4s4s4s4x6w7zqArSrDrFrGrHrJrKrY5T5/4/4/6/6/6-6-6-6`8-6`8/6s4LrPrIrUrYrTrRrx0ErWrQr!rV0/6s4d4x6x6^9g8^9^9k9^7k9^7^7^7^7^7^7^7^7^7^7^7^7^7^7d4d4d4d4d4d4x6x6x6-6w7w7~7~7h7d5~r^r38r7/r(r)ry0_r`r},|,4<4<E<T<b<b<b<n<S<S<S<S<S<n<n<S<N<N<S<S<n<S<N<N<S<S<S<S<N<N<{<N<N<N<M<S<'r]r[r{r/*                                                                  ",
"                                                                _O}r|rLe t|<B<S<S<S<S<N<S<S<S<N<S<S<S<v<n<n<N<}<S<S<S<S<S<n<9<{,Ge.tXtotOt+t@t#t$tC9S6O7-6-6a4,4,4a4s4s4-6-6w7e7%t&t*t=t-t;t:t>t,t<t;6d5d5/4/4/6-6s4d4g8d4-6/61t2t3t4t5t6t7t8t9t0tqtje-5U0/6,4d4d4d4^9g8^9^9^9^9^9^7^7^7^7^7^7^7^7^7^7^7^7^7^7d4d4d4d4d4x6x6x6x6-5w7w7,4wtw7;6~7prs0#wh9etrtttytutit},I,3<T<Y<Y<I<n<n<S<S<S<S<S<S<S<N<N<S<S<S<S<S<S<S<S<S<S<S<N<N<N<N<N<c<c<M<+2ptatst@=                                                                  ",
"                                                                j<dtftgtm6R,B<M<S<S<S<N<N<{<S<N<N<N<S<u1{<S<N<N<N<N<A<S<n<I<9<],htjtktltztxtctvtbtntmtMt^7d4,4w7w7a4s4-6-5w7o7NtBtVtCt-t-t;tZtAtStDtFtd5d5;6-5-6-6s4s4^7A6w7-61tGtHtJtKtLtPtItUtYtc6zqa4-5/6-6x6x6^9^9k9k9k9^9k9k9^7^7^7^7^7^7^7^7^7^7^7^7d4^7d4d4d4d4d4d4d4d4x6w7,4,4,4;5,4w7o7Z6<r#wTt/9RtEtWtQt!t~t]4$<4<-8Y<Y<b<m<m<S<S<S<N<N<N<N<S<n<S<N<N<S<S<S<S<N<S<n<S<N<A<N<v<c<c<M<^t/tHo5q(t                                                                  ",
"                                                                Fw)tU2_t`tC<M<S<S<N<S<N<N<S<N<N<S<N<N<N<N<A<N<N<N<}<}<S<m<m<'t]t[t{t}t|t y.yXyoyOy+y@y#y$yC9o7w7-6-6-6x6A6:6%y&y*y=y-y;y-t=y=y:y>y,y<yw7-5-5s4s4,4d4d4A4o7^7s41y2y3y4y5y6y7y8y9y0yh7-5a4;5s4d4d4d4d4^7^7^9^9k9a0^7k9k9^7^7^7^7^7^7^7^7^7^7d4^7^7d4d4d4d4d4d4d4d4d4d4s4s4a4A6X75wqywywyeyrytyyyuyiymXpyayY7Y,U<Y<T<T<M<S<S<n<S<R<R<N<N<N<S<S<S<N<N<S<S<S<S<S<S<S<N<N<N<{<c<{<M<sydyfygy_&                                                                  ",
"                                                                [*T*hyjykyN1M<S<S<N<S<N<N<N<N<N<{<c<N<N<N<N<S<N<N<}<}<M<@<;<)0lyo;zyxycyvybynymyMyNyByVyCyZyAyA4-6/6`8^75wSyDy*yFyGy-t-tHy;tJyKyLyPyIyUyw7d4s4s4s4-6x6A4A4d4YyTyRyEyWyQy!y~y^y/yA9(yx6;5;5d4d4^7^7^7O7O7k9k9a0k9O7a0^7^7^7^7^7^7^7^7^7^7d4d4^7^7d4d4d4d4d4d4d4d4^7d4d4d4e7)y_y`y'y]y[y{y}y|y u.uXuouOu+u@up2I,T<D<D<D<n<n<n<S<R<R<S<S<N<N<N<v<S<N<N<N<S<S<S<N<N<N<N<N<N<N<%1C<.w#uE:$u-1                                                                  ",
"                                                                _O%u&u*u=uC<c<N<N<N<S<S<{<S<N<N<{<{<N<N<N<N<S<M<m<R<Q<I,-u;u:u>u,u<u1u2u3u4u5u6u7u8u9u0uquwueuru q_8_8*5tuyuuuiu=t=t=t-t=y=yKyKypuFyausuA6;5s4-6-6-6x6A4^7dufuguhujukuluzuxucubyxq(yA6+7;5d4^7^7^7^7O7O7O7a0k9^7k9k9^7^7^7^7^7^7^7^7^7^7^7^7^7d4d4d4d4d4d4d4d4d4^7O7g8a0vubunumuMuNuBuVuCuZuAuSuDuFuGuHuJuKuLu#<T<T<b<m<m<m<n<S<M<m<S<N<N<M<M<M<S<N<N<S<S<S<N<}<N<%1N<N<N<%1c<PuIu:7UuU&                                                                  ",
"                                                                _OYuTuRuEuZ<N<N<N<S<S<S<S<S<S<N<N<N<N<{<S<N<N<M<m<E<|,O<WuQu!u~u^u/u(u)uqu_u0u0u0u`u`u`u'u]u[u{untU8}u|u i.i=t=t=t=y=y=y;tXiJyoiOi+iuu@i#i40w7-6w7x6o7Z6^7a0$i%i&i*i=i-i;i:i>i,i}0~7,4g5O7^7^7A4 qA4^7d4^9k9O7^7^7^7^7^7^7^7^7^7^7^7^7^7O7^7^7d4d4d4d4d4d4d4d4d4d4d4 0du<i1i2iFy_u_u_upupuOi3i4i5i6i7i8i9i0iqiwi:<:0!wm<E<D<H<n<n<S<R<N<S<S<S<N<S<S<N<N<S<S<S<N<N<N<A<N<%1c<C<eiritiyic1                                                                  ",
"                                                                _OuiiipiaiZ<N<N<N<S<S<N<S<S<S<S<N<A<N<{<c<S<S<M<m<4<O<Y7sidifigihijikiliziiuiu_u_u_uxicivivipuuubinimiMi=y;t-toioioi=y=yNiHy-t;tOiBiViCiZiAiw7w7s0*5o7o7A460SiDiHyliFiGiHiJiKiLiPiY5w7d4d4d4O7O7^7^7kqkq-6^7^7^7^7^7^7d4d4^7^7^7^7^7^7^7d4d4d4x6x6x6x6x6x6x6x6d4d4d4 0a0IiUiYi;toiziTiBiRiRiEiWiEiQi!i~i^iL8/i(i)i_i{,T<v3w4T<b<m<H<D<S<S<M<N<R<S<u1S<N<N<S<S<N<N<A<A<N<c<c<{<$0`i'iyi]i                                                                  ",
"                                                                _O[i{i}i-2Z<N<N<N<S<S<S<S<S<S<S<S<N<N<S<S<M<m<I,4<{3|i p.pXpopOp+pJy=y=tiu@piu_u#p_u=tpuBiBi=t=t;tXiXiFrHy-t-t-t=y=y=y;tHyHyHyNiNi=txizi$p%p*5e7~7e7~7~7x6Z6&p*pQi=y=p4i-p;p:p>p,p<pw7d4d4s4d4^7d4^7x6x6x6w7^7x6d4d4d4d4d4d4d4d4d4d4d4^9d4d4d4d4x6x6x6w7x6x6x6x6d4d4g8a01p2p3p;tJyZt=yHyNi;y-t;yNi4p5p6p7p8p9p0pqpwp6<Y,Y,}3I3-8-8Y<H<D<S<S<S<N<S<S<S<S<S<S<S<N<N<N<A<N<{<u1{<;2eprptp#+                                                                  ",
"                                                                ypupipppapZ<N<N<S<S<S<S<n<S<S<S<{<{<N<N<R<R<T<3<dqspdpfpgphpjpkplpzpKy=tziiuiuKy=t=tOiOiOi=tHy-t-tHyNiHyxpHyHyHyHyNiNiNiNiNiFrFrXi-t-yxiiucpvp}0bpnpU0|0-6(6mpMpNp=t4pNiBpVpCpZpApW5e7;6-6-6-6d4^7^7X7SpDpo7w7w7w7w7x6d4d4d4d4d4d4-6-6-6d4d4d4d4d4-5w7-5-5-5-5-5x6d4d4^7FpGpYiCtHpJpFrFrFrJyKp;y;tXiXiXiLpPpIpUpYpTpRpEpp<P6L3U<-8Y<T<H<D<D<S<S<R<R<N<S<S<N<N<N<N<S<N<S<S<n<S<+2WpX5Qpr%                                                                  ",
"                                                                !p~p^p/pi2N1S<S<S<S<S<S<S<S<N<N<S<{<S<S<R<E<T<3<<<^1(p)p'%_p`p3pxpzpJyJyoioioi=t=t=tOi=y4pOiOiHy'pRiNiHyHyFrFrNiNiNiNiNiFrNiFrFrFrHy-tBiBi]p[prubp;6~r{pir}pAu|pBi=tHyRiRi a.aXaoaOah8~7~7w7x6x6o7bt+a@a#a$as0w7w7-5w7w7,4d4d4d4d4x6-6x6d4,4A6w7w7-5-5-5-5-5-5-5-5w7w7,4%a&a&iCt*a=aJpFrFrFr;t;t=y=yoi=yEi-a;a:a>a,a<a1a2a<<L3P3U<3<Y<Y<m<m<m<m<S<R<S<S<S<S<S<S<S<S<N<S<S<S<N<3a4awoY3P2                                                                  ",
"                                                                _O5a7q6a7aC<u1n<n<S<S<S<N<S<S<N<N<S<S<S<T<T<4<2<sp8a9a0aqawaearara;tCt=y=y=y=yOiOiOiOiOiOiOiOiOiHyNiNiNiNiFrFrFrFrFrFrFrFrFrNiFrFr=yOiBivi+iautaB0;6|0ya~ruaiapaOiJyOi4pWiaasadafagaha~7w7A6A6_8jakalaEizaxaca~7-5-5w7w7w7w7w7d4,4x6-6x6d4f8:6vao7-5d5d5;6;6-5w7w7w7d4w7(6baCtCtJp=a3inaFrFrJp=a;t=y-y'pOiHyvimaMaNaBaVaCaZaAaSa44L3-8Y<T<n<S<D<S<S<S<S<N<S<S<N<N<N<N<c<S<n<S<DaH9loFac1                                                                  ",
"                                                                _OGarwHa08B<{<S<S<S<S<S<S<S<S<S<S<n<S<S<b<3<P3JaKaLaPaIaUaYaTaJp=aFrCtZt=y=y=yOiOiOiOiOiOiOiOiOiOi4pHyHyHyFrFrFrFrFrFrFrFrFrFrFr;t;t4pRaRaxiViEaWa(yU0U0Qa!a~aRiZtZtNi4p^aRa/a(a)a_a`aqyLq'aLq]a[a{a|p}aFy|a s07wt-5-5w7;6x6x6,4,4d4d4d4:4.sXsosjef8;6~r~r~r;6;6-5-5/4s4Os+s=y;tJp=a=aFrFrFrFrFr;tHyHyRiOiZtli4p@s#s$s%s&s*s=s-s;s:sWqY<D<n<D<D<n<m<S<S<R<S<n<S<N<N<N<u1c<n<n<>s,smX<s1s                                                                  ",
"                                                                2s3s4sH2^5N1c<S<S<S<n<n<S<S<n<n<n<m<M<m<!w;wS85s6sJ;7s8s9s0sqswsnaJpHpJyJyoiOiOiOiOiOiOiOiOiOiHyOiHyHyHyHyFrFrFrFrFrFrFrFrFrFr;tHyHyHyOiOipu_uesrsts2tleg7ys-t-toioi-tOiusGyispsasssdsfsgshsjsksls5pRiBiiuzsxscsvs-6-5-5-6-6w7A6A6d4x6w7bsnsmsMsNsBsVs%axqh7~r;6-5-5/6-65wCsiu;tFr=aJpFrFrFrFrFr;tHyHyHyoi=yZsXi-tAsSsDsFsGsHsJsKs@qU<}3D<H<n<n<n<S<S<S<S<S<S<S<N<N<N<{<S<u1G<3aLsIXPsK                                                                   ",
"                                                                IsUsYsTs)0Z<C<S<S<S<S<n<n<n<n<S<n<M<M<H<-8-8RsEsWsQs!s~s.iHpzpzp;t;tJyJy=yOiOiOiOiOiOiOiOiOiHyHyHyHyHyHyHyNiFrNiNiFrNiNiNiFrFrHy;yHyHyHy-tBipuFy^s/s(s)s_s`sHy-t=yJy-toiKyGypu's]s[s{s}s|s d.dXd=pFr4p+iFyFy:yodOdo7-6-6-6w7w7A6d4d4^9Ii+dViis@d#d$d%d&d*d=d}0xqe7w7-5j9-d;d0uHyHyFrFrFrFrFrFrFrFrHyHyHy-t-t=y=y-t-y:d>d,d<d9t1d2d3dp<}3I<n<n<n<n<R<R<n<n<S<S<N<N<N<N<S<N<n<n<3q4d5d6dE&                                                                  ",
"                                                                7d8d9d0dqdH5N<N<S<S<S<S<S<n<S<S<N<S<E<H<Y,!8wdedrd>rtdziyd.iJyJyHyJy-t-tOi=tOiOiOiOiOiOiOiOiOiOiOiOiHyHyHyNiNiNiNiNiNiNiFrNiFrHyHyHyHyHyHyHyBi]u0uudidpdadsd9sHy=yHy-t-t=tFydd#pfdgdk%hdjdnukd3iFr=y=yki=yBiFyldzdxdw7wt,4w7w7x6-6^9cdvdPybdxiisbd0u@dndmdMdNdBdPi$wZ6A4VdCd0uHyNiFrFrFrFrFrFrFrFr;tHyHy-t-tJyZdzp-t-tRiAdSdDdFdGdHd-71<P3I<m<m<n<D<S<n<n<S<S<S<N<S<N<N<{<u1u1^<JdVqKdA&                                                                  ",
"                                                                LdPdId49UdA<N<N<S<S<S<S<S<S<S<N<N<D<E<E<C5J9YdTdRdEdWdLyoi;t;t-t;t;tHyHyOiOiOiOiOiOiOiHyOiOiOiOiOiHyHyHyNiNiNiNiNiNiNiNiNiNiNiNiNiHyHyHyHy'pRi4p+iMiQd!d~d^d;toi=y-tOiOiOi/d(d:y)d_d`d'd]d[d{d}dFrHyHyOiOiRaFyzs|d fje:6f8w7-6/6-6;6.fXfiuGypuBiFy+iofciOf+f]p@f#f$f%fU8&f*f=fNiHyFrFrFrFrFrFrFrFrFr;tHy;t;t;tJy;y-fHyOiBi;f:f>f,f<f1f2f4<T<T<T<m<m<H<n<n<S<S<S<N<N<A<N<c<c<c<>33f4f=1@=                                                                  ",
"                                                                5f6fM%7fKwZ<N<N<S<S<S<N<S<S<S<M<M<T<4<},8f9f0fqfwfRi-yZd=tOiHyJyJy=yHyHyHyHyOiOiOiHyHyHyHyHyHyOiOiHyHyNiNiNiFrNiNiNiNiNiNiNiFrNiNiNiHyHyHyNiHyXi=yZsefrftf+foioiOiWd-tHy=tzi/dzipuyfufifpfaf{dnaCtCt;t=yOiOiOi/dsfdf/sAy*5~7U0|0-6ffgfuuBiOi4p4p=y=yOipupuci0uFy0uhfjfkflfzfxfXiHyFrFrFrFrFrFrFrFrFr;tHyHy;t;t;tzpJy;t=y=y-tcfvfbfnfmfMfNfBfI34<4<4<Y<T<T<H<n<S<N<A<A<N<c<v<%1VfCfsXZfd1                                                                  ",
"                                                                AfSfDfFfGfZ<N<N<S<S<S<S<S<S<S<M<M<Y<1<HfJfKfLfPfIf;toi=tHyOi=yJy;tHyHyHyHyHyHyHyHyHyNiHyNiHyHyHyHyHyNiNiNiFrFrNiNiNiNiNiNiFrFrNiNi;tHyHy;t;tXilililiuuUfYf=tJy;tXiHyHyHy-tKyzi/dFyTfRfEfWfQf!fna&iJpJpFr;t=y=y=y/d~f^fEeOs~7d5U0/f(fVi=tHyHyHyOi=tOiHy=t-tKy=txi=tFrJp)f_f`fliFrHyFrFrFrFrFrFrFrFrFrFr;t;t;t;t;tCt;tJy;t=yOi]u'f]f[fk6{f}f|fp<L3dqL3-8-8Y<I<H<S<N<N<A<N<c<v<B< g.gXgZfc1                                                                  ",
"                                                                  ogOg+g@gZ<S<S<S<S<S<S<S<S<m<m<T<#gK4$g%g&g*g=gNiNiOiHy-t=t=y=yHyNiHyHyNiHyHyHyHyHyNiNiNiNiNiHyHyNiNiNiNiFrFrFrNiNiNiNiNiFrFrNiNiFrFr;t;tFr;tliXiOi+i-g;gGy=t;tFrNiNiHy-tKyziFyBi:g>g,g<g1g2geawsJpJp&i;tXi=y=ypuofVt3g4gs0;6}05gxf;t;t=yJy-y-yZdHy;t;tOi=tOiHyHyHyFrna=aFrFrFrFrFrFrFrFrFrFrFrFrFrFrFr;tFr;t;t;t;tHyHy=t=tOiBi6g7g8g9g0gqgwg|i;w44U<-8Y<Y<H<D<S<N<A<N<c<c<i1egrgXgyic1                                                                  ",
"                                                                  tgygugigC<n<n<S<S<S<S<S<m<b<Y<1<.3pgagsgdgfg-f-tHyOiOi-t-tOi=yHyNiNiNiNiNiNiHyHyNiNiNiNiNiNiNiNiNiNiNiFrFrFrFrNiNiNiNiFrFrFrFrHy;tHy;t;tFrFrFrFrJy=tOiBiGy=tHyNiNiFrHy-yKy=tOi]ugghgjgkglgzgxg&iraJpwsFrFr-t=tBi}aofcgvgbg:6ngmgraHyJpliCt;y-fxpFrJpJpFrFrFr;tFrHyxpna}dFrHyHyFrFrFrnaFrnaFrFrFrFrFr;t;t;t;tHy;tFrHyHy=t=t=t'pQiAsMgNgBgVgCgZg|iS8U<L3-8T<H<D<R<N<N<N<N<M<i1AgSg=4V2Dg                                                                  ",
"                                                                  FgGgHgJgN1v<u1S<S<N<S<S<H<Y<P3i<s,KgLgPgIgUg;yYgHyOi=y=yOiOiHyHyNiNiNiNiNiHyNiNiNiNiNiNiNiNiNiNiNiNiNiFrFrFrNiNiNiNiNiFrFrFrFr;t;t;t;t;tFrFrFr;tJy-tOiBiOiOiOiOiHyHy-t'p'p=tOius^aTgRgEgWgQgfd!gGrTa&i3iNi-tWdvi}a~gqu^g/g(g)gJpxpxpFrJpFrFrFrFrFrFrFrFrNiNiXiFrFrFrFrnanaFrFrFrFrFrFrFrnanaFrFrFrFrFrFr;t;t;t;t;tHy=y=tWd'p'pHy-yGy_g`g'g]g[g{g}g|gw0P3T<D<D<R<N<N<A<N<c<C< h.hz4Xh)&                                                                  ",
"                                                                j<ohOh+h@hC<v<u1S<S<S<S<D<D<I<1<#h$he6%h&h*h=h;y-y-t-tOi4p4pOiHyHyNiNiNiNiNiNiNiNiNiNiNiNiNiNiNiNiNiNiNiNiNiNiNiNiNiNiNiNiNiFrNi;t;t;t;t;tFrFrFrFr;tHyOiOiOiOiOiHyHyHyHyHy=yOiRa=t+i-h a;h:h>h,h<h!g&i&i=aFr=y'pBipupu_uzi1h2hFy&ixpxp;t;t;tFrFrFrFrFrFrFr;tNiFrFrFrFrFrnaFrFrFrFrFrFrFrFrFrFrFrFrFrFrFrFr;t;t;t;tHyHy=yOi-t-t;t.iydoi|p3h4h5h6h7h8h9h{3P3Y<D<D<R<B<N<N<N<c<C<0hqhwhehE&                                                                  ",
"                                                                _Os14srhk1|<c<u1N<N<S<n<T<E<}3thyhuhihphah+p9sHyJyoi=tOiOiOiOiNiHyNiNiNiNiNiNiNiNiNiNiNiNiNiNiNiNiNiNiNiNiNiNiNiNiNiHyNiNiNiNiNi;t;t;tHy;t;t;t;tFr;tHyOiOiOiOiHyHyHy;t;t;tOiOiWdsh=t-h4pdhfhghhhjhkhkhYaCtCtHy'pBiFyFyFyiu=tOiHy;t;t;t;t;t;tFrFrFrFrFrFrFrHyHyNiNiNiFrFrNiNiFr;tFr;tFrFrFrFrFrFrFrFrFrFrFr;t;t;tHyHyHyOiOiOi=yoi.ilhZtOizhxhchvh, bhnhmh2<Y<T<D<D<M<S<S<N<M<S<m2MhNhBhVh                                                                  ",
"                                                                _Ot2ChZhf6|<c<%1A<N<S<n<H<Q3AhShDhFhGhHhxpJy;tJyJyoiOiOiOiOiOiHyHyNiNiNiNiNiNiNiNiNiNiNiNiNiNiNiNiNiNiNiNiNiNiNiNiHyHyNiNiNiNiNiFr;t;tHyHy;t;t;tFrHyHyOiOiOiOiHyHyHyHyHyHyHy=t-yWdOiEiRi@sJhKhLhPh9slpnaFr;tHy'pBi+iFyFyFy=tOiHy;t;t;t;t;tFrFrFrFrFrFrFrFr;tHyNiHyHyNiNiNiNiFr;tFrHy;tFrFrFrFrFrFrFrFrFrFrFr;tHyHyHyHyOiHyHy-t-tJyoi;t=yli=yxhIh[fUhYhThRh:<|,E<M<m<n<S<N<{<C<m2Eh%rWh$%                                                                  ",
"                                                                I&nXQh!h~h^hC<A<A<N<n<G<H</h(h)h_h`h'hNiHpZdJyJy;tHyOiOiOiOiHyHyHyNiNiHyNiNiNiHyNiNiNiNiNiHyNiHyHyNiNiNiNiNiNiHyHyHyHyHyHyHyHyNiFrHyHyHyHyHy;tFr;tHyOiOiOiOiOiHyHyHyHyHyHyHyHy-t'pRipaRiHy]h[h{h}h|hYa9snaxpHyHyOi+i=t=tOiOi;t;t;t;t;tFrFrFrFrFrFrFrFrFrFr;tHyNiHyHyNiNiNiFrFrNiNiHyHyFrFrFrFrFrFrFrFrFrFrFr;tHyHyHyHyHyHyHyHy-t-tJy-tJyZtZt4p'f j.jXjojOjnrX<R,M<M<M<M<S<S<N<+j@j%ro1#j                                                                  ",
"                                                                _O5a$j%j^<C<i1&jA<c<c<n<Q3*j4a=j-j;j:jFrJpJyJy;t;tHyOiOiOiOiHyNiNiNiNiNiNiNiNiNiNiNiNiNiNiNiNiNiNiNiNiNiNiNiNiNiNiNiNiHyNiHyNiFrFrFrFrHyHyHyFr;tFrHyHyHyOiOiOiHyHyHyHyHyHyOiOiOiHy'p'p4pOi:j>j,j<j1j2j}d&iwsJpXiXiOiOiOi=y=y;t;t;t;t;tFrFrFrFrFrFrFrFrFrFrNiHyHyHyNiNiNiNiNiNiNiNiNiNiNiFrFrFrFrFrFrFrFrFrFrFrNiNiNiHyHyHyNiNiNiXi;tYg-tJy=y=y=t3jwa4jYeu;5j;0a<T,Q<D<S<M<M<N<6j7j8j9j(&                                                                  ",
"                                                                _OR.0jqjwjejN1rj%1v<M<(,|wtjyjujij*h;tFrXiJy;t;t;tHyHyHyHyHyNiNiNiNiNiNiNiNiNiNiNiNiNiNiNiNiNiNiNiNiNiNiNiNiNiNiNiNiNiNiNiNiNiFrFrFrNiHyHyHyFrNiNiHyHyOiOiOiOiOiHyHyNiHyHyOiHyOiOi-t'p4pHy4ppjajsjdjfj3pea&iTa=aFr;t;t;t=y;t;t;tFrFrFrFrFrFrFrFrFrFrFrFrFrFrHyHyNiNiNiNiFrFrFrNiNiNiNiNiFrFrFrFrFrFrFrFrFrFrFrNiNiNiNiNiHyHyHyHyXi;t-f-f-tZdgjgjhjjjkjljzjxjcjvj),E,T<Y<T<E<N<c3bjnja6A1                                                                  ",
"                                                                2smjMjNjBjejN1VjN1v<L,N4Cjz;w%ZjAjxpJy-tNi-t;t;t;tHyHyNiNiNiNiNiNiFrNiNiNiNiNiNiNiNiNiNiNiNiNiNiNiNiNiNiNiNiNiNiNiNiNiNiNiNiNiNiFrFrNiNiHyHyFrFrFrHyHyHyOiOiOiOiHyHyHyHyHyHyHyOiHyHyNiXi4p4pSjDjFjGjHjJjkhKjTaGr=aFr;t;t;t;tFrFrFrFrFrFrFrFrFrFrFrFrFrFrFrFrNiHyHyNiNiNiFrFrFrNiNiNiNiNiFrFrFrnananaFrFrFrFrFrFrFrFrNiNiNiNiHyHyFrHyHy;tHyZdLjLy=tBiPjIjUjYjTjRjEjWj|,4<T<|,Q<Qj!jA5~j!&                                                                  ",
"                                                                j<^j/j(j)jc<i1VjH5M<_j`j'j]j[j{jxpZdJy-tRi-t;t;tFrNiNiNiNiNiNiNiFrFrFrNiNiNiNiNiNiNiNiNiNiNiNiNiNiNiNiNiNiNiNiNiNiNiNiNiNiNiNiNiNiNiNiNiNiNiHyFrFrHyHyHyHyOiOiOiHyHyHyHyHyHyHyOiHyHyNi=yHyHypa}j|j k.kXkkhKjKjTara=aFrFrFrnaFrFrnananaFrFrFrFrFrFrFrFrFrFrFrFrNiNiNiNiFrFrFrFrFrNiNiNiNiFrFrFrnananaFrFrFrFrFrFrFrFrNiNiNiNiNiNiNiHy;tFrHy-toi=tOi4p4pokOk+k@k#k$k%k&kU,4<T<B<*k=kA5y9I&                                                                  ",
"                                                                Fw-k;k:k>kV<C<N<(,J4,k<k1k2k3k-fHpJy=t-t-t-t-tHyHyNiNiNiNiNiFrFrFrFrFrFrNiNiNiNiNiNiNiNiNiNiNiNiNiNiNiNiNiNiNiNiNiNiNiNiNiNiNiNiNiNiNiNiNiNiNiHyNiHyHyHyHyHyOiOiHyHyHyHyHyHyHy4pHyHy;t-tHy4pEixh4k5k6k7k}d8kkhkh&iJpJpFrFrFrFrFrnananaFrFrFrFrFrFrFrFrFrFrFrFrFrNiNiNiFrFrFrFrFrFrNiNiNiFrFrFrFrnananaFrFrFrFrFrFrNiNiNiNiNiNiNiHyHy;tHyHy-tOiOi=y=yXiRi9k0kqkwkekrktkykO<|,!<ukikpkaksk                                                                  ",
"                                                                j<dkfkgkhk <O2L<<ejkkk9rlkzkok;t=y=y;tJy=yoiHyHy;tFrFrNiFrFrFrFrFrFrFrNiNiNiNiNiNiNiNiNiNiNiNiNiNiNiNiNiNiNiNiNiNiNiNiNiNiNiNiNiNiNiNiNiNiNiNiNiNiHyHyHyHyHyOiOiHyHyHyHyHyHyNiNiHyNiNi;y-tXi5pEixkckvkbknk!g8keawsra3i3i3inaFrFrFrNiNiNiNiNiHyFrFrFrFrFrFrFrFrFrNiNiNiNiNiFrFrFrFrNiNiFrFrFrFrFrFrnaFrFrFrFrFrFrFrNiNiNiNiNiNiNiNiNiNiHy-tHyHy-t-t-tHyHyFrOi3jmkMkNkBkVkCk`e_,ZkAkIXSkDk                                                                  ",
"                                                                j<dkFkGkHkT9T9[7JkKk{1LkPkvi=yki=y=yoioi=y=yHy;tFrFrFrFrFrFrFrFrFrFrFrFrNiNiNiNiNiNiNiNiNiNiNiNiNiNiNiNiNiNiNiNiNiNiNiNiNiNiNiNiNiNiNiNiNiNiNiNiNiHyHyHyHyOiOiOiOiHyHyHyHyHyHyNiHyNiliFrJy=y=yOiIkUkYkTkwfRkTa&iwsEk=a=a=aJpFrNiNiNiNiNiNiNiHy4pHyFrFrFrFrFrFrFrNiNiNiNiNiNiFrFrNiNiNiNiFrNiFrFrFrFrFrFrFrFrFrFrFrNiNiNiNiNiNiNiNiNiNiHyHyOiHy-t-t-t-tJy=y=yshWkPkQk!k~k^k/k^<(k)k_k[i`k                                                                  ",
"                                                                _O'k]k[k{k$<}k|k lX;.lXlolWd=y=y=y=y=yoi=y=yHyHyNiFrFrFrFrFrFrFrFrFrFrNiNiNiNiNiNiNiNiNiNiNiNiNiNiNiNiNiNiNiNiNiNiNiNiNiNiNiNiNiNiNiNiNiNiNiNiHyNiHyHyHyOiOiOiOiOiHyHyHyHyHyHyNiHy;tJpJpFrZt.i-tGyOl+lse@l#lrawsws$l&iJp=aFrNiNiNiNiNiNiNiNiHyHyOi=t;tFrFrFrFrNiNiNiNiNiNiNiFrNiNiNiNiNiNiNiNiFrFrFrFrFrFrFrFrFrFrNiFrNiNiNiNiNiNiNiNiHyHyHyHyHyHyHy;tJyHyOiGy%l&l*l=l-l;l 9:l|w>l,lx1<l                                                                  ",
"                                                                Fw1l2l3l4l5l6l7l8l9l0lqlwlWd=t=tOi=y=y=y=y=yHyHyHyNiFrNiFrFrFrNiNiNiNiNiNiNiNiNiNiNiNiNiNiNiNiNiNiNiNiNiNiNiNiNiNiNiNiHyHyHyNiNiNiNiNiNiNiNiHyNiHyHyHyHyOiOiOiOiOiHyHyHyHyHyNiNiNiHy;tFr;tJy-tWdWd'felrltlylulJpJpCtxpnaFrNiNiNiNiNiNiNiNiNiHyHyHy-t-tHyFrFrNiNiNiHyNiNiNiNiNiNiNiNiNiNiNiNiNiNiFrFrFrFrFrFrFrFrNiNiNiNiNiNiNiNiNiNiNiHyHyHyHyHyHyHyHyHyHyHy=txixiRiHhilpl=;alsldlFXflgl                                                                  ",
"                                                                FwS1hljlklllzlxlclvl6ijjblNp-y=t=yOi=yOi;tHyHyNiNiNiNiNiNiNiNiNiNiNiNiNiNiNiNiNiNiNiNiNiNiNiNiNiNiNiNiNiNiNiNiNiNiNiHyHyHyHyNiNiNiNiNiNiNiNiHyNiNiHyHyHyHyOiOiOiHyHyHyHyHyHyHyNiHyHy;t;tJy-t'pWdGyRanlmlMlNlBlXiFrFrxp;tNiNiHyNiHyNiNiNiNiHyHyHyHy-t=t'pHyNiHyHyHyHyHyNiNiNiNiNiNiNiNiNiNiNiNiNiFrFrFrFrFrFrFrFrNiNiNiNiNiNiNiNiNiNiNiHyHyHyHyHyHy-tHyHyOi=tGyGypuBi3jVlClZlAlSlDlFlGlHl                                                                  ",
"                                                                _OUs0jJl)jKlLlG8PlIlQiGy'pRiOi=y=yOiOiOiNiNiNiNiNiNiNiNiNiNiNiNiNiNiNiNiNiNiNiNiNiNiNiNiNiNiNiNiNiNiNiNiNiNiNiNiNiNiNiHyHyHyNiNiNiNiNiNiNiNiNiNiNiNiHyHyHyHyHyHyHyHyNiNiHyHyHyNiHyHyFrHyHyHy'pWd=tOipaUl-lYlTlRlHyJpElNiNiNiNiNiFrNiNiNiNiNiNiNiOiOiOi'p-tNiNiHyHyHyNiNiNiNiNiNiNiNiNiNiNiNiNiFrFrFrFrFrFrFrFrFrFrNiFrNiNiNiNiNiNiNiNiNiHyHyHyHyHyHyHy-t-t-tBiGyxipu=tviVlWlQlz1!l~l^l/l                                                                  ",
"                                                                2s(l)l_l`l'l]lf9[l{l;toi'pRiOiOiOiOi4p4pNiNiFrFrNiNiNiNiNiNiNiNiNiNiNiNiNiNiNiNiNiNiNiNiNiNiNiNiNiNiNiNiNiNiNiNiNiNiNiNiNiNiNiNiNiNiNiNiNiNiNiNiNiNiNiNiHyHyHyHyHyNiNiNiNiHyHyHyHyHyNiHyHy;toioi+i+iBi}l|l z.z-pNiFr=aNiNiNiFrFrFrFrNiNiNiNiNiNiHy4pOi'pHyFrNiHyHyNiNiNiNiNiNiNiNiNiNiNiNiNiFrFrFrFrFrFrFrFrFrFrFrFrFrNiNiNiNiNiNiNiNiNiNiHyNiHyHyHyHyXz-y-tOi=tGypupupuIkozOz+z@z#z$z/l                                                                  ",
"                                                                2s}r%z&z*z=z-z;z:zHy=y=t-tHy=yoiOiOi4pHyHyNiFrFrFrFrFrNiNiNiNiFrNiNiNiNiNiNiNiNiNiNiNiNiNiNiNiNiNiNiNiNiNiNiNiNiNiNiNiNiNiNiNiNiNiNiNiNiNiNiNiNiNiNiNiNiNiNiNiNiNiNiNiNiNiNiNiHyHyNiNiHy;t;tOi/d>z/d=tMp,zif<z1z2z;tFrNiFrFrFrFrFrNiNiNiNiNiNiNiHyNiOi-tOiFrNiNiNiNiNiNiNiFrFrFrNiNiNiNiNiFrFrFrFrFrFrFrFrFrFrFrFrFrFrNiNiNiNiNiNiNiNiNiNiNiNiNiHy4p4pHyOi4p4p=tBipu+igg3z3j4z5z<zC1Usn%                                                                  ",
"                                                                2s6z7z8zWsN#9zah-t-t-t-tHy=y=y=yXiOiOiNiNiNiFrFrFrFrNiNiNiNiNiNiNiNiNiNiNiNiNiNiNiNiNiNiNiNiNiNiNiNiNiNiNiNiNiNiNiNiNiNiNiNiNiNiNiNiNiNiNiNiNiNiNiNiNiNiNiNiNiNiNiNiNiNiNiNiNiNiNiNiNiNiFrHy'pFy:y+iBi0zqzwzezrztznaFrFrFrFrFrFrNiNiNiNiNiNiNiNiHyHyOi-t=tFrNiNiNiNiNiFrFrFrFrFrFrNiNiNiFrFrFrFrFrFrFrFrFrFrFrFrFrFrFrFrNiNiNiNiNiNiNiNiNiNiNiNiNiNiNi4p4p4pRiBiBiRaBi3j3zEi-tyzuzizpzaz                                                                  ",
"                                                                Afszdzfz&9gzhz-t-yKy-tHy=y=y=y=yXiHyNiNiNiNiFrFrFrFrFrNiNiNiNiNiNiNiNiNiNiNiNiNiNiNiNiNiNiNiNiNiNiNiNiNiNiNiNiNiNiNiNiNiNiNiNiNiNiNiNiNiNiNiNiNiNiNiNiNiNiNiNiNiNiNiNiNiNiNiNiNiNiNiNiNiXiRiWd%lKyRaBi-ajzkzlzzzxzahNiNiFrFrNiNiNiNiNiNiNiNiNiNiHyHyHyHy=t'pHyNiNiNiFrFrFrFrFrFrFrFrNiNiFrFrFrFrFrFrFrFrFrFrFrFrFrFrFrFrNiNiNiNiNiNiNiNiNiNiNiNiNiNiNiNi4pRi'pBiRaRaBiQi3jcz=yGivzD,bznz                                                                  ",
"                                                                IsmzMzNzBzVzBi=t=tOiOiOi=y=yHyNiHyHyHyHyHyNiFrFrFrFrFrNiNiNiNiNiNiNiNiNiNiNiNiNiNiNiNiNiNiNiNiNiNiNiNiNiNiNiNiNiNiNiNiNiNiNiNiNiNiNiNiNiNiNiNiNiNiNiNiNiNiNiNiNiNiNiNiNiNiNiNiNiNiNiHyHy4pOi'p'pBiBius^aCzZzAzSzDz'hNiFrNiNiNiNiNiHyHyHyNiNiNiNiNiNiNiHyHyOiHyNiNiNiNiNiNiNiNiNiFrNiNiNiFrFrFrFrFrFrFrFrFrFrFrFrFrFrFrNiNiNiNiNiNiNiNiNiNiNiNiNiNiNiNiHyHyRiRaRaRaOiBibl3jWi4pFzGzHzJznz                                                                  ",
"                                                                KzLzPzIzUzMpKyKyoi=tOi=t=y=yHyHyHyHyHyHyHyHyNiNiNiNiNiNiNiNiNiNiNiNiNiNiNiNiNiNiNiNiNiNiNiNiNiNiNiNiNiNiNiNiNiNiNiNiNiNiNiNiNiNiNiNiNiNiNiNiNiNiNiNiNiNiNiNiNiNiNiNiNiNiNiNiNiNiNiNiHyHy4p4pOiusEi3j]u]u]uYzTzRzEzWz2jNiHyNiNiNiNiFrFrNiNiNiNiNiNiNiNiHyNi4pHyOiNiNiNiNiNiNiNiNiNiNiNiNiNiNiFrFrFrFrFrFrFrFrFrNiFrFrNiNiNiNiNiNiNiNiNiNiNiNiNiNiNiNiNiNiHyOiOiOiOiRaBiQiEiWi4pQz!z~zJz^z                                                                  ",
"                                                                7dLz/z(z)zGyhjKyLyoi=t=t=tOiHyHyHyHyHyHyHyHyNiNiNiNiNiNiNiNiNiNiNiNiNiNiNiNiNiHyNiNiNiNiNiNiNiNiNiNiNiNiNiNiNiNiNiNiNiNiNiNiNiNiNiNiNiNiNiNiNiHyNiNiNiNiNiNiNiNiNiNiNiNiNiNiNiNiHyHyHyHyNiOiOiOi'pWd=t/d+i]u_z`z'z]zyzXiNiNiFrFrFrFrFrNiNiNiNiNiNiNiNiHyHyOiOi=tHyNiNiNiNiNiNiNiNiNiNiNiNiNiNiNiFrFrFrFrFrNiNiNiNiNiNiNiNiNiNiNiNiNiNiNiNiNiNiNiNiNiNiNiHyOiOiRaOiOiBi'pRa[zNi{z}z|z x.x                                                                  ",
"                                                                IsXxoxOx+xhjoi=tLyoi=t=tOiOiOiHyHyHyHyHyHyHyHyNiNiNiNiNiNiNiNiNiNiNiNiNiNiNiHyHyHyHyNiNiNiNiNiNiNiNiNiNiNiNiNiNiNiNiNiNiNiNiNiNiNiNiNiNiNiHyHyHyHyNiNiNiNiNiNiNiNiNiNiNiNiNiNiHyHyHyHyHyOiOiOi=tWd%lKyOipu+i@x#xUp$x%xFrNiFrFrFrFrFrNiNiNiNiHyNiNiNiNiHyHyHy-t-t-tHyNiNiNiNiNiNiNiNiNiNiNiNiNiNiNiNiNiNiNiNiNiNiNiNiNiNiNiNiNiNiNiNiNiNiNiNiNiNiNiNiNiNiHyHyHyOiRaOiOi'pRizhHy&x*x=xpz-x                                                                  ",
"                                                                Is;x:x>x_zhjoi=tLy=t=t=tOiOiOiOiOiOiHyHyHyHyHyNiNiNiNiNiNiNiNiNiNiNiNiNiNiNiHyHyHyHyNiNiNiNiNiNiNiNiNiNiNiNiNiNiNiHyHyHyHyHyNiNiNiNiNiNiHyHyHyHyHyNiNiNiNiNiNiNiNiNiNiNiNiNiHyHyHyHyHyHyOiHyOiOiWdWdGyRaBi]u3j,x<x1x$s2xNiNiFrFrFrNiNiNiHyNiHyNiNiNiNiHyHyHy-tOi-t'pHyHyHyNiNiNiNiNiNiNiNiNiNiNiNiNiNiNiNiNiNiNiNiNiNiNiNiNiNiNiNiNiNiNiNiNiNiNiNiHyHyHyHyHyHyOiOiOiOi'p'pRi-t3x4x5x6x7x                                                                  ",
"                                                                8x9x0xqxwx-t=t=tLy=t=t=tOiOiOiOiOiHyOiHyHyHyHyNiNiNiNiNiNiNiNiNiNiNiNiNiNiNiNiHyNiNiNiNiNiNiNiNiNiNiNiNiNiNiNiNiNiNiNiHyNiNiNiNiNiNiNiNiHyHyHyHyNiNiNiNiNiNiNiNiNiNiNiNiNiNiNiHyHyHyHyNiNiHyOi4pOiRaOiBiWdRaEiTgexrxtxyxHyHyNiNiNiNiNiNiNiFrFrFrNiNiNiNiNiOiOiOi-t'pHy4pNiNiFrFrNiFrNiNiNiNiNiNiNiNiNiNiNiNiNiNiNiNiNiNiNiNiNiNiNiNiNiNiNiNiNiNiNiNiNiNiNiHyHyHyHyOiOi'pRaRiWduxixpxax7x                                                                  ",
"                                                                7osxdxfxsa-t-t=toi=tOiOiOiOiOiHyOiOiOiHyHyHyNiNiNiNiNiNiNiNiNiNiNiNiNiNiNiNiNiNiNiNiNiNiNiNiNiNiNiNiNiNiNiNiNiNiNiNiNiNiNiNiNiNiNiNiNiNiNiHyNiNiNiNiNiNiNiNiNiNiNiNiNiNiNiNiNiHyHyHyHyNiNiHyHyOiOiOiOi=t-tOi5pgxhxjxfykxlxHyHyNiNiNiFrFrFrFrFrFrNiNiNiNiNiNiOiOi-tRiFrHyFrFrFrFrNiFrNiNiNiNiNiHyNiNiNiNiNiNiNiNiNiNiNiNiNiNiNiNiNiNiNiNiNiNiNiNiNiNiNiNiNiNiNiHyHyOi-t'p=yNiHyjhzxxxcxvx                                                                  ",
"                                                                YobxMznxpj-y-yOioiOiOiOiOiOiHyHyHyOiHyHyHyHyNiNiNiNiNiNiNiNiNiNiNiNiNiNiNiNiNiNiNiNiNiNiNiNiNiNiNiNiNiNiNiNiNiNiNiNiNiNiNiNiNiNiNiNiNiNiNiNiNiNiNiNiNiNiNiNiNiNiNiNiNiNiNiNiNiNiHyHyNiNiNiNiHyHy-tHyHyHy4pXi=pmxulMxNxBxPl3iHyHyNiFrFrFrFrFrFrFrNiNiNiNiNiNiNiNiNiHyHyNiFrFrFrFrNiNiNiNiNiNiNiHyNi4pHyNiNiNiNiNiNiFrFrNiNiNiNiNiNiNiFrFrNiNiNiNiNiNiNiNiNiNiNiHyHyOi-t'p=yNiHyVxCxZxAxSx                                                                  ",
"                                                                8xDxFxGxHxZd;yOi=yOiOiOiOiHyHyHyHyHyHyHyHyNiNiNiNiNiNiNiNiNiNiNiNiNiNiNiNiNiNiNiNiNiNiNiNiNiNiNiNiNiNiNiNiNiNiNiNiNiNiNiNiNiNiNiNiNiNiNiNiNiNiNiNiNiNiNiNiNiNiNiNiNiNiNiNiNiNiNiNiNiNiNiNiNiNiHyOiOiHyHyNiFrNiNi5iJxKx43LxPxHyNiNiFrFrFrFrFrFrFrNiNiNiNiNiNiNiNiNiHyHyNiNiNiFrNiNiNiNiNiNiNiNiHyHyOiHy=tNiNiNiNiFrFrFrFrNiNiNiNiNiFrFrFrNiNiNiNiNiNiNiNiNiNiNiHyHy=t-t'p;tFrHyIxUxYxTxRx                                                                  ",
"                                                                8xExWxQx!xJyHyXi=y;tHyHyHyHyHyHyHyHyHyHyHyNiNiNiNiNiNiNiNiNiNiNiNiNiNiNiNiNiNiNiNiNiNiNiNiNiNiNiNiNiNiNiNiNiNiNiNiNiNiNiNiNiNiNiNiNiNiNiNiNiNiNiNiNiNiNiNiNiNiNiNiNiNiNiNiNiNiNiNiNiNiNiNiNiNiHyOiXi;t;t;tFrNiNi5iIf~x^x/x(xzhNiHy;tNiFrFrFrFrFrNiNiNiNiNiNiNiNiNiHyHyHyNiNiNiNiNiNiNiNiNiNiNiHyHyHyHy=t-tNiNiNiFrFrFrFrNiNiNiNiFrFrFrFrNiNiNiNiNiNiNiNiNiNiHyHyHy-t-t-t=yNiHy)x_x`x'x62                                                                  ",
"                                                                _O(l]x[x{x=t;tXiliJyHyOiHyHyHyHyHyHyHyHyHyHyNiNiNiNiNiNiNiNiNiNiNiNiNiNiNiNiNiNiNiNiNiNiNiNiNiNiNiNiNiNiNiNiNiNiNiNiNiNiNiNiNiNiNiNiNiNiNiNiNiNiNiNiNiNiNiNiNiNiNiNiNiNiNiNiNiNiNiNiNiNiNiNiNiHyHy4pNiNiFr;t;tFrgx5i}x|x c.cXcHyHyNiNiNiNiNiFrNiNiNiNiNiNiNiNiNiNiHyNiHyNiNiNiNiHyNiHyNiNiNiNiHyHyHy-t=t'pHyNiNiNiNiFrFrNiNiNiNiFrFrFrNiNiNiNiNiNiNiNiNiNiHyHyHyHy-t-tHy=yNiHy)xocE:cxvx                                                                  ",
"                                                                SXXxOc+c@c=t;tXiliJyOi4pHyHyHyHyHyHyHyHyHyHyNiNiNiNiNiNiNiNiNiNiNiNiNiNiNiNiNiNiNiNiNiNiNiNiNiNiNiNiNiNiNiNiNiNiNiNiNiNiNiNiNiNiNiNiNiNiNiNiNiNiNiNiNiNiNiNiNiNiNiNiNiNiNiNiNiNiNiNiNiNiNiNiNiNiNiNiNi;tliFr;tFrXiFrJy#c$c%c&caaNiHyNiHyNiNiNiNiNiNiHyNiHyNiNiNiNiOiNiHyNiNiNiNiHyNiNiNiNiNiNiHyHyOiOiOi'p'pNiNiNiNiNiNiNiNiNiNiFrNiFrNiNiNiNiNiNiNiNiNiNiHyHyHyHy-t-t-t=yXiHy*c=c-c7Xaz                                                                  ",
"                                                                ;c:c>c,c<c=t=y4pXiOiOiOiOiHyHyHyHyHyHyHyHyHyNiNiNiNiNiNiNiNiNiNiNiNiNiNiNiNiNiNiNiNiNiNiNiNiNiNiNiNiNiNiNiNiNiNiNiNiHyHyHyHyNiNiNiNiNiNiNiHyNiNiNiNiNiNiNiNiNiNiNiNiNiNiNiNiNiNiNiHyNiNiNiNiNiNiNiNiFr;tCtFr;tZt=yNiJytd1c2c3c4cHyNiNiHyNiNiNiNiNiNiNiFrFrNiNiNiHyOiHyNiNiNiNiFrFrFrFrFrNiNiNiNiNiHyOiOi'p'pNiNiNiNiNiNiNiNiNiNiNiNiNiNiNiNiNiNiNiNiHyNiNiHyHyHyHy-t-t-t=yNiHyVx^y5c^lgl                                                                  ",
"                                                                6c7c[+8c9c=tHy4pOiOiOiOiOiOiOiHyHyHyHyHyHyHyHyNiNiNiNiNiNiNiNiNiNiNiNiNiNiNiNiNiNiNiNiNiNiNiNiNiNiNiNiNiNiNiNiNiNiHyHyHyHyHyHyHyNiNiNiNiNiHyHyHyNiNiNiNiNiNiNiNiNiNiNiNiNiNiNiHyHyHyHyNiNiNiNiNiNiNiNiNi;t;tJyJyoiBiRi[z0cqcwceczhHyNiHyNiNiNiNiNiFrFrFrFrFrNiNiOi=tOiNiNiFrFrFrFrFrFrFrNiNiNiNiNiNiNiOi-t-tXiHyNiNiNiNiNiNiNiNiNiNiNiNiNiNiNiNiNiNiHyNiHyHyHyHyHy=t-t=tOiHyHy~srctcycuc                                                                  ",
"                                                                icpcacscdc=tOiRa=t=tOiBiRaOiOiHyHyHyHyHyHyHyHyHyNiNiNiNiNiNiNiNiNiNiNiNiNiNiNiNiNiNiNiNiNiNiNiNiNiNiNiNiNiNiNiNiHyHyOiHyOiHyHyHyHyNiHyHyHyHyHyHyNiNiNiNiNiHyHyHyNiNiNiNiNiNiHyHyHyHyHyHyNiNiNiNiNiNiHyNi;t;t-t-yWdWd4pXi2zfcgchcjcNiHyNiNiNiNiFrFrFrFrFrFrFrNiNiHy-t=tHyFrFrFrFrFrFrFrFrFrNiNiNiNiNiNiHy-tHyFrHyNiNiNiNiNiNiNiNiNiNiNiNiNiNiNiNiNiHyHyHyHyHyHyHy-t=t-t'p=t4p;t*hkcVqdtlc                                                                  ",
"                                                                zcxcccvcbcKyoiRa=tOiRaBiOiOiOiHyHyHyHyHyHyHyHyNiNiNiNiNiNiNiNiNiNiNiNiNiNiNiNiNiNiNiNiNiNiNiNiNiNiNiNiNiNiNiNiNiHyHyOiHyHyHyHyNiNiNiNiNiNiHyNiNiNiNiNiNiNiNiNiNiNiNiNiNiNiNiNiNiNiNiNiNiNiNiNiNiNiNiNiNiFr;tHyHy'poiZsliBincmcMcch[zHyNiNiFrFrFrFrFrFrFrFrFrNiFrHy-t=t'pNiFrFrFrFrNiFrFrNiNiNiNiNiNiNiHyOiHyHyHyNiNiFrNiNiNiNiNiNiFrFrFrFrNiNiNiNiNiHyNiHyHyHyHy-t'p'p'pOiXi=yNcBcVcCcu                                                                   ",
"                                                                8xZcAcScXc/d=tRaBiOiOiBiOiOiOiHyHyHyHyHyHyHyNiNiNiNiNiNiNiNiNiNiNiNiNiNiNiNiNiNiNiNiNiNiNiNiNiNiNiNiNiNiNiNiNiNiNiHyHyHyHyHyNiNiNiNiNiNiNiNiNiNiNiNiNiNiNiNiNiNiNiNiNiNiNiNiNiNiNiNiNiNiNiNiNiNiNiNiNiNiFr;tHyHyHy=yzsZt=tDcFcGcHcJcFrNiFrFrHyNiNiFrFrNiFrFrNiNiNiOiOi'pHyNiNiNiFrFrFrNiNiNiNiNiNiNiNiHy4pOiHyNiFrFrFrFrFrNiNiNiFrNiFrFrFrNiNiNiNiHyNiNiNiNiNiHyHy=tBiBiOiXi=yKcLc{tPc#O                                                                  ",
"                                                                2sZcIcUcYc=tKyBiBiOiOiOiOiOiHyNiNiHyHyHyHyHyNiNiNiNiNiNiNiNiNiNiNiNiNiNiNiNiNiNiNiNiNiNiNiNiNiNiNiNiNiNiNiNiNiNiNiNiHyHyNiNiNiNiNiNiNiNiNiNiNiNiNiNiNiNiNiNiNiNiNiNiNiNiNiNiNiNiNiNiNiNiNiNiNiNiNiNiNiNiNi;tHyHyHyOizsZt=t|pTcRcEcWcQcNiNiNiHyNiNiNiNiFrFrNiNiNiNiOi=t'pHyHyHyNiNiNiNiNiNiNiNiNiNiNiNiHyHyOiHyFrFrFrFrFrFrFrFrFrFrFrFrFrFrNiNiNiNiNiNiNiNiHyHyHy'p=t=tBiOiXiOi!c~c^c/c(c                                                                  ",
"                                                                '-)c_c`chi=tKyBiBiOiOiOiOiOiHyNiNiHyHyHyNiNiNiNiNiNiNiNiNiNiNiNiNiNiNiNiNiNiNiNiNiNiNiNiNiNiNiNiNiNiNiNiNiNiNiNiNiNiHyHyHyNiNiNiNiNiNiNiNiNiNiNiNiNiNiNiNiNiNiNiNiNiNiNiNiNiNiNiNiNiNiNiNiNiNiNiNiNiNiNiNiNiNiHy-t-t/dOiBiQioz'c]cBc[c+pHyNiHyHyHyHyNiNiNiNiNiNiNiOi=t'pOiHyNiHyNiNiNiNiNiHyNiNiNiNiHyHyHyHyHyFrFrFrFrFrFrFrFrFrFrFrFrFrFrFrNiNiNiNiNiNiNiNiHyRi'p=t=tBiOi4p4p{c}cE:6x7x                                                                  ",
"                                                                  |c v.vXvzioiBi'pOiOiOiOiOiHyNiNiHyNiNiNiNiNiNiNiNiNiNiNiNiNiNiNiNiNiNiNiNiNiNiNiNiNiNiNiNiNiNiNiNiNiNiNiNiNiNiNiNiNiHyNiNiNiNiNiNiNiNiNiNiNiNiNiNiNiNiNiNiNiNiNiNiNiNiNiNiNiNiNiNiNiNiNiNiNiNiNiNiNiNiNiNiFr;t-t-t'pRiRaRaRlovOv+v@v#vnaHyNiFrNiHyNiNiNiNiHyNiHyNiHy-tHyNiNiHyNiNiNiHyHyHyHyNiNiNiNiHyHyOiFrFrFrFrFrFrFrFrFrFrFrFrFrFrFrFrNiFrNiNiNiNiNiNiHyRa'pBiOiOiRi4pEi&x$v5xF@%v                                                                  ",
"                                                                Is;x&v*v=vFyoiRa'pOiOiOiOiHyHyNiNiNiNiNiNiNiNiNiNiNiNiNiNiNiNiNiNiNiNiNiNiNiNiNiNiNiNiNiNiNiNiNiNiNiNiNiNiNiNiNiNiNiNiNiNiNiNiNiNiNiNiNiNiNiNiNiNiNiNiNiNiNiNiNiNiNiNiNiNiNiNiNiNiNiNiNiNiNiNiNiFrNiNiNiNiNiNiFrHyHy-t-tOiEipa-pgz-v;v:vTa;tNiNiNiHyNiNiNiNiHyHyHyNiNiOiHyOiHyNiNiNiNiNiNiNiNiNiNiNiNiNiHyHyNiFrFrFrFrFrFrFrFrFrFrFrFrFrFrFrNiFrNiNiNiNiNiHyHyRi'p=tOiOiRi5pRa>v,vm;6z<l                                                                  ",
"                                                                Is<v1v2vhiiuzi=t-tOiOiOiOiOiNiNiNiHyNiHyNiNiNiNiNiNiNiNiNiNiNiNiNiNiNiNiNiNiNiNiNiNiNiNiNiNiNiNiNiNiNiNiNiNiNiNiNiNiHyHyHyNiNiNiNiNiNiNiNiNiNiNiNiNiNiNiNiNiNiNiNiNiNiNiNiNiNiNiNiNiNiNiNiNiNiNiNiNiNiNiNiNiNi;tHyFrHy-tOiEiEiSj3vQ94v5v6v8kNiNiHyNiNiNiNiFrFrFrNiNiNiNiHyOiHyNiNiFrFrFrFrFrFrNiNiNiNiNiHyNiNiFrFrFrFrFrNiNiNiNiFrNiFrFrFrFrNiNiNiNiNiNiNiHyNi4pRi=tOiOiOi4p=t7v8v9v6zn%                                                                  ",
"                                                                8x0vChqvwviu=y=tBiOiOiHyOiOiHyNiNiHyHyHyHyHyNiNiNiNiNiNiNiNiNiNiNiNiNiNiNiNiNiNiNiNiNiNiNiNiNiNiNiNiNiNiNiNiNiNiNiNiHyHyHyHyNiNiNiNiNiNiNiNiNiNiNiNiNiNiNiNiNiNiNiNiNiNiNiNiNiNiNiHyNiNiNiNiNiNiNiNiNiNiNiNiNiFrHy;tHyJyoiXizhNievrvtvyv3kuv$lFrHyNiNiFrFrFrFrFrNiNiNiNiNiHyHyNiFrFrFrFrFrFrFrNiNiNiNiNiFrNiNiNiFrFrFrHyNiFrFrNiNiNiNiNiFrNiNiNiNiNiNiNiNiHyHyOiHy=tOiRiOi4pOiivpv=xav-1                                                                  ",
"                                                                2sZcsvdv>gKy/d=tGyOiOiRaOiOiOiHyNiHyHyHyHyHyHyNiNiNiNiNiNiNiNiNiNiNiNiNiNiNiNiNiNiNiNiNiNiNiNiNiNiNiNiNiNiNiNiNiNiHyHyHyHyHyHyHyNiNiNiNiNiNiNiNiNiNiNiNiNiNiNiHyHyNiNiNiNiNiNiNiHyHyHyNiNiNiNiNiNiHyNiHyNiNiNiNiHy;t;tJy.i=yRiNifvgvhvjvkvYalvYinaNiFrFrFrFrFrFrNiNiNiNiNiNiNiNiNiFrFrFrFrFrNiNiNiNiFrFrFrNiNiNiNiNi;tHyXiFrNiHyHyHyNiNiNiNiNiNiNiNiNiNiNiHyHyHyHy=t-t'pHyNicizvxv4s$z/l                                                                  ",
"                                                                2scvvvbvVpGy=yBiKy=t+iOiOiOiOiHyHyHyHyHyHyHyHyHyNiNiNiNiNiHyHyNiNiNiNiNiNiNiNiNiNiNiNiNiNiNiNiNiNiNiNiNiNiNiNiNiHyHyHyHyHyHyHyNiNiNiNiNiNiHyHyNiNiNiNiNiNiHyHyHyHyHyNiNiNiNiNiNiHyHyHyHyNiNiNiNiNiHyHyHyHyNiNiNiHy;tHy-tJyHyHyNiNinvmvMvckEdea8k!g$lFrFrFrFrFrFrNiNiNiNiNiNiNiHyNiNiFrFrNiNiNiNiFrFrFrFrFrNiNiNiNiNiNiXiXiHyHyHyHyHyNiNiNiNiHyNiHyNiNiNiNiHyHyHy-t=t-t'p-tNixihxaj82NvBv                                                                  ",
"                                                                8xVvCvZvAvTiZtBiWd=t+iOiOiOiOiNiNiHyHyHyHyHyNiNiNiNiNiNiNiNiNiNiNiNiNiNiNiNiNiNiNiNiNiNiNiNiNiNiNiNiNiNiNiNiNiNiNiNiHyHyHyHyNiNiNiNiNiNiNiNiNiNiNiNiNiNiNiNiHyHyHyNiNiNiNiNiNiNiNiHyNiNiNiNiNiNiNiHyHyNiNiNiNiNiHyFr;tHyXiHy-tFrFrHyUaSvDvFvJj$lGvHvJvEkxpNiFrNiNiNiNiNiNiNiNiHyFrFrFrFrFrFrFrFrFrFrFrFrFrNiNiNiNiNiNiNiHyHyOi4pNiHyNiNiNiNiHyNiHyNiNiNiNiHyHyOiOiOi-t'p=tOiGy aKvLvPvIv                                                                  ",
"                                                                FwUvYvTvRvziXiOiKyOiOiOiOiOiNiNiNiNiNiNiHyHyNiNiNiNiNiNiNiNiNiNiNiNiNiNiNiNiNiNiNiNiNiNiNiNiNiNiNiNiNiNiNiNiNiNiNiNiNiHyHyNiNiNiNiNiNiNiNiNiNiNiNiNiNiNiNiNiNiHyNiNiNiNiNiNiNiNiNiNiNiNiFrNiFrNiNiHyNiHyNiNiNiNiHyFr;tHyHy;yKp;tFrFr#vEvWvQv2gYiGvGvGvJvwsnaJp=a&i&iCtJpJpXiHyNiFrFrFrNiNiNi;tNiFrFrNiFrFrNiNiNiNiNiNiNiHy4pOiOiOiNiNiNiNiNiFrFrFrFrNiNiNiNiNiHyOiOi-t'pFrFr;t#vwz|z!v!%                                                                  ",
"                                                                  ~v^v/vwv=t=yOi=tOiOiOiOiNiNiNiNiNiNiNiNiNiNiNiNiNiNiNiNiNiNiNiNiNiNiNiNiNiNiNiNiNiNiNiNiNiNiNiNiNiNiNiNiNiNiNiNiNiNiNiNiNiNiNiNiNiNiNiNiNiNiNiNiNiNiNiNiNiNiNiNiNiNiNiNiNiNiNiNiNiNiFrFrFrFrFrFrNiFrFrFrFrFrFrFrFrHyHy;tNiFrli=a=aul(vRc9lchAj8kTaGvJv&inaws&iraraGrGr=a3iNiFrFr;tNiNiFrFrNiNiNiNiNiFrNiNiNiNiNiNiNiNiHyHyOi=tOiNiNiFrFrFrFrFrFrFrNiNiNiNiNiNiNiOi-t'pXiFr;tjh)v_v!vu.                                                                  ",
"                                                                  ;x`v'v]v=t=y=y=yOiOiOiOiNiNiNiNiNiNiNiNiNiNiNiNiNiNiNiNiNiNiNiNiNiNiNiNiNiNiNiNiNiNiNiNiNiNiNiNiNiNiNiFrFrFrFrNiNiNiNiNiNiFrFrFrNiNiNiNiNiNiNiNiNiNiNiNiNiNiNiNiNiNiFrFrFrFrNiNiFrFrFrFrFrFrFrFrFrFrFrFrFrFrFrFrFrNi;tFrFrFrJp3i3i+p[v{v}v|v[c b8kTaJv&i&ixpnarararaGrrana}dNiFr;tHyXiNiHyHyHyHyNiNiNiNiNiNiNiNiNiNiNiHyHyHy-t=tHyFrFrFrFrFrFrFrFrNiNiNiNiNiNiNiHyHyHyFrFrJy.bXb^0obIv                                                                  ",
"                                                                3 Ob+b@b#b=t=yXiXi;tHyOiOiNiNiNiNiNiNiNiFrFrFrNiNiNiNiNiNiNiNiNiNiNiNiNiNiNiNiNiNiNiFrFrNiNiNiNiNiNiNiFrFrFrFrFrFrFrFrFrFrFrFrFrFrFrNiNiNiNiNiNiNiNiNiNiNiNiNiNiNiNiFrFrFrFrFrFrNiFrFrFrFrFrFrFrFrFrFrFrFrFrFrFrFrFrFrFrFrFrnaxpna3iul~s$bSv%b&bahYara*bTaGr&i&iwskh&i!g&i&inaNiNiFrXiXiHyHyHyNiHyNiNiNiHyNiHyNiNiNiNiNiHyHyHy-t=t'pNiFrFrFrFrNiFrFrNiNiNiNiNiNiNiHyOiHyHy-fZd!f=b-b;bu.                                                                  ",
"                                                                _O:b>b,bEd-t;tXi=pNiHyHyHyHyNiNiNiNiNiFrFrFrFrNiNiNiNiNiNiNiNiNiNiNiNiNiNiNiNiNiNiNiFrNiNiNiNiNiNiNiNiNiFrFrFrFrFrFrFrFrFrFrFrFrFrNiNiNiNiNiNiNiNiNiNiNiNiNiNiNiNiNiNiFrFrFrFrFrFrFrFrFrFrFrFrFrFrFrFrFrFrFrFrFrFrFrFrFrFrNiNixpCt=a<b4i+x1b2b3b!x4blpTaTaraXdEkwswsws&iraJpnaFrNiNiXiHyHy4pOiNiHyNiNiNiNiNiFrNiNiNiNiNiHyHyOiOiOi'pHyNiNiNiFrFrFrNiNiNiNiNiNiNiNiHy4pOi-tHy-t5b6b_v7b%                                                                   ",
"                                                                _O8bAc9b0b;tJy=yXi;tHyHyHyHyHyNiNiNiNiNiFrNiFrNiNiNiNiNiNiNiNiNiNiNiNiNiNiNiNiNiNiNiFrNiNiNiNiNiNiNiNiNiFrNiFrFrFrFrFrFrFrFrFrFrFrNiNiNiHyHyHyNiNiNiNiNiNiNiNiNiNiNiFrFrFrFrFrFrNiNiNiFrFrFrFrFrFrFrFrFrFrFrFrFrFrFrFrFrFr;tFr3iFrJp=aJp'pqbwbebrb|ptbxplpYa&iEkEk=a&i&i&i&inaFrFrFrFrHyOi4pOiHyNiNiNiNiFrFrFrFrNiNiNiNiNiNiOiOi=t'pHyHyHyNiNiNiFrNiNiNiNiNiNiNiNiHyHyOi-t=t-tahybdx6z<l                                                                  ",
"                                                                ubibpbab2g;tJy=y=yHyOiOiHyHyHyHyHyHyHyHyHyHyNiNiNiNiHyHyHyHyHyHyNiHyNiNiNiNiNiNiNiNiNiNiNiNiNiNiNiNiNiNiNiFrFrFrFrNiFrNiFrFrFrFrFrNiHyHyHyHyHyHyNiNiNiNiNiNiNiHyHyNiNiFrFrFrFrFrNiNiNiNiFr;t;tFr;tNiFrFrFrFrFrFrFrFrFrFrFr;tFrFrFr;tJpJyZdwxsbdbfb}lzpxpxpwsws&iJpJp&i&i&i&inaFrFrFrFrFrOiOiOiHyNiNiFrFrFrFrFrFrNiNiNiNiNiNiNiOi=t'pHyHyNiHyNiNiNiNiNiHyNiNiNiNiNiHyHyHy-t=t'pahyv^07Xaz                                                                  ",
"                                                                gbhbjbkblb;t;t=y=yOiOiOiOiOiOiHyHyHyHyHyHyHyHyHyHyHyHyHyHyHyHyHyHyHyHyNiNiNiNiNiNiNiNiNiNiNiNiNiNiHyHyNiNiNiFrNiFrNiNiNiNiNiNiNiNiHyHyHyHyHyHyHyHyHyNiNiNiHyHyHyHyHyNiFrFrFrFrNiNiHyHyHyHy;t;tHyHyHyHyNi;tFr;t;t;t;tFrHyHyHy;tFr;tJyJyJy;tgxzbxbcbvbRaHpJpCtwsws&iJpJp&i&iFrnaFrFrFrFrFrFrFrHyNiNiFrFrFrFrFrFrFrNiFrNiNiNiNiNiHyHy-tHyNiNiHyNiNiNiHyHyHyHyNiNiNiNiHyHyOiOiOi'p:jbbnbmbMb                                                                  ",
"                                                                SXNbBbVbDc;tHy=t=t=t=tBiRaOiOiOiOiOiOiHyHyHyHyHyHyHyHyHyHyHyHyHyHyHyHyHyHyHyHyHyHyHyHyHyNiNiHyHyHyHyHyHyHyNiNiHyNiHyHyHyHyHyHyHyHyHyHyHyHyHyHyHyHyHyNiHyHyHyHyHyHyHyHyNiNiNiNiHyHyHyHyHyHyHyHyHyHyHyHyHy;tHy;t;t;t;tHyHyHyHy;t;t;t;t;t;tCb=akpZbAbSbDb+iZtCt*aEkCtJpJpFrFrFrFrFrFrFrFrFrNiNiNiNiNiNiFrFrFrFrFrFrNiNiNiNiNiNiNiHyHyOiHyHyNiNiNiNiNiNiNiNiNiNiNiNiNiNiHyOiOi=t'p[z>p^0Fb`&                                                                  ",
"                                                                FwGbHbJbtdJy'p=t=t=tBiBiBiOiOiOiOiOiOiOiOiOiHyHyHyHyHyHyHyHyHyHyHyHyHyHyHyHyHyHyHyHyHyHyHyHyHyHyHyHyHyHyHyNiHyHyHyHyHyHyHyHyHyHyHyHyHyHyHyHyHyHyHyHyFrHyHyHyHyHyHyHyHyHyNiNiNiHyHyHyHyHyHyHyHyHyHyHyHyHyHy;t;t;t;t;tHyHyHyHy;t;t;t;t;tXiCbJpOiKbLbPbIbUbzi.iCtJpJpJpJpFr;tFrFrFrFrNiNiNiNiNiNiNiFrFrNiNiFrFrFrNiNiNiNiNiNiNiNiHyNi4pHyOiHyNiNiFrFrFrFrFrNiNiNiNiNiNiHyOiOi=t'pNiYbh2fl!&                                                                  ",
"                                                                TbRbEbWb5boi'p=t=t=tBiBiRaOiOiOiOiOiOiOiOiHyHyHyHyHyHyHyHyHyHyHyHyHyHyHyHyHyHyHyHyHyHyHyHyHyHyHyHyHyHyHyNiNiNiHyHyHyHyHyHyHyHyHyHyHyHyHyHyHyHyHyFrFrFr;tHyHyHyHyHyHyNiFrNiNiNiHyHyHyHyHyHyHyHyHyHyHyHyHy;t;t;t;t;t;tHyHyHyHy;t;t;t;tHyJyZtElZtQb!b~b^b/b=yoiJp=aJpJpFrFr;t;t;tFrFrFrFrNiNiNiHyHyNiHyHyHyNiNiNiNiNiNiNiNiNiNiNiHyHyOiHyOiHyNiFrFrFrFrFrFrFrNiNiNiNiNiHyHyOiOi-tFr(b)b_b%                                                                   ",
"                                                                Is`b'b]bfdHy'pBi=t=t=tBiRaOiOiOiOiOiOiOiOiHyHyHyHyHyHyHyHyHyHyHyHyHyHyHyHyHyHyHyHyHyNiNiNiNiNiNiHyHyNiFrNiFrNiNiHyHyHyHyHyHyHyHyHyHyHyHyHyHy;tFrFrFrFrFr;t;tHyHy;t;tFrFrFrFrNiFrFrHyNiNiFr;tHyHyHyHyHyHy;t;tFrFr;t;tHyHyHy;tFrFr;t;tNi;y.iElEl5p[b-z{b}bRl=tJpJpJpJpFrFr;tFr;tFrFrFrNiNiNiNiHyHyHyHyNiHyNiNiNiNiHyNiHyNiNiNiNiHyHyHy-tNiNiFrNiFrFrNiFrFrNiNiNiNiNiNiNiHy4pHy-tNi|b nm%w1                                                                  ",
"                                                                Ismzvvfh=g;t-tKy=t=t=tBiRaOiOiOiOiOiOiOiOiHyHyHy;t;tHyHyHyHyHy;t;tHyHyHyHyHyHyHyHyHyHyNiNiNiHyHyHyHyFrFrFrFrFrHyHyHyHyHyHy;t;t;tHyHyHyHyHyHy;tFrFrFrFrFr;t;t;t;t;t;t;tFr;tHyHy;t;tHyHy;tFr;t;tHyHyHyHy;t;tFrFrFr;t;tHyHy;t;tFrFrFr;tNi;yoililiOixh.nXnonwxOiJpJp&inaFr;t;t;t;t;tFrFrFrNiHyHyOiOiHyOiNiHyNiNiNiNiHyNiHyNiNiNiNiHyHyOiHyNiFrNiNiNiNiFrFrNiNiNiNiNiNiNiNiHyOiOi=tHyOn+ne1@n                                                                  ",
"                                                                3 #nuw$n=g=y=tBi=t=tBiBiRaOiOiOiOiOiOiOiOiOiHyHyHyHyHyHyHyHyHyHyHyHyHyHyHyOiOiHyHyHyHyHyHyHyHyHyHyHyHyHyFrFrFrHyHyHyHyHyHyHyHyHyHyHyHyHyHy;t;tFrFrFrFr;t;tHyHy;t;t;t;t;tHyHyHyHyHyHyHyHyHy;t;tHyHyHyHy;t;t;tFrFr;tHyHyHyHy;t;tFrFrFrHy;yHy=y=yOiNi%n&n*n=n3zJp=a&i&iFr;t;t;t;tFrFrFrFrFrFrNiOiOi4pOiNiNiNiNiNiNiNiNiNiNiNiNiNiHyNiOiNiNiHyHyHyNiNiNiNiNiNiNiNiNiNiNiNiHyHyHy-tHy-nH,m%6c                                                                  ",
"                                                                IsTx;n:n>nXi=yOi=t=tBiBiBiBiBi=tOiOiOiOiOiOiHyHyHyHyHyHyHyHyHyHyHyHyHyHyHyOiOiOiHyHyHyHyHyHyHyHyHyHyHyHy;t;tHyHyHyHyHyHyHyHyHyHyHyHyHyHyHyHy;t;t;t;t;tHyHyHy;tHyHy;t;tHy-tHyHyHyHyHyHyHyHyHyHyHyHyHyHyHy;t;t;t;tHyHyHyHyHy;t;tFrFrFrHy,n-tZdoi4p4p<n1n2n3n4nli=a=aJp3ina;t;t;t;t;t;t;t;t;tFrFrOiOiOiHyNiNiNiFrFrFrFrNiFrNiNiNiNiNiHyHyHyHyHyNiHyNiNiNiHyNiHyNiNiNiNiHyHyHy-t-tNi5n+36nw1                                                                  ",
"                                                                Is7nvv8nivli=y/d=y=tOiOiOiOiOiOiOiOiOiOiOiOi4p4pHy=yXiFrFr;t;tXiFrNiNiOiOiOiOiOiOiOiXiFrFrXi4p4pNiNiNi5iFrNiNiFr=p4pNiNiNiNiFrNiHyOi4pNiHyHy;tFrFrFrFrFrFrFrFrFrFrFrFrNiNi=p=p=p4pHyNiXiXiNiNiXiXiXiFrFrFrFrFrFr;tHyHyHy;tFrFrFrFrFr;tFrXiJyLyZtZtoigv9n0nqnIf&iEkEk=a=aJpJp;t;t;t;t;t;t;tFr=aFrFrOiHyNiFrFrFrFrFrFrNiFrNiNiNiNiNiNiHyNi4pHyNiNiNiNiNiNiHyHyNiNiNiNiNiHyHyOiOi5iwnen3srn                                                                  ",
"                                                                tnogyn^btd=yoi/dOi=t=tOiOiOiOiOi/d=yoi=t-t=yXi=y;t;t=yXiXi;t;tFrXi;t;t=y=yOiOiOiOiHy=yFrFrFrXiXi=y=yHyHy;t;t;tXiliXi=y=y;t=y=y;t-t;tXi=y=y;t;t;tFr;t;t;t=y=y=y=y;t;tFr;tFrCbCb=pXi=y=y=yFrHyHy=yXiXi;t;t;t;t;t;t;t;tXiXi;tFr;t;tFr;t;tliCb;tJylhEllh|huninpnanHpsnwswsCtJpJp;tZtli3iJpli;tFrJpCtwsJpFrNiNiNiFrFrFrFrNiNiNiNiNiNiNiNiNiNi4pOiHyNiNiNiNiNiNiNiNiNiNiNiNiNiHyOiOidnfngnhn`&                                                                  ",
"                                                                j<jnknlnVloiJy=yOi=t=t=t-t-t=t=t=t=t=y=t-t-tJyJyJy;tHyHyJyJyJyJyJy;tJyJy-t-t-t-t-t-t-t-t;y;y-tJyJyJyJy;tJy;y;yzpJy;t-t;t;t;t;t;t;t;t;tJy;t;t;t;t;tJy;tJyJyJy;t;t;t;t;tJyJyJyJy;t;t;t;tJy;t;t;t;t;t;t=y;t;tJyJyJy;t;tJy;t;t;t;t;t;t;t;tJpJp;tzpCtElCtok(vznxn;zJycn&iCtqszpxpFrXiFrFr=aJpFrxpCtwsCtJpCtqs;t;tFrFrFrNiNiNiNiNiNiNiNiNiNiNiNiNiHyNiNiNiNiNiNiNiNiNiNiNiNiNiHyOiOivnbngn'x7x                                                                  ",
"                                                                _OY3nnmn7vXiHyOi-t-t=t-tWd-t-t-t=tOi=yXi=y=yJy;tXi;tHyFr;t;t;t;t;tFrXi;t;tHyOiHyXiFr;t;t;t;t;t;t;tJy;tFr;t-f-fxp-f;tHy;tFr;t;tFr3iFrFr;t;t;tFrFrFrFrJpFr;t;t;t;tFrFrFr;t;tzpzpzp;t;t;t;t;tFrFrFrFrJpliJpFrJp;tFrFr;t;t;t;t;tFrFrFrFrJpGrJpxpzpqsCtzpYgMnNnBnHcXkFrFrJpqszpxp;t3iFr;tFrFrxpwsxpxp&i&i&iwswsqswsJpCtHp.iZtNiNiNiNiNiNiNiNiNiNiHyNiNiNiHyHyNiNiNiNiNiFrNiNiHyHyRi<nVn43Cnu.                                                                  ",
"                                                                _Oo5ZnAn>n3izhRiHy-t=yoi-y-t4p=y=yoioi=y=y=yJyJy;t;t;tZtZtCtCtCtCtJpJpFr;t;t=y;t;tFrFrJpFrJpCt;tJyJy;t;t;t;tFrFrFr;tJyCtCtCtCtCtJp;t;t;t;t;t;t;tCtJpJpCtCtCt;t;t;t;t;tFr=a=aJpJpCtCtCt;t;tCtCtCtCtCtCtCtCtJpCtJpJpFr;t;t;tFrFrCtxpJp=aGr=awsSnqsDnqsqsJyFnGnHnJnEiCtlh*aHpCtJpJpJpxpzp;tCtCtwsxp&iwswswsqsqsqsqszpZdHpCt;tFrNiNiNiNiNiNiHyHyOiRiHyNiNiFrNiNiNiNiNiHyHyHyOikiXidn1bH,Kn$%                                                                  ",
"                                                                [*LnPnInBlRaRazhzhOi=y=yHyNi5p5pOiKyKyTiTihjoi;tXiXiXi=yXi=yJp;twsxpFrJp;tOiOi=yFrFr3i3i3i3i;t-y-yoioiHpJy;t;tZtHpJy;t=y;t=yJyJy;t-t;tXiXi=y;t;tCt&i&i&iCtJpFrXiJp;tzpxp=aGrEkGrJpJp=a;t;traFr&iFrwsxpxpCtJpFr;tCtJpJyJpFrXd=a&i&i}drara!geakh&iTaTa*aJpfgUnYnTnRnHp.iHp;t;t;t;t;tHyHyFrliliJpJpJp&iwsTawswsCtxpzpzp;tJpJp=aJpFrNiNiNiHyHyHyOiOi-tHyHyNiNiNiNiNiNiHy4pOiXiZs/dLpEnWnavQn                                                                  ",
"                                                                LOPc!n~n^nLpLpSjaaaaaaSjSjaa/nmxgg-aEi(n3jQipa~sgxgxgxgx/n/nRk)n_n!fRk2jzhzh[z[z~s2j:j`ndnNc[zzhNiEiNi}d+p{d<b=aHyHyFr5iNiRiRi{lJj{lJj5i5i[zulul2j2j'n'n2j2j2jIfIf:j2z+p<h<hna3i<h<b]n[n_n{n{n{nRkQc{d2j}n2jQc2jRk{d{l+p{d|n{dxgJj_n m m.mXm.m mom3pkdOm+m@m#m$mOp%mokok2zul2j:j:j:jdnIf}n/n*h*h!f m[n<h_n4i<h{d}d+p{dra{d[n[n[n]n<b&mraNiOiOiOi-tHyHy-f-fom_nJj{lzhWi-h*m=m=p<nEn7 -m;m                                                                  ",
"                                                            u (o:m>m(<,m<m1m2m3m4m5m6m7m7m8m9m0m9mqmwmemrmtmdgymumimpmamsmdmsmfmamgmhmjm7m7mkm5mlm7mzmxmcmvmbmnmmmMmOnNm7mBmVmCmZmAmSmDmFmGmHmJmKmLmPmbmImUmYmTmRm9zEmWmQm!m!m3mxm1mbm~m^m/m(mZmqm)m_m`mZj'm]m[m{m_mhm]m}m|m M}m.MXM9zzm9z|moMOM+M2m@M@Mrm#M$MXM%M&M*M=M-M;M:M>M,M<M1M2M3M^m4M2mFu5M6M7M8MYmoMoM9M M M0M0Mfmgmsm0m0mpmqMwMeMrMtMyMuMwMiMpMaMsMdMfMgMhMjMkMlMzM>rxMbmEmcMvMbMnMmMMMNMBM( VM~%                                                              ",
"                                                          A.CMZMAMSMDMFMGMHMk6]jvkJMKMLMEflwPMIMUM9gYMTMRMEMWM0nQM!MKh~MJM^M/M(M)MGcUM^M_M^M~MIM`MDv'M]M[M{M{M}Mk6Ab(eUh|MtrxX N.NMoXNoNEzON+N@N&9^o#N$N zGcTM%NW%W%Mo&NHMTM*N=N^O-N;NrpWvTM}M:NYn>NsOip,N;N;N<Nrp$N1N2N3N4N5NXNHMHM7 HM6N7NTM^o:N:iGM8N!.9N0NloqN3NwNtteNXg9@rNtNyNe5#NuN7 qNiNpN]jJMJM(MaN3N*N=NsNdN#NfNgNHMeNhN9gjN8ykNlNzNxNYncNXNXN zvNbNnNmNMNNNBNVNCXCNXN*NHMsoCNZNk6ANSNDNFNGNHNJNKN'*                                                            ",
"                                                        LNPNINk%UNYNTNRNENWNQN!N~N^N/N(N)N_N`N'N]N[N{N}N|N B.BXBoBOB+B@B#B$B%B&B*B=B-B;B:B>B,B<B1B2B3B4B5B6B7B8B9B0BqBwBeBrBtByB^NuBiBpBaBsBdBfBgBhBjBkBlBzBxBcBvBbBnBmBMBNBBBVBVBCBZBABSBDBFBGBHBJBKBLBPBIBUBYBTBRBEBWB7BQB!B~B^B/B(BGBgBgB)B_BSB`B'B]B[B{B}B|B V.V{BXVoVOV+V@VTB#V$V%V&V*V=V=V-V;V0B:V>V,VWB>V<V1B1V2V3VBB4V5V:B6V7V8VoB9V0VqVwVeVrVtVyVuViVpVaVsVdVfVgVhVjVkVlVzVxVcVvVbVnVmVMVNVBVVVCVZVAV@n                                                          ",
"                                                        SVDVFVGVL#HVJVKV..6&LVPVV IVh#UVYVTVRVEVh#WVIVRVH#QV!V~VTVTV^VH#K#/V(V)V_V/V`VRV'Vh#]V]V]V[V`VEV`V/V{V}VH#h#|V|V`# C.CXCXCoCOC{#H#}V/V+C $ $@CH#D##CC%YV$C#C~VTVTVH#C%%C&C`#*CD#D##C=C#C-C;C#C:COCOC>CG#TVRV,C`Vh#|V[V~#^VC%C%H#D#<COC#C1C2C2C3CB.4C4C,CEVH#TV~V=C>C>C5C6C7C>C4C8C#C{#9C0C4CTV,CRVqC@C!# $!#!#oCoCC%`#EVH#.$.$`V`V $H#H#`#H#H#wCeC`$rCtC.C(VyCH#uC}#wCwCJ@iCqCi#pCaCsCdCfCgChCjCkClCzCxC                                                          ",
"                                                        cCvCbCnCs&8%d#a#2%s&s&O&u$1X#Xpo/XrXkXu$i$kXr$8$8$ZoZoZor$.%kXrX0$kXkXrXrXkXkXkXkX#X#X#X#Xpo/X/X}X}X/X/X/XgXgX/XM./X/X}X/X/X$o}X}X}X/Xpo#X#X}XkXkXkXnono8$8$8$$o$o$o$ofXNXNXNX8$$o$o$or$kX3o}Xr$}Xr$.%kXu$kX/X/X/XgXNXNX$o$o$or$kX3o$or$r$P$2omC.%.%kX#X3o}X/X/X}X2o$o8$$o1oAo$o/XNX}X}X}X/XrX}XkXkXi$}X#XeX#X}XkX}XL.L._._.eXeX#X#XkX}X}X8$$o}Xr&3oP$/XrXgXgXNXrX/X/Xi$i$i$+&jXjXq$kX2%a#MCNCBCVCCCZCAC                                                          ",
"                                                        SCDCFCGCHCJCBCK%+&+&KCKC]$LCq$1X#Xi$u$y$u$eX3o3o}XkXkX.%t$t$y$u$u$u$u$i$.%.%eXu$u$eX3oeXeXeX#X3oeXeXeXeX3o3o3o#X3o3o3ou$eX#X3o3o3o}X}X}XeXr&eXeX#X#X#X}X}X}X#XeXeX3o}XL.L.L.}X}X3o3o3o3o3o3o3o3o3o3ou$u$y$q$u$kXeX#X}XL.3oeXeXeXeXeXeXeX3o3or&r&y$u$eXeXeXeXeX}X}X#X}X}X}XL.1o}X}X}X3oeX1X1X1XeX1XeXeXeXeXeXeX#XeX3o3oL.L.}XeXeXeXeXeXeX3o}X}X}X1Xq$1X1X#X#Xpo/X/XkXi$u$q$q$q$q$q$i$s#u$q$O&PCs&ICUCYCTC                                                          ",
"                                                        RCECWCQC!C~C~C+&O&KCO&^C/Cr&eXeXu$.%.%y$r&r&r&G%3o3ot$t$t$H%J%y$t$t$t$.%.%t$t$u$eXr&G%3oeX3o3o3o3or&eXeXeX3o1o@Xr&G%G%r&r&eX3o3o3o3o3o3or&r&r&eXeXeX3o3o3o3o3o3oeX3o3oL.$ofX3o3o3o3o3o3o3o3o3o3o.%.%.%y$r&r&G%G%eXeX3o3o3oeXr&r&r&r&r&eXeXG%G%r&r&r&r&eXeXeXeX3o3oeX3o1o1o1o1o3o3o3o3oeX9$r&r&r&eXeXeXeXeXeXG%3o3o2o2o$o$o$o3oeXeXeXeX@X}XL.#X#XeXr&r&eXeX#X}X$or$.%.%s#+&q$u$u$u$u$u$q$~CKCO&u&(C)C_C`C                                                          ",
"                                                        'C]C[C{CO&u$]$]$]$LC}CLCLC1X9$9$r&r&r&9$9$9$9$9$|Cr&r&r&r&J%J%y$y$y$G%3o3o3or&r&eXeXeX3o1oeXeX3or&r&9$eXeX@X@X@X@XeXeXeXeX@X@X@X@X1o3or&r&r&r&eXeXeX@X@X1o3o@X@X@X@X1o1o1o1o1o3o3oG%r&eX3o3o3o3o3o3oeX]$9$9$r&r&@X@X@X@X@X Zr&eXeX@X@X@XeXr&r&r&r&r&eXeX@X@XeXeX@X Zr&r& Z1o1o1o3o3o3oeXr&r&r&eXeXeXeXeXeXeXr&3o3o3ofXfX2o3oeX@X1X@X@X_._._.@XeXeX9$9$eXeX}XL.3o1o3ou$q$~Cq$q$~C]$]$q$]$.Z.Z+&XZoZOZ+Z@Z                                                          ",
"                                                        #Z$Z%Z&Zs&kXq$*Z}C}CLCLCq$q$q$1X9$9$9$9$y$r&eX1X1X1Xr&r&9$9$y$y$y$u$3o3o3o.%r&r&eXeX#XeX@X@XeXeXeXr&9$1XeX_._._.#X_.#XeXeXeX_._.M.gXL.#XeXeXeX#X}X}X}X_.@XeX@X@X@X_.L.L.L.L.L.L.3o3oeXeX#X}X}X}X3oeXeX]$1X1XjX_._._._._.@X ZeXeX_._.L._.@XeXeXr&9$eXeXeX@X_.@X@XeXr&9$r&eX@XL._.L.}X#XeXeXeXeX#XeXeXeXeXeXeXeXeX}X}X8$8$}X}X#X1X|C|C_._.L._._.eXeXr&1XeX/X/X$ogXL.}Xu$]$LCLCLCLCLCLC9$q$q$+&=Z-Z;Z:Z>Z,Z                                                          ",
"                                                        <Z1Z9&2Zw$r$r&3Z}C}CKC]$u$i$u$u$eXeXeXr&u$i$i$#X}X}X3o.%.%.%t$t$t$.%.%.%3o.%.%.%.%3o}X$o$o3o3o3o3o3or&G%r&3o}X}X}X}X}X3o3o1oL.L.L.}X8$}X}X}X3o3o3o}X$o$o$o}X3o3o3o3o3o2o2o$o$o$o$o3o}X}X}X$o$o}X}X}X3o.%eXeX}X}X}XL.L.L.}X3o3o3o3o}XL.L.L.3o3or&r&eX3o3o3oeX3oeXeXeXeX3o3o}X}XL.L.3o3o3o3o3o3o3o3o}X}X}X}X}X}X}X}X8$8$%X%X/X/X}X}XL.}XL.L.L.L.}X}XeXeXr&3o3o$ofXfX3o3o]$}C}C}C9$9$1X1Xq$q$~C4Z5Z6Z7Z8Z9Z                                                          ",
"                                                        0ZqZwZeZrX'$eXrZLC.Z+&+&u$u$u$i$kXkX.%u$i$i$kXkXkXr$kXkXk$k$2%2%L$P$P$P$P$P$.%.%.%$o$o$o$o}X}X}XkXkX.%.%.%.%}X}X}X}X/X}X}X3o}X}XL.8$8$8$/X}X}X}X$o$o$o8$$o$o$o$o$o$o$o$o$o$o$o$o$or$r$r$r$$o8$8$8$rXkXkXkX}X}X}X}X8$8$$o/X/X}X}X$o$o$o/X/X}X}Xu$3o3o3o}X}X}X}X#X}X}X}X}X$o$o$o$o}X}X3o3okX}X}X}X}X}Xr$}X}XkXkXkX$o8$l$V$bo%X/X/X8$8$8$8$8$/X/X/X}X#XeXeXeX3ofXL.L.3ou$q$LCLC]$u$u$i$i$i$d#.Z^CtZyZuZiZe+                                                          ",
"                                                        E+pZaZsZT rX2XK@~C~C+&+&i$i$}XkXnonor$r$rXrXnoZor$'$Zoe$e$e$L%L%e$dZnor$8$norXrXrXrXno8$%X%o/X8$rXrXrXkXkXkX/X/XrXno%o%o/X/X/X%ouo[ %X%X8$gX/X}X8$8$8$8$8$8$8$8$$o$o8$8$l$l$l$V$V$Zono3XV$V$V$V%V%V%3XhorXrX8$8$%ouo[ %X%o%o%o/X8$8$%X%o%o%o/X0$#Xi$kX}X/XgX/X/X}X8$/XrXno8$%X%X8$$o$o}XkXr$r$$o8$ho3X3X3Xho3XV%3X%XV$a%a%bobo-%[ V$V$%Xbobo%o%o%o%orX0$}X}XNXgX/X/Xi$d#d#d#s#2%rXrXL%rXi$~CfZgZhZjZkZlZ                                                          ",
"                                                        zZxZcZvZh%bZnZmZP@MZNZBZVZg#CZ2XporX3X#XjXpokX8$8$%orXL%L%QO8%ZZAZpo%o'.C$SZAZAZb#b#0$%o%oT T 2Xpo$XC$DZ`.`.`.N.Z P.P.$XP.T P.N.4o4o9%w.w.m.m.S M.uo[ gXw.T uogXgXgXgXuouoFZGZI.I.I.N.N.'.[ l$V$%o%o$Xpopo2XpoT N.9%4o9%HZJZ6&KZN.T N.Z N.$X`.`.f#LZ`.N.Z 9%T P.BXM.po$X2Xb#N.T 2X2X2XhX2X$X2XM.N.JZN.ZZn#C$'.PZPZ-%IZlXHZ4oLo9%uo-%I.'.IZUZJZKZC `.YZC `.`.N.JZZ YZP@L@TZRZEZb#BC`.`.WZQZ!Z~Z^Z/Z0N(Z)Z                                                          ",
"                                                        JO_Z`Z'Z]Z[Z{Z}Z|Z A.AXAoAOA+A@A#A$A%A&A*A=A-A;A:A>A,A<A<A1A2A3A4A5A6A7A8A9A0AqAwAeArAtAyAuAiApAaAsAdAfAgAhAjAkAlAzAxAcAvAbAbAtAnAmAMANABAVAbACAZAAASADAFAGA-AHAJAKALAiAnAPAIAUAYATARAEAWAQA!A~A^A/A(A)A_A)A/A`A3AfA'A]A[Al+{A}AXA|A S S.StAXSoSsA2AOS+S@S#S'A$S%S@AbA&S*S=S-S Ss%;S`A_AXSdA:S*A>S,S*S<S1S2S3S4S5S6S7S&A8S9S0SqSwSeSrSpAmAtSz+ySuSiSpSaSsSdSfSgShSjSkSlSzSxSdAfAcSvSaSbSnSmSMSNSBSVSCSZS                                                          ",
"                                                          I&;bASSSDSFSGS5%HSJSKSLSPSISUSYSTSRSESWSQS!k!Sq95%~S^S/Sh0(S)S_S(Sh0q9Wt`S'S]S[S{S}S|S D.DXDoDd%OD+D@D4v#D$D%D&DWt*D=DHS-D;D6@:D>D,DRS<D1D2D3D4D5D6D7D8D9D0DqDwDeDrDtDyDuDiDpDaDrDek554D1DsDRSdDfDgDDShDXDjDwbkDgDfilDzDxDcDWt`S#Dg-vDbDnDoDmD~SMD6NNDWS5%xDWtBDVDcDWt10CDk.dDZDADSDDDFDGDHDJD/8KDLDPDIDUDYDTDRD10EDEDWDQDQD!D~D^D/D(D)DCDsNsN_DBO`D'D]DO.uD[D7D{D}DH=|D F.Fh0'SXFZDXDDSoFOFyg+F@Fu                                                             ",
"                                                          #FI&$F%F&F x*F=F-F;F:F>FZ.,F<F1F2F3F4F5F6F7F8F9F0FqFwFeFrFtFyFuFiFpFaFsFdFfFgFhFjFkFlFzFxFjFcFvFbFnFmFw#MFNFBFVFCFZFAFSFbFDFFFGFHFJFKFLFPFIFUFYFTFGFRFEFWFQF!F~F^F/F(F)F_F`F'F]F[F>#{F}F|F G.GXGoGOG+G@G#G$G%G&G*G|F=G-G;G:G>G,G<G1G2G3G4G5G6G7G8G9Gr#0GqGwGeG.#rGtGyGuGiGpGaGsGdGfGgGhGjGkGlGYFzGxGP5cGP5vGgFbGnG[CmGMGNGBGVGCGZGAGSGDGqGFGGGHGJGKG@-LGPGh0-cIGUGYGTGRGZ.EGWGQG!GGa~G^G/G(G)G_oAX                                                              ",
"                                                                  _G`G'GVhw1 =LX)*JO]G!%[GE${G}G|G H.HXHoHOH+H@H#H$H%H&H*H=Hx*-H;H-H:H>H,H<H1H2H3H4H5H-H6H7H8H9H0HqH7H+HwHeHrHtHyH6H|&uHiHz*pHaHsHdH%HfHgH|&hHh%wHiHjHoH:HkHlHzHxHcHvHbHnHn@mHMHNHBHVHCHZH9HAH1HSH8HDHFHFHGHHHJHZHKHLH8HPHIHUHYHjHTHRHEH$HhH3HWHQH*H!HuH3H~H^H/HTH(H)H_H`H'H]H[H{H}H|H J.JPH8HXJ=*oJ|&OJ+J@J#J$JKHFH9H%JOJ&J*J=JRH4H-J2H;J:J>J,J<J1J2J3J4J5J/l#O>O:$SXLO6JYo7JYoA.8J9J0J                                                                  ",
"                                                                                          qJwJeJrJtJPZrOyJuJiJpJaJ)%hohosJ)%)%PZbodJfJfJaJgJpJpJOOlXlXHZhJhJDZC$fJfJaJ'.C$SZKZC$I.C$JZJZJZ4o6&JZaJ'.$XAZhJgJC$C$C$hJC$ZZAZAZhJgJaJjJaJhJSZC$$X$Xn#b#LZjX/Xn#n#n#sJZZaJhJhJC$hJDZSZDZDZDZfJgJgJZZ)%fJkJlJSZC KZ(%lJzJSZKZlJKZC$aJjJaJjJaJxJfJlJcJvJbJbJnJkJmJMJkJNJlJlJlJBJVJCJZJZJjJjJgJAJSJDJDJFJpJIZUZBJ3&Z 2X2XYZGJHJJJKJLJ                                                                                            ",
"                                                                                          PJIJ]DUJhJ;%a%YJTJTJX%a%%X/X3XPZ)%)%boRJ3XPZPZ'.boboboIZIZdJdJ'.$X$Xhobo'.'.I.I.'.$XN.uouo%oI.I.N.N.N.C$%opopohon#$X$X$X%o$Xn#n#n#ZZC$C$'.)%)%n#n#0$QOrXi$#XkXrXrX/XrXrXrXhon#$X$XZZ'.$XC$$Xn#)%ZZ$X$Xhohon#`.`.`.$XC$SZP.T '.$X$X%ohoho%o$XT $X%o0$b#b#8%z%AZSZgJfJfJC$SZhJhJhJhJhJJZjJdJ'.C$C$)%fJaJdJdJIZboI.N.T M.$Xho_VEJWJ3sQJ                                                                                            ",
"                                                                                          LJ!J~J^J0$^X^X/J(J)J_J>.[ 8$%X%X%X%X%X%X%X%X%X%X%X%X[ [ >.a%a%%X%X%o%o'.'.%ouoI.uououououogX[ uououououoM.M.#X}X#Xpo%o$Xpopo0$0$popopo#X%o%oho/X#X#Xi$i$i$/Xho%opopo/XporX/Xpo#Xpo%opopopo$X$X$X$Xpopo/Xpo2XjXpopo$XT uoM.gXgXgXgX/X/XgX_._.M.M.#XjXjXd#b#d#jX2X$X'.%o%o%o%o%X[ uouoI.-%-%uououo%o%o%o[ [ -%-%uouogXgXT -%`J'J]J[J#.                                                                                            ",
"                                                                                          KO{J}J|JP.W  K.KXK0%oK[ NXNX[ %X[ NXNX[ [ [ [ [ [ [ [ [ [ >.>.%X%XI.I.I.uouououo[ [ [ [ [ [ NXgXuogXgXgXgXgX_._._.#X/Xpopopo#X}X#X#X@X@X#Xpopo#XeXeX#X#X#Xpo$X$Xpopopopopopo#X#X#XpoM.M.poM.M.M.M.popo$XpojXpoM.M.M.T gXgXgXgXgXgXgX_._._._.M.M.hXhXjXK@K@K@hX_.pouououo%X%X%X[ [ NX[ [ [ [ [ [ gXgX| | | W w.w.uouom.m.9%OK+K@K#K;c                                                                                            ",
"                                                                                          LX$K%K<S&KFZ .*K=KoK*K .-.NX[ { ^XNX[ { { [ [ [ ^XNXNX| [ >.>.[ [ [ [ [ w.w.| | | NXNX^X^XNXNXNXNXfXfXfXfXNXfXL.L.}X}XL.}XL.}X}X}X#X#X_._._._._.|C|C|ChXhX_.#X}X}X/XgXpo/X/X#X_._._._.gX/X/X/XgX/X/Xpopopo#Xpo/X/XgXgXgXw.| NXNXNXgXgXM.M.M.M.popo#X#X#X#XeX#X#X}XL.gXNXNXl${ { { ^XNXNXNX[ { ^XNXfX(.| | | W K.w.R m.-K-K&K;KQs:KJO                                                                                            ",
"                                                                                          u.)1>K,K<Kw. .*K1K*K*K*K-.| W  .{ [ W W K.| W W W W | K.Q w.W W W [ | | | ;.Q Q Q ;. .oKW | | K.| K.K.+X+XgXgXL.L.L.L.L._._._.gXgXgXgXgX_._.gXgXgXgXM.M.M._.@X_.gXgXgXM.gXgXgXgXgXM.gXgXgXgXgXgXgXM.M._.hX_.gXgXgXgXuoK.K.K.K.K.W w.uouogXM.M.M.M._._.#X_._.M.M.M.).m.K.K.w.W W  .{ ^X| (.| -.-.| -.-.-.;.;.| K.2Kq.-K3K3K4K5K6K<FLJ                                                                                            ",
"                                                                                          LO7K.o8K9K`$*K=K=K*K*K*K{  .oKoK-%-%FZFZH.W oKoKoKGZFZ} } H.FZFZFZ:.W  .0K:.:.:.:.W qKwKoKNXW w.eKHX`$K.K.K.+XL.gX8$NXgXw.T gXgXgX8$NX[ [ uo[ %X[ NXNX8$NXgXK.gXuow.w.[ W [ [ w.[ uo[ gXK.K.K.K.gXm.m._.gXM.uogXgX[ uoW W W W w.w.FZuouououogXgXuopoM.gXgXgXgXuouoM.m.R w.w.W oKFZXK>.W W [ { ^X^X{ *K .f. . .K.Q R E GZrKtKyKuKx1)*                                                                                            ",
"                                                                                            S+iKpKaKI#-K0K*K*K@o@o{ >.oK0%>.-%GZGZ0%oK0%sKsKpOdKfKgKgKrKH.H.`$:. .0K^.^.hKjKqKkKlKzK=K=KxKcKvKoK| ^X:%-.-.{ @o .:.} H.W | fX^XNX .{ { l$^XNX^XKofX^X-.-. K1KJ.-.| -.bK| K.gXNXNXNX| fXfXfXL.L.L.AoAo(.:%fXfX| uo[  .W W W W FZuo[ { NXNX^X8$/XgX/X/X[ [ E E 9%9%E uo-%oK=KsKXK_J_J-%>.>.@o=.nKn.mKmKMKmK*K{ >.GZ].NKpABKVKCK                                                                                              ",
"                                                                                            ZK7b^cAKSKDKFKGKHKJKKKLKPKIKUKYKTKRKEKWKQK!K~K^K/K(K)K_K`K'K]K[K{K}K|K L.LXLoLOLx*+L@L#L:J$L%L&L*L=LYK-L;L:L-L>L,L<L1L2L3L4Lg*3L5L7$EK6L7L8L9L5Lg*0LqL5LwLeLrLtLKKyLuLiL;L>JpLaLsLdLfLgLhLjLkLlLzLxLi*cLvLbL1LnL5LmLMLf$NLBLVLCLZL7%=L@LAL;LSL|JDLFLGLgLgLgLHLJLKLLL]KPLILULYLHL$LTL1JRLELWLALQL!LAL~L^L/L(L)L_L`L'L]L[L{L}L|LI&                                                                                              ",
"                                                                                             P.PXPoPg-OP+P@P#P$P%P&P*P=P-P;P:P>PlG,P<P1P2P3P4P5P6P7P8P9P0PqPJGwPJGePrPtPyPV=#GuPiPpPaPsPdPfPgPhPjPkPlPzPxP5$cPvPbPnPmPMPNPBPVPCPBPZPAPSPDPFPGPHPJPKPLPPP*PDG{LIPUPYPTPDGRPEPWPQP!P~P^P/P(P)P_PyPePLG`PLG'PlP]P[PJFEP{PwP}P|PsP I.IjPXIoIOI+I@I#IxP*P$ITP%I&I=-AK$-*I=IiG-I;I:I:I>I,I<I1I2IrP3I<-4I5I1P6I7I I8I9I0IqIwIeIazFw                                                                                              ",
"                                                                                              Q&vxNvPXrItIyI1FuIiI+6pIaIsIdIfIgIhIjIkIjIlIzIxIcIvIbInIVSmIMINIBIVIm=CIZIZIAISIDIFIGIHIJIKIF+LIPIIIUIYITIRIEIWIFIQI!I~I^I/I(I)I_I`IYI'I]I[I{I}I|I U.UXUoUOU+U@U#U+U$U%U&U*U`I=U-URI;UXU:U>U,UZI<U1UHI2U3U4U5U3U#U=U6U7U8U9U0UqUAIwUeUrU[ItUKIyUuUuUqUiUpUaUsUdUfUgUhU0xjUXDkUlUzUxUcUxIvUbUnUmUMUNUODGMBUVUIICUZUAUSUDUFU<2                                                                                                ",
"                                                                                                  `G^zGUHUJUKULUPUIUUU_KgLYU7$iL@LQLgLTURUEUWUQU)5!U~U^U/U(U(U)U_U`U'U]U[U{U}U|U Y.YXYoYOY+Y@Y#Y$Y%Y#Yt+t+&Y*Y{U=Y-Y;Y:Y>Y#Y,Y<Y1Y2Y3Y4Yt+5Y6Y7Y8Y9Y5Y0Y7YF@qY^UIJwYwY^UeYrYtYyYwYuYiYpYaYDx0YsYaY)UsYdY0+@YwYfY2Y;YgY[U/UhYjY:Y_Z+Y+YkY*YkYlYzYhYxY1YaxcYvYbYnYmYMYNY{SBYVYCYZYAYSYDYFYSLPLGY|JRUHYJYKYLYXY+YPYIYUYYY                                                                                                    ",
"                                                                                                            TYRYEYWYQY!YHZ9%w.uo'.borXK@b#~Y^Y/Y(Y)YKO                                                                                                                                                                                                            ~%_Y`Y'Y]YnoXK-%bobodJI.HZIZlX[Y{Y}Y|Y Tu.                                                                                                              ",
"                                                                                                            .TXToTOT+T@THZuom.M.uo%o%o#Xho#T$T%T&T*Tn                                                                                                                                                                                                             t%=T-T;T:TI._J>.{ V$V$[ [ { -%sK>T,T<T1TnO                                                                                                              ",
"                                                                                                          2T3T4T5T6TZ I.gXK.K.M.gXgXgXL.'.7T8T9T0TFUqT                                                                                                                                                                                                              b wTfieTrT0%oK>.>.{ ^X:%| W oKtTyTuTiTG,%                                                                                                             ",
"                                                                                                          pTaTsTdTtKpo_.+XK.NXNXfXL._.M.bofTgT}S+1_&                                                                                                                                                                                                                Q&hTjTkTJ#_JoKW FZFZ| (.| | 0KsKlTzTe5xTcT                                                                                                            ",
"                                                                                                          ) vTfDbTZ /XL.+XgXNX^X:%L.).M.dJv*nTmTMTNT                                                                                                                                                                                                                i3BTVTCTZT9%:.;.Q W | (.w.} }  .`$ATXFAUSTLd                                                                                                          ",
"                                                                                                        (cDTFTGTHTbo%oL.fX(.NX:%:%L._.@XZZJTKTLTPT                                                                                                                                                                                                                    ITUTYTTT5&K.RTETfX:%^X| W  .{ oKWTQT!T~T^T                                                                                                          ",
"                                                                                                        /T(T)T_TEVho/XL.AofXfX:%L.L.}XG%`T'T]T}r                                                                                                                                                                                                                      [T{T'D}T|Tm.).2KgXNXNXNXNX^Xa%I$ C R.RXRZK                                                                                                          ",
"                                                                                                        oRZXP4OR3C/Xpo$o2ofX:%Ao_.}X}Xt$+R@R#R$R%R                                                                                                                                                                                                                    t%* &R*R=RCZS ).L.NX8$l$NXNXV$;%S -R;R:R>R                                                                                                          ",
"                                                                                                        Mb,R<R1R|C#X_.$o$o$oAo2R@X}X3o!C3R4R5RkY                                                                                                                                                                                                                        6R7R8R9RnZS ).fXfXfXl$fXl$l$jokX0RqRwReRrR                                                                                                        ",
"                                                                                                      7JIYtRyRuR$o1o1o}XKoKoAo1o}X/X3oiRI%pRaRsR                                                                                                                                                                                                                        dRfR:igR@CBX_.fXfXfXfX$oKoKoZo3XhRjRkRlRdO                                                                                                        ",
"                                                                                                      zRxRM7cR,.2o1oL.$oKofXL.L.8$8$#XvRbRnR(Ut%                                                                                                                                                                                                                        !%mRMRNRBRP.NX:%fXfX8$$ofX8$ZoZoVRCRw8ZRAR                                                                                                        ",
"                                                                                                      SRDRFRGR$oKoNX[ NXl$fX+XK.{ V$BXHRJRKRQnLR                                                                                                                                                                                                                        PR>RIRURYR`.l$KofXfX8$gXL.L.$o$oTRRRERWR.P                                                                                                        ",
"                                                                                                    QR!R~R^R/R(RKo8$%XNX^XNX+Xuo@o.OC%)R_R`R'R                                                                                                                                                                                                                            ]R[R{R}R4&.OF%:%fXNXgXgXL.L.}XeX|R EkR+ |.                                                                                                      ",
"                                                                                                    DT.EP4XE1C}X}X$o8$gX^Xl$NXuo@o@ooEOE+E@E<2                                                                                                                                                                                                                            <2#E$E%EDH8$KoKo:%fXNX8$}X/X8$r$iR&E*E=E6J                                                                                                      ",
"                                                                                                    62-E;E:E>EL.}X8$8$gX%XV$T R -.eK,Eo9<E1E                                                                                                                                                                                                                                2E3E4EuAm.$o^X:%fXfX8$%o%onor$HC5E6E7E8Eb$                                                                                                    ",
"                                                                                                  9E0EqEwEeE@X}X}X$o8$gX%o%XT ,.K. CrEtEqOw1                                                                                                                                                                                                                                LOyEuEiEwC8$l$l$fXfX8$8$8$8$r$pE'VaEsEdE7J                                                                                                    ",
"                                                                                                  pTfEgEhEjE3o}X$or$$o_./X%oSZP.gXkElEzExEu.                                                                                                                                                                                                                                6ccEvEbE-*%o%Xl$V$l$l$:%fX1o2onEmEMENEBEVE                                                                                                    ",
"                                                                                                  CE'UZEAESE|C}Xr$'$r$}XpoT P.,.I@DEFEGEC&                                                                                                                                                                                                                                  HEDTJEFSU b#8$:%l$;%;%:%2R+X$oKELEPEgnTOIE                                                                                                    ",
"                                                                                                  UEYETEREEEWE|Cu$.%.%eXjXBXBXpoPVQEyD!E~E                                                                                                                                                                                                                                    QJ^E/E(E)E$o_E:%l$[ +X+XK.gX*$`E'E]E[E,O                                                                                                    ",
"                                                                                                  {E}E|E W.WXWoWrZ1X9$r&eX#X_.b#OW+W@W#W>O                                                                                                                                                                                                                                    4 $W%W&W*W8$:%^X[ Q q.w.[ gXOK=W D-W% ;W                                                                                                    ",
"                                                                                                    :W>W77,W<W1W2W/C3Wy$3o}Xd#JV4W5W;U(U6W                                                                                                                                                                                                                                    z.7W8WGS9WYVa%Qo@o:.W _J-%0WqWwWeWrW.=                                                                                                      ",
"                                                                                                      .PtWyWuWiWpW}CJ%t$2%K%aWsW)=dWExT:                                                                                                                                                                                                                                        PJfWgWhWjWkWrO@o*KlWFZD$zWxWcWvW!&                                                                                                        ",
"                                                                                                      .PjYbWnWmWMWNWBWVWaCc*CWZWAWSWDWFW                                                                                                                                                                                                                                        #+D+GWHW-IJWKWU$LWH* LPWIWUWYW* O4                                                                                                        ",
"                                                                                                        }.TWRWEW]DWWbVQW!W1-~W^WRGv /W                                                                                                                                                                                                                                            (W)W+._W`W'W]W[W{W}Wm;|W Q.QXQ                                                                                                          ",
"                                                                                                          LJDkoQOQ+Qg@Df@Q#Q$Q%Q% &Q                                                                                                                                                                                                                                                *Q% =Q-Q;Q:Q>Q,Q<Q1Q2Q/lK1                                                                                                            "
};
